modules/detection_bypass/_luts/DJI_O3AirUnit_CineonFilmLog_minimal_natural_sunrise_snow_forest_glow_1.DJI_0064_stabilized_4.cube
TITLE "Generated by Resolve"
LUT_3D_SIZE 5
0.0794995 0.0800641 0.104372
0.149691 0.0856641 0.107118
0.410254 0.0686961 0.079469
0.720058 0.0350347 0.0209201
0.957916 0.0163272 0
0.0949569 0.179461 0.123552
0.182071 0.178317 0.161501
0.441917 0.165255 0.0643626
0.729595 0.140932 0.0170596
0.949966 0.127398 0
0.0576333 0.467811 0.108873
0.169131 0.459586 0.117357
0.409842 0.440024 0.274678
0.575921 0.461036 0.25452
0.782757 0.450431 0.130938
0.0364843 0.766674 0.11043
0.153262 0.757168 0.111986
0.402243 0.738628 0.196002
0.627924 0.719341 0.388556
0.740017 0.735393 0.418448
0.0157778 0.971923 0.111696
0.136797 0.9608 0.109117
0.384619 0.945174 0.167498
0.655039 0.907332 0.385458
0.81442 0.899794 0.540032
0.0846418 0.0853437 0.162356
0.110689 0.110246 0.111238
0.401816 0.0752117 0.185214
0.729641 0.0348211 0.155779
0.964462 0.0167544 0.131075
0.0954147 0.184436 0.225132
0.189425 0.184726 0.199649
0.467674 0.159319 0.184665
0.744335 0.13962 0.14902
0.959548 0.127779 0.12105
0.0638132 0.469718 0.225757
0.183139 0.459846 0.218448
0.424201 0.440879 0.331716
0.611521 0.454963 0.28069
0.854932 0.434165 0.175982
0.0459449 0.767941 0.223453
0.165881 0.75758 0.217166
0.41239 0.740749 0.26656
0.641764 0.720012 0.436744
0.756313 0.736446 0.460945
0.0281834 0.97232 0.219394
0.149035 0.961212 0.212284
0.400275 0.944564 0.249699
0.66772 0.908782 0.432715
0.830701 0.900832 0.590707
0.0940871 0.0969406 0.3449
0.160052 0.10724 0.318257
0.181445 0.172824 0.186892
0.498192 0.119432 0.361105
0.818921 0.0703899 0.411627
0.0912947 0.194293 0.462913
0.199237 0.187823 0.466957
0.256672 0.24892 0.261418
0.604852 0.191974 0.411017
0.890455 0.15523 0.437171
0.0630045 0.476158 0.489433
0.186847 0.465171 0.479576
0.447944 0.447868 0.44802
0.734707 0.423636 0.447364
0.953002 0.410224 0.439109
0.0458686 0.774701 0.477195
0.172885 0.76199 0.465873
0.444297 0.739422 0.454261
0.678203 0.721141 0.564111
0.807706 0.736828 0.562173
0.0302892 0.978927 0.465461
0.159426 0.96524 0.453407
0.4374 0.940322 0.451713
0.699275 0.913146 0.561471
0.869688 0.903655 0.73817
0.0978714 0.105333 0.559075
0.18233 0.105577 0.568643
0.217823 0.18468 0.282887
0.25243 0.236637 0.262562
0.41706 0.222858 0.417853
0.0839399 0.20148 0.757473
0.19704 0.192523 0.772992
0.306813 0.252537 0.420615
0.328588 0.315572 0.337011
0.510399 0.296147 0.493202
0.0606546 0.481132 0.796292
0.184756 0.469734 0.784283
0.458076 0.448005 0.756512
0.519677 0.513512 0.523766
0.777646 0.473121 0.660655
0.0435492 0.779278 0.785672
0.170916 0.766278 0.772076
0.445945 0.742916 0.746914
0.719097 0.722866 0.726436
0.93875 0.709285 0.708171
0.0252689 0.984527 0.771023
0.15639 0.970413 0.755825
0.452674 0.939406 0.734783
0.746761 0.911513 0.760204
0.907073 0.910002 0.880659
0.0967575 0.109102 0.774914
0.190036 0.104723 0.822034
0.287083 0.163195 0.562493
0.268559 0.257389 0.285023
0.30837 0.292882 0.319295
0.0774701 0.205066 1
0.193774 0.194797 1
0.373312 0.228077 0.742336
0.348974 0.3337 0.373571
0.384604 0.371557 0.393927
0.0578622 0.484123 1
0.182376 0.472618 1
0.455558 0.450752 1
0.557855 0.518547 0.638193
0.575769 0.56878 0.581048
0.04065 0.782132 1
0.168658 0.768887 1
0.443503 0.745281 1
0.718074 0.725414 0.980301
0.779095 0.777722 0.780331
0.022797 0.987182 1
0.156695 0.972519 1
0.464164 0.937881 0.978714
0.764446 0.912795 0.951873
0.927275 0.919585 0.948852
