modules/detection_bypass/_luts/DJI_O3AirUnit_CineonFilmLog_minimal_natural_sunrise_snow_forest_glow_1.DJI_0064_stabilized_4.cube
TITLE "Generated by Resolve"
LUT_3D_SIZE 9
0.0794995 0.0800641 0.104372
0.0880598 0.0878767 0.0883192
0.149691 0.0856641 0.107118
0.280171 0.0801709 0.0982071
0.410254 0.0686961 0.079469
0.557565 0.0530404 0.0507668
0.720058 0.0350347 0.0209201
0.893828 0.019089 0.00404364
0.957916 0.0163272 0
0.0923018 0.108309 0.117113
0.113161 0.110338 0.125185
0.1691 0.112352 0.114977
0.304845 0.105165 0.0939956
0.436377 0.0938125 0.070985
0.579644 0.0791791 0.044007
0.738125 0.0645151 0.0173037
0.895171 0.0544594 0
0.959228 0.0508278 0
0.0949569 0.179461 0.123552
0.122255 0.180209 0.12575
0.182071 0.178317 0.161501
0.295323 0.18088 0.114794
0.441917 0.165255 0.0643626
0.582345 0.15172 0.0372473
0.729595 0.140932 0.0170596
0.884749 0.131533 0
0.949966 0.127398 0
0.0662852 0.333776 0.108064
0.102907 0.331334 0.10837
0.174792 0.326284 0.123079
0.30428 0.314931 0.219211
0.376593 0.325399 0.225238
0.492378 0.325536 0.154955
0.649546 0.310384 0.0725719
0.820203 0.295338 0.0282139
0.892729 0.288746 0.0145418
0.0576333 0.467811 0.108873
0.0951705 0.464881 0.108476
0.169131 0.459586 0.117357
0.306615 0.447211 0.181994
0.409842 0.440024 0.274678
0.48246 0.451606 0.292149
0.575921 0.461036 0.25452
0.706844 0.456657 0.171099
0.782757 0.450431 0.130938
0.0478828 0.612192 0.109789
0.0862593 0.609079 0.108797
0.16199 0.603372 0.114076
0.293797 0.594919 0.152789
0.418265 0.579782 0.240986
0.518929 0.575265 0.330724
0.592126 0.587533 0.35494
0.669596 0.599435 0.339803
0.714244 0.602029 0.321798
0.0364843 0.766674 0.11043
0.076173 0.763302 0.108934
0.153262 0.757168 0.111986
0.286702 0.748684 0.140856
0.402243 0.738628 0.196002
0.531472 0.721752 0.301793
0.627924 0.719341 0.388556
0.70396 0.730053 0.416587
0.740017 0.735393 0.418448
0.0233158 0.912032 0.11165
0.0657969 0.907759 0.109071
0.14342 0.901213 0.110262
0.279484 0.891966 0.132937
0.390005 0.884947 0.174182
0.517494 0.870787 0.252506
0.64564 0.854047 0.371923
0.74847 0.852186 0.455787
0.786572 0.855192 0.482612
0.0157778 0.971923 0.111696
0.0603647 0.967132 0.108659
0.136797 0.9608 0.109117
0.273808 0.951705 0.129015
0.384619 0.945174 0.167498
0.514366 0.929992 0.248615
0.655039 0.907332 0.385458
0.773144 0.898528 0.49868
0.81442 0.899794 0.540032
0.0811933 0.0817578 0.121141
0.093492 0.0888685 0.10341
0.128573 0.0950942 0.118151
0.281453 0.0812848 0.127337
0.414847 0.0685893 0.114321
0.563027 0.0519112 0.0939193
0.727047 0.0334173 0.0698253
0.897276 0.0188144 0.0492866
0.964233 0.0148623 0.0421302
0.0931868 0.109697 0.138964
0.116991 0.111986 0.135805
0.169955 0.114015 0.137331
0.310002 0.104936 0.126772
0.441077 0.0935073 0.107866
0.581994 0.0798199 0.0798199
0.740291 0.0653391 0.0561379
0.895933 0.0557565 0.0375067
0.959915 0.0521248 0.0301976
0.0960555 0.181048 0.153948
0.126024 0.180835 0.151888
0.187182 0.17908 0.180453
0.315908 0.175784 0.12871
0.4551 0.161959 0.0969253
0.590112 0.150072 0.0749828
0.73669 0.140108 0.0564584
0.89041 0.131167 0.0396429
0.954955 0.126955 0.0324102
0.0691997 0.334432 0.144625
0.107027 0.331426 0.14258
0.180499 0.326375 0.151415
0.309239 0.315404 0.23917
0.383001 0.325277 0.239887
0.510781 0.321553 0.162554
0.66952 0.305241 0.0928054
0.838529 0.291264 0.0573434
0.908888 0.285191 0.0457313
0.0611582 0.468284 0.145052
0.0993668 0.465171 0.143236
0.174487 0.459693 0.147585
0.30927 0.448631 0.202731
0.414511 0.440299 0.293507
0.487495 0.45211 0.308446
0.58558 0.459907 0.264408
0.728344 0.452552 0.179126
0.805875 0.445548 0.141543
0.0517128 0.612543 0.145495
0.0905165 0.609354 0.143618
0.166629 0.603677 0.145586
0.298222 0.595346 0.179904
0.421164 0.581018 0.258793
0.523537 0.575647 0.348058
0.596292 0.587991 0.371878
0.676204 0.599237 0.352819
0.724041 0.601419 0.332448
0.0406653 0.766918 0.145892
0.0805524 0.763546 0.143771
0.157641 0.757458 0.144183
0.291798 0.748516 0.169833
0.405371 0.739528 0.21857
0.534722 0.722713 0.318303
0.632425 0.719631 0.405371
0.709072 0.730434 0.430549
0.745296 0.735821 0.431891
0.0284276 0.912062 0.14612
0.0702525 0.907927 0.143404
0.147646 0.901518 0.142672
0.28455 0.891875 0.162661
0.394308 0.885252 0.200412
0.519905 0.872084 0.271229
0.649638 0.854536 0.389319
0.753933 0.852415 0.472618
0.791791 0.855512 0.499168
0.0205692 0.972061 0.145937
0.0648966 0.967315 0.142504
0.141039 0.961135 0.14136
0.278889 0.95172 0.158999
0.389593 0.945205 0.195148
0.518059 0.930678 0.270314
0.659175 0.907835 0.401984
0.778866 0.89868 0.515389
0.819745 0.900038 0.556435
0.0846418 0.0853437 0.162356
0.103883 0.0894026 0.155779
0.110689 0.110246 0.111238
0.239048 0.098146 0.173983
0.401816 0.0752117 0.185214
0.5608 0.0546273 0.174578
0.729641 0.0348211 0.155779
0.898802 0.0206149 0.137972
0.964462 0.0167544 0.131075
0.0950484 0.113329 0.191943
0.120424 0.114687 0.193973
0.134951 0.134417 0.135637
0.283131 0.116487 0.192111
0.437034 0.0968948 0.190265
0.585855 0.0799573 0.173831
0.745754 0.0652018 0.154437
0.900877 0.0555886 0.139071
0.965133 0.0517281 0.13225
0.0954147 0.184436 0.225132
0.126833 0.183658 0.223545
0.189425 0.184726 0.199649
0.337728 0.170397 0.202411
0.467674 0.159319 0.184665
0.597772 0.149065 0.166476
0.744335 0.13962 0.14902
0.895445 0.131807 0.12871
0.959548 0.127779 0.12105
0.0700084 0.336522 0.228412
0.110369 0.332906 0.224063
0.190463 0.326268 0.218708
0.319402 0.316014 0.280217
0.402655 0.3234 0.263737
0.552789 0.310185 0.19234
0.706508 0.295644 0.154528
0.868101 0.284138 0.131838
0.93521 0.27921 0.123033
0.0638132 0.469718 0.225757
0.104234 0.466209 0.222416
0.183139 0.459846 0.218448
0.315206 0.450752 0.247868
0.424201 0.440879 0.331716
0.498695 0.452613 0.339712
0.611521 0.454963 0.28069
0.777417 0.441382 0.203311
0.854932 0.434165 0.175982
0.0558022 0.613687 0.224323
0.0963149 0.610162 0.221439
0.174945 0.603861 0.21796
0.308217 0.594903 0.23621
0.426246 0.583535 0.29601
0.533013 0.576135 0.386099
0.605081 0.588663 0.405753
0.692653 0.598367 0.378973
0.748104 0.59881 0.352209
0.0459449 0.767941 0.223453
0.0870222 0.764157 0.22063
0.165881 0.75758 0.217166
0.302083 0.74786 0.229679
0.41239 0.740749 0.26656
0.540963 0.724697 0.351675
0.641764 0.720012 0.436744
0.719814 0.73109 0.461219
0.756313 0.736446 0.460945
0.0348669 0.912703 0.222004
0.0771649 0.908339 0.218799
0.15584 0.901564 0.215183
0.294163 0.8916 0.224079
0.403891 0.885191 0.253498
0.524941 0.874388 0.31075
0.657755 0.855482 0.4206
0.764981 0.852628 0.507256
0.802335 0.85597 0.533059
0.0281834 0.97232 0.219394
0.0718853 0.967727 0.2159
0.149035 0.961212 0.212284
0.287999 0.951644 0.220157
0.400275 0.944564 0.249699
0.525948 0.931441 0.315084
0.66772 0.908782 0.432715
0.790127 0.898863 0.549279
0.830701 0.900832 0.590707
0.0903029 0.0918441 0.255085
0.113176 0.0937667 0.257527
0.13843 0.110353 0.202182
0.147951 0.145266 0.150011
0.244282 0.135409 0.229618
0.45037 0.0948348 0.285863
0.663264 0.0597696 0.306111
0.854994 0.0378271 0.307301
0.928054 0.031632 0.304158
0.0975814 0.119707 0.298878
0.124208 0.12015 0.305501
0.165774 0.131319 0.253346
0.172122 0.169345 0.174228
0.283009 0.154406 0.256764
0.490745 0.114672 0.302266
0.6916 0.0859236 0.314504
0.868986 0.0690013 0.311162
0.939834 0.063035 0.307118
0.0936446 0.190143 0.354498
0.126177 0.188785 0.355993
0.198871 0.185016 0.351141
0.223056 0.221164 0.224552
0.3626 0.198062 0.30312
0.550149 0.16762 0.323995
0.72369 0.149386 0.321569
0.888304 0.136797 0.312581
0.95584 0.131746 0.307454
0.0698863 0.340002 0.3776
0.110262 0.336461 0.373877
0.192706 0.32929 0.366293
0.325643 0.323644 0.32958
0.463539 0.307759 0.341619
0.594186 0.297795 0.330007
0.740093 0.28838 0.317876
0.892882 0.279316 0.305745
0.957626 0.275181 0.300023
0.063035 0.473625 0.373312
0.104036 0.470008 0.369406
0.186938 0.462608 0.361624
0.33257 0.450507 0.352163
0.442695 0.441825 0.405051
0.534936 0.449073 0.386282
0.692988 0.434195 0.328801
0.860014 0.421042 0.305486
0.928817 0.415702 0.297322
0.0557565 0.617578 0.368444
0.0975204 0.613733 0.364645
0.180911 0.606104 0.357382
0.325612 0.594247 0.3505
0.436912 0.587381 0.374426
0.5514 0.577005 0.451637
0.625284 0.589258 0.459937
0.747417 0.591043 0.414603
0.82182 0.585626 0.383047
0.0475013 0.771511 0.364309
0.090135 0.767254 0.360327
0.173724 0.759274 0.353643
0.3178 0.747433 0.348302
0.430228 0.740353 0.363638
0.551186 0.729305 0.416236
0.660395 0.720531 0.502968
0.741314 0.732341 0.522194
0.779919 0.737392 0.517388
0.0383001 0.91577 0.35964
0.0820478 0.910979 0.355459
0.164721 0.902678 0.349233
0.30901 0.891371 0.344915
0.423423 0.884031 0.356435
0.537865 0.876921 0.393072
0.67335 0.858076 0.483482
0.786786 0.853162 0.57554
0.822934 0.857023 0.600122
0.0327153 0.975143 0.355398
0.0775616 0.970214 0.351156
0.158526 0.962463 0.345373
0.302785 0.951492 0.341436
0.422034 0.942336 0.356374
0.545037 0.930846 0.403464
0.684077 0.911055 0.49868
0.812329 0.899992 0.617304
0.85153 0.902007 0.665171
0.0940871 0.0969406 0.3449
0.118547 0.0978561 0.351232
0.160052 0.10724 0.318257
0.161318 0.153338 0.174929
0.181445 0.172824 0.186892
0.277501 0.162051 0.276051
0.498192 0.119432 0.361105
0.730526 0.0821546 0.401923
0.818921 0.0703899 0.411627
0.0986496 0.12462 0.397742
0.126452 0.124392 0.406348
0.181689 0.129061 0.374899
0.186419 0.176654 0.2038
0.205646 0.196765 0.211154
0.309194 0.183886 0.302205
0.535637 0.141955 0.379858
0.758877 0.108125 0.413718
0.844388 0.0970016 0.422065
0.0912947 0.194293 0.462913
0.124834 0.192615 0.466621
0.199237 0.187823 0.466957
0.242252 0.224964 0.276875
0.256672 0.24892 0.261418
0.37586 0.232242 0.3523
0.604852 0.191974 0.411017
0.811292 0.164233 0.433188
0.890455 0.15523 0.437171
0.0695354 0.342626 0.492821
0.110018 0.339178 0.489647
0.192584 0.331991 0.483314
0.338567 0.320684 0.463722
0.356664 0.352895 0.359014
0.51635 0.326146 0.432395
0.708659 0.300786 0.448478
0.878096 0.286244 0.448127
0.946685 0.280888 0.446403
0.0630045 0.476158 0.489433
0.104051 0.472541 0.486061
0.186847 0.465171 0.479576
0.334371 0.452583 0.469078
0.447944 0.447868 0.44802
0.589471 0.433341 0.454093
0.734707 0.423636 0.447364
0.88777 0.414527 0.441962
0.953002 0.410224 0.439109
0.0548257 0.620401 0.48423
0.0966354 0.616571 0.480446
0.179965 0.608972 0.473396
0.329015 0.596124 0.462562
0.45243 0.586664 0.45864
0.567422 0.577676 0.512856
0.658656 0.585733 0.497047
0.832212 0.572045 0.449882
0.907179 0.565026 0.440391
0.0458686 0.774701 0.477195
0.0888533 0.770352 0.473045
0.172885 0.76199 0.465873
0.323095 0.748714 0.456046
0.444297 0.739422 0.454261
0.560708 0.732341 0.480415
0.678203 0.721141 0.564111
0.762539 0.733196 0.575402
0.807706 0.736828 0.562173
0.0364538 0.919066 0.470253
0.0810864 0.914061 0.465583
0.165026 0.90547 0.458427
0.315709 0.892271 0.449836
0.435935 0.883375 0.449256
0.555077 0.875624 0.470558
0.685985 0.861204 0.542153
0.806439 0.853895 0.643153
0.841443 0.858412 0.671138
0.0302892 0.978927 0.465461
0.0769055 0.973342 0.460334
0.159426 0.96524 0.453407
0.31043 0.952178 0.445869
0.4374 0.940322 0.451713
0.566323 0.927718 0.485557
0.699275 0.913146 0.561471
0.831846 0.901244 0.689052
0.869688 0.903655 0.73817
0.0967117 0.101472 0.4421
0.12256 0.101518 0.451164
0.172839 0.10605 0.431449
0.187488 0.15108 0.262959
0.187961 0.184573 0.192462
0.216098 0.199512 0.225528
0.331289 0.186557 0.332723
0.555428 0.145937 0.428794
0.65893 0.12781 0.454673
0.0986648 0.12903 0.501976
0.127626 0.128069 0.514214
0.18996 0.129 0.499138
0.216388 0.171588 0.311009
0.212665 0.208515 0.218418
0.240284 0.224247 0.249363
0.36112 0.210803 0.357839
0.590204 0.169223 0.448447
0.692988 0.151278 0.471656
0.0881361 0.198154 0.586648
0.122698 0.195987 0.591959
0.198688 0.190341 0.595239
0.277974 0.214191 0.425925
0.266163 0.259602 0.276417
0.291646 0.277516 0.29955
0.423789 0.260761 0.407721
0.662333 0.217777 0.485145
0.762478 0.201068 0.502541
0.0686656 0.34519 0.623102
0.109239 0.341726 0.61976
0.191943 0.334493 0.612757
0.33875 0.322683 0.59498
0.375357 0.357 0.412665
0.391989 0.381628 0.397528
0.557534 0.355184 0.498085
0.790417 0.317662 0.539818
0.876554 0.306065 0.54699
0.0622263 0.478737 0.619547
0.103395 0.475074 0.61619
0.186328 0.467674 0.60943
0.33402 0.455085 0.597787
0.459281 0.445975 0.582818
0.483574 0.476524 0.4869
0.680064 0.443565 0.556466
0.86746 0.422934 0.563348
0.938994 0.416541 0.561196
0.0543832 0.622766 0.616068
0.0963455 0.618875 0.612589
0.179568 0.611002 0.605417
0.328634 0.598474 0.593866
0.453819 0.588525 0.58468
0.583291 0.57882 0.577737
0.727184 0.568856 0.565789
0.880415 0.559625 0.556924
0.946334 0.555001 0.55259
0.0447395 0.777142 0.611261
0.0879072 0.772702 0.607187
0.171756 0.76434 0.599298
0.321965 0.751339 0.586801
0.447211 0.740948 0.577325
0.575875 0.731243 0.57261
0.698009 0.721721 0.634989
0.797009 0.731228 0.62266
0.868055 0.727504 0.592416
0.033875 0.921981 0.603677
0.0793317 0.916716 0.598718
0.163409 0.908232 0.590661
0.315068 0.894987 0.578759
0.440665 0.884474 0.570459
0.571542 0.873533 0.571649
0.699611 0.864042 0.612467
0.826856 0.85507 0.725704
0.860166 0.86038 0.750347
0.0272221 0.982193 0.597894
0.0749676 0.97644 0.592355
0.157855 0.968139 0.584878
0.312139 0.954116 0.574411
0.447379 0.93933 0.572946
0.585367 0.924498 0.58732
0.720638 0.913725 0.642618
0.851164 0.903441 0.763973
0.888243 0.906218 0.810544
0.0978714 0.105333 0.559075
0.125109 0.104555 0.572381
0.18233 0.105577 0.568643
0.22826 0.13901 0.432975
0.217823 0.18468 0.282887
0.221118 0.21677 0.22681
0.25243 0.236637 0.262562
0.347494 0.233478 0.366217
0.41706 0.222858 0.417853
0.0972763 0.132815 0.634379
0.127413 0.131151 0.652689
0.194629 0.129366 0.656031
0.259922 0.15671 0.513512
0.246738 0.206378 0.328023
0.246632 0.241382 0.253819
0.277317 0.26244 0.286885
0.374533 0.258534 0.391318
0.446372 0.246891 0.442466
0.0839399 0.20148 0.757473
0.119554 0.198856 0.765545
0.19704 0.192523 0.772992
0.309911 0.201862 0.64976
0.306813 0.252537 0.420615
0.300374 0.293278 0.310842
0.328588 0.315572 0.337011
0.432166 0.309697 0.443549
0.510399 0.296147 0.493202
0.0670481 0.34757 0.801083
0.107729 0.34406 0.797452
0.190387 0.336675 0.789624
0.337652 0.324834 0.771267
0.42005 0.341497 0.62649
0.406897 0.392981 0.431998
0.42855 0.41912 0.43473
0.550851 0.407431 0.544564
0.645106 0.38967 0.5879
0.0606546 0.481132 0.796292
0.101976 0.477424 0.792462
0.184756 0.469734 0.784283
0.332891 0.457389 0.771008
0.458076 0.448005 0.756512
0.509499 0.478874 0.574243
0.519677 0.513512 0.523766
0.671519 0.493095 0.631098
0.777646 0.473121 0.660655
0.052903 0.625147 0.79115
0.0950637 0.621195 0.78706
0.178393 0.613291 0.778637
0.327688 0.600717 0.765133
0.452522 0.590753 0.754223
0.582574 0.580713 0.742
0.617395 0.614725 0.619257
0.810651 0.584207 0.701213
0.901991 0.570748 0.708797
0.0435492 0.779278 0.785672
0.0869917 0.774731 0.780972
0.170916 0.766278 0.772076
0.321248 0.753216 0.758114
0.445945 0.742916 0.746914
0.576699 0.732616 0.735576
0.719097 0.722866 0.726436
0.872831 0.713817 0.713619
0.93875 0.709285 0.708171
0.0314488 0.9243 0.778195
0.0781415 0.918502 0.772061
0.162203 0.910216 0.763088
0.313726 0.897154 0.748623
0.439857 0.886519 0.73695
0.576791 0.873869 0.728038
0.72224 0.862593 0.732509
0.848264 0.85684 0.812055
0.87982 0.863249 0.827878
0.0252689 0.984527 0.771023
0.0734722 0.978653 0.764569
0.15639 0.970413 0.755825
0.314611 0.955077 0.742031
0.452674 0.939406 0.734783
0.596155 0.923278 0.737224
0.746761 0.911513 0.760204
0.868879 0.90753 0.835843
0.907073 0.910002 0.880659
0.0973678 0.108141 0.702052
0.125841 0.106615 0.725124
0.188251 0.104906 0.743694
0.265003 0.124941 0.652354
0.265415 0.170932 0.468391
0.252247 0.217884 0.316976
0.258686 0.254444 0.263951
0.291768 0.27631 0.302419
0.317647 0.28043 0.336507
0.0945602 0.135607 0.805081
0.125795 0.133349 0.827863
0.196185 0.129732 0.841154
0.290532 0.14435 0.738521
0.296971 0.190311 0.530938
0.279301 0.241154 0.352911
0.284123 0.27953 0.289982
0.316503 0.3019 0.326619
0.342229 0.305745 0.360571
0.0793927 0.203922 0.942672
0.115984 0.200931 0.950927
0.194705 0.19411 0.958038
0.323583 0.196185 0.85893
0.356298 0.234577 0.644358
0.336599 0.289799 0.430701
0.337316 0.331533 0.345113
0.36788 0.355016 0.376883
0.393866 0.358602 0.411109
0.0650492 0.349416 0.980743
0.105867 0.345876 0.977035
0.188373 0.338323 0.969024
0.336049 0.326543 0.951217
0.441077 0.332555 0.843915
0.452934 0.380682 0.608865
0.442069 0.432166 0.457633
0.468025 0.458473 0.474845
0.494728 0.461707 0.509743
0.0586709 0.483009 0.975753
0.10013 0.479271 0.971832
0.18291 0.47155 0.963668
0.331289 0.45919 0.950362
0.456123 0.449729 0.936309
0.550744 0.462989 0.801053
0.539773 0.521965 0.572915
0.559182 0.552636 0.564034
0.587137 0.555184 0.599985
0.0509346 0.627008 0.970321
0.0932631 0.622843 0.965972
0.176608 0.615076 0.957732
0.326116 0.602472 0.944167
0.450568 0.592462 0.933196
0.580804 0.582406 0.921126
0.651194 0.612268 0.73518
0.656931 0.653422 0.659678
0.687587 0.654749 0.69752
0.0415198 0.781094 0.964492
0.0852369 0.776104 0.959426
0.169207 0.767926 0.950866
0.319783 0.754849 0.936934
0.444099 0.74435 0.925566
0.575113 0.734249 0.914458
0.718379 0.724422 0.903578
0.762005 0.761166 0.762798
0.80087 0.760174 0.803159
0.0294347 0.926131 0.958083
0.0767681 0.920104 0.951904
0.160845 0.911772 0.943145
0.312627 0.898665 0.929137
0.440391 0.887037 0.916487
0.579217 0.874327 0.90277
0.727993 0.863539 0.891554
0.865553 0.860395 0.883803
0.904784 0.864744 0.88574
0.0236515 0.986374 0.952331
0.0721752 0.980407 0.945998
0.155917 0.972091 0.937346
0.319554 0.954726 0.920821
0.459831 0.938384 0.90695
0.604318 0.922759 0.897093
0.758877 0.912215 0.896193
0.884855 0.911238 0.910246
0.920501 0.916716 0.929442
0.0967575 0.109102 0.774914
0.125399 0.107042 0.797131
0.190036 0.104723 0.822034
0.27657 0.120409 0.745342
0.287083 0.163195 0.562493
0.269276 0.21442 0.378927
0.268559 0.257389 0.285023
0.290867 0.285283 0.295857
0.30837 0.292882 0.319295
0.0931868 0.136629 0.882048
0.124926 0.134127 0.905455
0.196368 0.1299 0.920745
0.29929 0.140795 0.830747
0.317983 0.182498 0.62829
0.297398 0.237354 0.419181
0.294652 0.282368 0.313268
0.31603 0.310933 0.320638
0.333135 0.318441 0.343542
0.0774701 0.205066 1
0.114504 0.201938 1
0.193774 0.194797 1
0.326955 0.195239 0.94313
0.373312 0.228077 0.742336
0.356619 0.284352 0.507195
0.348974 0.3337 0.373571
0.368048 0.363958 0.371878
0.384604 0.371557 0.393927
0.0642252 0.35053 1
0.105089 0.34696 1
0.187823 0.339391 1
0.335714 0.327581 1
0.44564 0.331044 0.929931
0.474174 0.372961 0.704326
0.456245 0.432212 0.500435
0.469459 0.46688 0.472068
0.484825 0.474968 0.492012
0.0578622 0.484123 1
0.099382 0.480293 1
0.182376 0.472618 1
0.330938 0.460227 1
0.455558 0.450752 1
0.560082 0.459358 0.893278
0.557855 0.518547 0.638193
0.562142 0.560235 0.564279
0.575769 0.56878 0.581048
0.0501106 0.628153 1
0.0925002 0.623804 1
0.17612 0.616144 1
0.325734 0.603494 1
0.449897 0.593378 1
0.580285 0.583383 0.997436
0.671611 0.604944 0.832456
0.662623 0.659602 0.666682
0.673655 0.669566 0.676905
0.04065 0.782132 1
0.0845197 0.777111 1
0.168658 0.768887 1
0.319387 0.755795 1
0.443503 0.745281 1
0.574624 0.73521 0.991165
0.718074 0.725414 0.980301
0.773251 0.763485 0.791577
0.779095 0.777722 0.780331
0.0284123 0.926986 1
0.076051 0.921035 1
0.160342 0.912688 1
0.312337 0.899596 1
0.441352 0.887541 0.992233
0.581003 0.874784 0.974914
0.730541 0.864485 0.957595
0.867933 0.86157 0.943999
0.881621 0.879927 0.884443
0.022797 0.987182 1
0.0715343 0.981231 1
0.156695 0.972519 1
0.322545 0.954437 0.996735
0.464164 0.937881 0.978714
0.609369 0.922484 0.962112
0.764446 0.912795 0.951873
0.888914 0.913146 0.953918
0.927275 0.919585 0.948852
