modules/detection_bypass/_luts/DJI_O3AirUnit_CineonFilmLog_minimal_natural_sunrise_snow_forest_glow_1.DJI_0064_stabilized_4.cube
TITLE "Generated by Resolve"
LUT_3D_SIZE 17
0.0794995 0.0800641 0.104372
0.0868849 0.0827649 0.0974289
0.0880598 0.0878767 0.0883192
0.100267 0.0894484 0.0985885
0.149691 0.0856641 0.107118
0.213153 0.0837873 0.104829
0.280171 0.0801709 0.0982071
0.342794 0.0749218 0.0895399
0.410254 0.0686961 0.079469
0.481758 0.0611734 0.0675059
0.557565 0.0530404 0.0507668
0.634104 0.0438849 0.0356451
0.720058 0.0350347 0.0209201
0.813443 0.0265812 0.00666819
0.893828 0.019089 0.00404364
0.941665 0.0172885 0
0.957916 0.0163272 0
0.0868696 0.0935073 0.111498
0.0965744 0.0948043 0.115785
0.101228 0.0988937 0.106294
0.117418 0.0996872 0.109957
0.1635 0.09691 0.11043
0.226062 0.0952926 0.105394
0.294377 0.0914168 0.0971084
0.358099 0.0866102 0.0860609
0.424689 0.0804913 0.0748302
0.496254 0.0732891 0.0618296
0.570504 0.065156 0.0477302
0.646372 0.0567483 0.0332494
0.73196 0.0488594 0.0193484
0.821576 0.0417182 0.00688182
0.895323 0.0367285 0
0.943771 0.0339361 0
0.959426 0.0330053 0
0.0923018 0.108309 0.117113
0.102388 0.109056 0.1196
0.113161 0.110338 0.125185
0.116854 0.116762 0.11693
0.1691 0.112352 0.114977
0.235325 0.109667 0.104875
0.304845 0.105165 0.0939956
0.369833 0.0999008 0.0829175
0.436377 0.0938125 0.070985
0.507347 0.0868238 0.0579538
0.579644 0.0791791 0.044007
0.654612 0.071519 0.0298466
0.738125 0.0645151 0.0173037
0.824475 0.0585641 0.00622568
0.895171 0.0544594 0
0.943435 0.0517128 0
0.959228 0.0508278 0
0.0961929 0.131243 0.121889
0.107851 0.13228 0.123537
0.12015 0.13286 0.128038
0.135073 0.134661 0.135882
0.165347 0.137789 0.138552
0.236789 0.134066 0.10901
0.311971 0.127855 0.0915389
0.379171 0.12195 0.0782177
0.445686 0.115663 0.0653544
0.516411 0.109041 0.0521859
0.586587 0.102007 0.03888
0.659251 0.0953078 0.0263828
0.739605 0.0897231 0.0154421
0.822019 0.0848402 0.00643931
0.892622 0.0807507 0
0.941299 0.0780194 0
0.957122 0.076936 0
0.0949569 0.179461 0.123552
0.108492 0.179797 0.123674
0.122255 0.180209 0.12575
0.142916 0.179828 0.132387
0.182071 0.178317 0.161501
0.223804 0.184268 0.158404
0.295323 0.18088 0.114794
0.370535 0.172702 0.0838331
0.441917 0.165255 0.0643626
0.513497 0.158175 0.049424
0.582345 0.15172 0.0372473
0.651896 0.146258 0.0267185
0.729595 0.140932 0.0170596
0.813107 0.135714 0.00770581
0.884749 0.131533 0
0.933913 0.128389 0
0.949966 0.127398 0
0.0806134 0.254856 0.11545
0.0966354 0.254704 0.114717
0.113069 0.253971 0.115434
0.135958 0.252934 0.118914
0.182162 0.249882 0.136141
0.243381 0.245304 0.187045
0.284031 0.250889 0.194049
0.329488 0.254108 0.172183
0.392798 0.251011 0.131029
0.468467 0.243565 0.0920272
0.547814 0.235309 0.0637522
0.621302 0.227466 0.043595
0.699855 0.220722 0.0282902
0.787823 0.214298 0.0153964
0.862211 0.208972 0.0059205
0.913207 0.205554 0
0.929824 0.204028 0
0.0662852 0.333776 0.108064
0.0844434 0.33254 0.107607
0.102907 0.331334 0.10837
0.128695 0.329381 0.111421
0.174792 0.326284 0.123079
0.247196 0.318425 0.166018
0.30428 0.314931 0.219211
0.339483 0.319814 0.231525
0.376593 0.325399 0.225238
0.425528 0.328054 0.199939
0.492378 0.325536 0.154955
0.570626 0.318853 0.108537
0.649546 0.310384 0.0725719
0.740185 0.301854 0.0458991
0.820203 0.295338 0.0282139
0.874983 0.290578 0.0178988
0.892729 0.288746 0.0145418
0.0618143 0.40087 0.108324
0.080415 0.399771 0.107958
0.0990921 0.398276 0.10837
0.12517 0.39617 0.110506
0.17203 0.393256 0.119692
0.239872 0.387717 0.146319
0.311315 0.378408 0.206546
0.357443 0.377569 0.247395
0.39237 0.382315 0.26186
0.428458 0.388373 0.260288
0.473243 0.393469 0.243687
0.532525 0.394537 0.209003
0.600122 0.390936 0.160845
0.682216 0.383948 0.113375
0.765118 0.376593 0.079881
0.823453 0.371252 0.0603342
0.842603 0.36939 0.0544289
0.0576333 0.467811 0.108873
0.0763561 0.466407 0.108324
0.0951705 0.464881 0.108476
0.121614 0.462974 0.110048
0.169131 0.459586 0.117357
0.234974 0.45536 0.137484
0.306615 0.447211 0.181994
0.366125 0.439994 0.237644
0.409842 0.440024 0.274678
0.445121 0.444984 0.290913
0.48246 0.451606 0.292149
0.526177 0.457771 0.280629
0.575921 0.461036 0.25452
0.638056 0.460288 0.214313
0.706844 0.456657 0.171099
0.763653 0.452369 0.140642
0.782757 0.450431 0.130938
0.0529793 0.537774 0.109316
0.071931 0.536324 0.108629
0.090959 0.535042 0.108659
0.117494 0.53283 0.109651
0.165927 0.529534 0.115587
0.231708 0.525429 0.13228
0.299184 0.519478 0.163394
0.363485 0.511254 0.213062
0.419547 0.505241 0.265675
0.462409 0.505531 0.302495
0.500816 0.510918 0.32015
0.538705 0.517845 0.323461
0.577279 0.524269 0.316304
0.623026 0.529213 0.297047
0.673396 0.530755 0.269795
0.71725 0.529976 0.245274
0.733364 0.529366 0.236545
0.0478828 0.612192 0.109789
0.0671244 0.610681 0.10901
0.0862593 0.609079 0.108797
0.113115 0.607111 0.109438
0.16199 0.603372 0.114076
0.228626 0.59913 0.128374
0.293797 0.594919 0.152789
0.355535 0.588129 0.189502
0.418265 0.579782 0.240986
0.473152 0.574578 0.294163
0.518929 0.575265 0.330724
0.557351 0.58053 0.349248
0.592126 0.587533 0.35494
0.630396 0.594339 0.350942
0.669596 0.599435 0.339803
0.702068 0.601907 0.327245
0.714244 0.602029 0.321798
0.0423133 0.689464 0.110201
0.0619059 0.687785 0.10927
0.0813153 0.686427 0.108965
0.108263 0.684092 0.109209
0.157534 0.680232 0.112902
0.225589 0.67599 0.125246
0.289754 0.672007 0.145815
0.348486 0.667201 0.173754
0.410651 0.659586 0.215213
0.472969 0.650965 0.270253
0.530098 0.646372 0.323201
0.574243 0.647379 0.359121
0.610269 0.652399 0.379721
0.648157 0.659495 0.387976
0.683146 0.665537 0.387488
0.711116 0.669306 0.383246
0.721187 0.670329 0.381003
0.0364843 0.766674 0.11043
0.0565805 0.765042 0.109239
0.076173 0.763302 0.108934
0.103456 0.761028 0.108965
0.153262 0.757168 0.111986
0.222019 0.752346 0.122591
0.286702 0.748684 0.140856
0.343038 0.74464 0.163668
0.402243 0.738628 0.196002
0.466163 0.73022 0.24361
0.531472 0.721752 0.301793
0.584939 0.717693 0.3523
0.627924 0.719341 0.388556
0.66836 0.724315 0.408728
0.70396 0.730053 0.416587
0.731197 0.734417 0.41854
0.740017 0.735393 0.418448
0.0299687 0.845624 0.110735
0.0508278 0.843488 0.109514
0.0707256 0.841901 0.108858
0.0982071 0.839338 0.108858
0.148165 0.835172 0.11107
0.217853 0.830411 0.120211
0.283101 0.826307 0.136446
0.338613 0.822736 0.156298
0.395407 0.818296 0.182834
0.456962 0.811063 0.220935
0.525536 0.801984 0.274327
0.5879 0.794125 0.332967
0.639933 0.790906 0.381933
0.687556 0.792752 0.415442
0.727611 0.796826 0.432807
0.754726 0.800259 0.441978
0.763516 0.801419 0.444526
0.0233158 0.912032 0.11165
0.045655 0.909712 0.109941
0.0657969 0.907759 0.109071
0.0931716 0.905165 0.108568
0.14342 0.901213 0.110262
0.213184 0.896101 0.118105
0.279484 0.891966 0.132937
0.335119 0.888808 0.151171
0.390005 0.884947 0.174182
0.449592 0.879301 0.206302
0.517494 0.870787 0.252506
0.584787 0.861234 0.311589
0.64564 0.854047 0.371923
0.702586 0.851164 0.42211
0.74847 0.852186 0.455787
0.777615 0.85449 0.476631
0.786572 0.855192 0.482612
0.0178988 0.957214 0.112001
0.0415656 0.954299 0.109758
0.0620737 0.952468 0.108827
0.0892348 0.950027 0.108415
0.139132 0.945983 0.109621
0.209064 0.94107 0.116564
0.276188 0.936934 0.130404
0.33196 0.933761 0.147555
0.386404 0.930449 0.169024
0.445289 0.925002 0.199741
0.514076 0.916121 0.246311
0.585733 0.904814 0.310597
0.651942 0.894743 0.379232
0.716426 0.888792 0.439368
0.766476 0.887648 0.485954
0.797192 0.888716 0.514458
0.806683 0.889342 0.523308
0.0157778 0.971923 0.111696
0.0397803 0.969024 0.109453
0.0603647 0.967132 0.108659
0.0870375 0.964736 0.107958
0.136797 0.9608 0.109117
0.206058 0.955886 0.115633
0.273808 0.951705 0.129015
0.330144 0.948608 0.145983
0.384619 0.945174 0.167498
0.444587 0.939223 0.200381
0.514366 0.929992 0.248615
0.586786 0.918151 0.31397
0.655039 0.907332 0.385458
0.721828 0.90045 0.448325
0.773144 0.898528 0.49868
0.804807 0.899245 0.530297
0.81442 0.899794 0.540032
0.0803082 0.0808728 0.112398
0.0889448 0.0832074 0.107439
0.0903487 0.0886244 0.0937514
0.0949874 0.093431 0.0957351
0.142412 0.0892042 0.114824
0.212543 0.0847791 0.117632
0.28217 0.0803235 0.113207
0.345449 0.0747692 0.106264
0.412924 0.0683604 0.0978866
0.484932 0.0606241 0.0876631
0.561547 0.0517586 0.0756542
0.638682 0.042359 0.0627909
0.725765 0.033051 0.050248
0.819089 0.0246128 0.0381781
0.896513 0.0184939 0.0288548
0.94493 0.0163882 0.0163882
0.961685 0.0156558 0.0156558
0.0876631 0.094377 0.120867
0.0984817 0.0955367 0.120394
0.102113 0.100404 0.105608
0.108751 0.104234 0.109377
0.161227 0.0985885 0.121263
0.227863 0.0957351 0.118532
0.296071 0.0916609 0.11133
0.360342 0.0865187 0.102693
0.427253 0.0803235 0.0925917
0.498619 0.0730297 0.0809186
0.57171 0.0654917 0.0648508
0.647639 0.0572061 0.050782
0.732631 0.049424 0.0374151
0.821927 0.0424811 0.0250401
0.895201 0.037644 0.0159152
0.943343 0.0348821 0.0103914
0.959045 0.0340124 0.00862135
0.0925917 0.108705 0.127047
0.104326 0.109712 0.12781
0.115023 0.111131 0.130312
0.118685 0.11754 0.119142
0.17438 0.111696 0.125414
0.239048 0.109148 0.11931
0.308354 0.104738 0.110445
0.372671 0.0997635 0.0992142
0.438636 0.0936904 0.0881208
0.509728 0.0867933 0.0758373
0.581628 0.0791943 0.062562
0.656214 0.0715953 0.0493324
0.739925 0.0647593 0.0372168
0.825498 0.0589151 0.0265507
0.89601 0.0548562 0.0187686
0.94435 0.0521859 0.0135195
0.960235 0.0512245 0.0117037
0.0970321 0.132113 0.133761
0.10956 0.132784 0.133883
0.121935 0.133623 0.136492
0.137362 0.135393 0.141726
0.171588 0.137072 0.141512
0.244602 0.132448 0.119692
0.317159 0.126802 0.106447
0.383291 0.121157 0.0947585
0.449424 0.115175 0.082887
0.519341 0.108614 0.0704967
0.588891 0.101701 0.0577859
0.661692 0.0952773 0.0457923
0.741497 0.0897383 0.0355383
0.823606 0.0849622 0.0265202
0.894316 0.0810559 0.0188602
0.942702 0.0782025 0.0135653
0.95848 0.0771649 0.0117647
0.0958572 0.180041 0.137804
0.110048 0.180438 0.137041
0.124346 0.180484 0.137652
0.14461 0.180346 0.14258
0.18471 0.17882 0.170871
0.228199 0.183993 0.163973
0.305623 0.178363 0.119997
0.379705 0.17052 0.0955367
0.448859 0.163378 0.0794995
0.519158 0.156878 0.0664836
0.586679 0.150896 0.0553902
0.655695 0.14548 0.0456092
0.733562 0.14052 0.0363317
0.816648 0.135485 0.0271
0.887724 0.131197 0.0192569
0.936736 0.128359 0.0139162
0.952651 0.127138 0.0120851
0.0818036 0.255528 0.131975
0.0982834 0.254932 0.130587
0.114931 0.25417 0.130129
0.138598 0.253285 0.132418
0.183566 0.250462 0.146929
0.246052 0.245731 0.197482
0.2869 0.251255 0.202914
0.335012 0.25333 0.177188
0.402502 0.249088 0.134951
0.478691 0.241062 0.0997024
0.556085 0.232837 0.0754711
0.628977 0.225711 0.0581674
0.707271 0.21912 0.0445716
0.794308 0.212863 0.0327001
0.868086 0.208087 0.0234684
0.918517 0.204471 0.0173037
0.934966 0.202991 0.015198
0.0679637 0.333913 0.125521
0.0864881 0.332799 0.124651
0.104982 0.331472 0.124483
0.131075 0.329381 0.126329
0.177661 0.326528 0.136721
0.248569 0.31902 0.175937
0.306615 0.315053 0.229007
0.341985 0.320256 0.240696
0.379629 0.325399 0.23267
0.430671 0.327291 0.204791
0.501213 0.323903 0.158709
0.580133 0.316167 0.114214
0.659602 0.307729 0.0817121
0.750546 0.299702 0.0580148
0.829618 0.293126 0.0420233
0.883436 0.288731 0.0324865
0.900923 0.287129 0.0294804
0.0637217 0.401221 0.125811
0.0824903 0.399802 0.125002
0.101152 0.398337 0.124727
0.12755 0.396475 0.125917
0.174823 0.393133 0.133776
0.241505 0.388098 0.158434
0.313344 0.379049 0.215885
0.359762 0.377707 0.256947
0.394827 0.382681 0.270954
0.431098 0.388754 0.268452
0.477104 0.39321 0.24979
0.538933 0.393713 0.21323
0.608331 0.389151 0.164675
0.692912 0.381369 0.118837
0.776638 0.374228 0.0879072
0.834714 0.368826 0.0698863
0.853529 0.366796 0.0644083
0.0595254 0.467903 0.126192
0.0784466 0.466484 0.125353
0.0972915 0.465202 0.125017
0.123735 0.46305 0.125673
0.171862 0.459632 0.131823
0.237369 0.455604 0.150912
0.307805 0.447807 0.192111
0.368292 0.440558 0.24683
0.412192 0.440223 0.284016
0.447288 0.445136 0.299718
0.485069 0.452018 0.300374
0.52929 0.457725 0.287404
0.580407 0.460441 0.259495
0.645335 0.45919 0.218051
0.717113 0.454612 0.174792
0.774609 0.450004 0.145357
0.793942 0.44828 0.136034
0.0550088 0.538125 0.126589
0.0741131 0.536614 0.125689
0.093019 0.535103 0.125185
0.119692 0.533181 0.125566
0.168383 0.529503 0.130312
0.234272 0.525368 0.146227
0.301015 0.520104 0.175708
0.364797 0.511818 0.22211
0.4215 0.505501 0.274601
0.464866 0.505898 0.311604
0.502983 0.51107 0.328496
0.541024 0.518135 0.331289
0.580026 0.524575 0.323369
0.62681 0.528908 0.302785
0.679118 0.530175 0.274418
0.72488 0.529076 0.249439
0.741222 0.528054 0.240223
0.0499123 0.612299 0.126894
0.0692607 0.610681 0.125917
0.0883955 0.60943 0.125414
0.11516 0.607172 0.125414
0.164218 0.603403 0.129137
0.23154 0.599313 0.142748
0.295827 0.595041 0.165988
0.356817 0.588693 0.200137
0.419852 0.580545 0.249851
0.475151 0.574792 0.302861
0.521355 0.575616 0.33933
0.559472 0.580804 0.357839
0.594095 0.58764 0.36318
0.633036 0.594675 0.358633
0.672831 0.599435 0.346273
0.706294 0.601587 0.332753
0.718975 0.601938 0.327306
0.0444343 0.689647 0.127214
0.0641489 0.68809 0.126177
0.0834058 0.686458 0.125505
0.110414 0.684352 0.125322
0.159945 0.680552 0.128191
0.228153 0.675898 0.139712
0.292348 0.672251 0.159777
0.350088 0.667491 0.185962
0.411795 0.660136 0.224765
0.474662 0.651667 0.278859
0.532067 0.64651 0.331456
0.576211 0.64741 0.367971
0.612482 0.65275 0.38851
0.650263 0.659571 0.396139
0.685618 0.665675 0.395315
0.714183 0.669612 0.390845
0.724224 0.670344 0.388266
0.0387274 0.766903 0.12755
0.0588388 0.765042 0.126375
0.0783856 0.763622 0.125658
0.105592 0.761212 0.125216
0.155398 0.757198 0.127367
0.22475 0.752544 0.137331
0.289158 0.748547 0.155001
0.345022 0.744701 0.176837
0.403815 0.7393 0.20708
0.467292 0.730739 0.252598
0.532967 0.722103 0.309926
0.587015 0.71809 0.360861
0.630045 0.719371 0.397086
0.670787 0.724651 0.416144
0.7066 0.730404 0.42356
0.7337 0.734508 0.425208
0.742687 0.735759 0.425177
0.0323491 0.845594 0.12784
0.0531777 0.843763 0.126528
0.0729229 0.841901 0.125628
0.100282 0.839414 0.124987
0.150454 0.835492 0.126589
0.220203 0.83032 0.134966
0.285679 0.826261 0.15082
0.341054 0.822965 0.170123
0.397086 0.818463 0.195071
0.458259 0.811704 0.231022
0.526802 0.802594 0.282887
0.589395 0.7944 0.340734
0.642191 0.791302 0.39057
0.689891 0.792828 0.422614
0.730053 0.796857 0.440253
0.757351 0.800595 0.449821
0.765972 0.801495 0.452186
0.0261234 0.912123 0.128115
0.0479591 0.909697 0.126421
0.0680552 0.907988 0.12546
0.0953841 0.905425 0.124666
0.145449 0.901274 0.125734
0.215671 0.89633 0.133135
0.282109 0.892027 0.147478
0.337484 0.888716 0.165164
0.392233 0.885252 0.187274
0.451133 0.879576 0.217548
0.518578 0.871336 0.261646
0.586328 0.861875 0.319921
0.647562 0.854246 0.380499
0.705104 0.851209 0.429526
0.751308 0.852415 0.46421
0.780133 0.854536 0.48481
0.789197 0.855406 0.490913
0.0204013 0.957214 0.128328
0.044007 0.954421 0.126177
0.0643015 0.95256 0.125078
0.09131 0.950134 0.124163
0.14136 0.946212 0.124971
0.211215 0.941161 0.131548
0.278584 0.936889 0.14493
0.334585 0.933791 0.161837
0.38854 0.930526 0.182361
0.447013 0.925261 0.21149
0.515801 0.916609 0.256764
0.587152 0.905226 0.31931
0.654002 0.895003 0.388006
0.71928 0.888914 0.447593
0.769131 0.887694 0.494148
0.799924 0.888869 0.522759
0.809293 0.889479 0.531487
0.0182803 0.972015 0.128069
0.0421302 0.96907 0.12578
0.062623 0.967254 0.124651
0.0892805 0.96492 0.123766
0.138796 0.960967 0.124346
0.208499 0.956008 0.130648
0.276493 0.951736 0.143694
0.332631 0.948562 0.160189
0.387152 0.94522 0.181308
0.446784 0.939406 0.21268
0.516045 0.930327 0.259174
0.588586 0.918517 0.323217
0.657084 0.907576 0.393927
0.724514 0.900542 0.456428
0.776074 0.898619 0.507057
0.807446 0.899336 0.53843
0.817014 0.899886 0.548058
0.0811933 0.0817578 0.121141
0.0904707 0.083772 0.117556
0.093492 0.0888685 0.10341
0.095491 0.0953536 0.0956436
0.128573 0.0950942 0.118151
0.208713 0.0870069 0.129335
0.281453 0.0812848 0.127337
0.34641 0.0752422 0.121645
0.414847 0.0685893 0.114321
0.48658 0.0608225 0.105028
0.563027 0.0519112 0.0939193
0.640192 0.0424353 0.0818341
0.727047 0.0334173 0.0698253
0.820203 0.024979 0.0583047
0.897276 0.0188144 0.0492866
0.947906 0.0155489 0.0437629
0.964233 0.0148623 0.0421302
0.0883345 0.0952621 0.13106
0.099382 0.0963912 0.131167
0.105653 0.100221 0.118181
0.106783 0.10663 0.106935
0.149859 0.103578 0.128969
0.226032 0.0970932 0.133043
0.29752 0.0919966 0.128084
0.362676 0.0864729 0.121111
0.429419 0.0800641 0.112612
0.501396 0.0726482 0.102541
0.575463 0.064332 0.0910201
0.651652 0.0558022 0.0789349
0.737728 0.047837 0.0674907
0.826993 0.0407111 0.0568856
0.900206 0.0357366 0.049073
0.94873 0.032929 0.044419
0.96466 0.0319371 0.0428016
0.0931868 0.109697 0.138964
0.105058 0.110552 0.139712
0.116991 0.111986 0.135805
0.119402 0.119203 0.11957
0.169955 0.114015 0.137331
0.240482 0.10959 0.134524
0.310002 0.104936 0.126772
0.374792 0.0996262 0.117891
0.441077 0.0935073 0.107866
0.511879 0.0865339 0.0965133
0.581994 0.0798199 0.0798199
0.657206 0.0720836 0.0681773
0.740291 0.0653391 0.0561379
0.825406 0.0596628 0.0454719
0.895933 0.0557565 0.0375067
0.944015 0.0530404 0.0320439
0.959915 0.0521248 0.0301976
0.0972305 0.133028 0.147448
0.110338 0.133684 0.14728
0.123964 0.134035 0.147311
0.13962 0.135988 0.148379
0.180346 0.135576 0.145983
0.250309 0.131136 0.134813
0.320821 0.126146 0.123339
0.386679 0.12079 0.11281
0.451987 0.114855 0.101747
0.521752 0.108461 0.0899977
0.590906 0.101717 0.0777905
0.663142 0.0953078 0.0661631
0.743038 0.0900435 0.0561837
0.824979 0.0853437 0.0471809
0.895308 0.0813153 0.0394598
0.943801 0.0786145 0.0341955
0.959518 0.0775616 0.0323644
0.0960555 0.181048 0.153948
0.110948 0.180972 0.152636
0.126024 0.180835 0.151888
0.147021 0.180789 0.154513
0.187182 0.17908 0.180453
0.234257 0.183246 0.168292
0.315908 0.175784 0.12871
0.38764 0.168353 0.110216
0.4551 0.161959 0.0969253
0.523919 0.155779 0.0852979
0.590112 0.150072 0.0749828
0.659113 0.145083 0.0655985
0.73669 0.140108 0.0564584
0.819318 0.135164 0.0473335
0.89041 0.131167 0.0396429
0.939086 0.128145 0.0342565
0.954955 0.126955 0.0324102
0.0823682 0.256001 0.150225
0.0995193 0.255482 0.14847
0.116686 0.254627 0.147189
0.140856 0.253315 0.147509
0.185473 0.251118 0.159228
0.248493 0.245823 0.207858
0.289754 0.25127 0.211307
0.341833 0.252415 0.181857
0.413031 0.246387 0.139742
0.488838 0.238209 0.109545
0.564004 0.230716 0.0894484
0.63592 0.223743 0.0743572
0.714168 0.217639 0.06215
0.800366 0.211856 0.0511635
0.873259 0.206958 0.0423285
0.923384 0.203677 0.0364385
0.939696 0.202335 0.0344549
0.0691997 0.334432 0.144625
0.0881971 0.332937 0.143374
0.107027 0.331426 0.14258
0.133425 0.329641 0.142992
0.180499 0.326375 0.151415
0.249866 0.319585 0.186221
0.309239 0.315404 0.23917
0.344335 0.320394 0.249821
0.383001 0.325277 0.239887
0.436927 0.326497 0.2094
0.510781 0.321553 0.162554
0.589914 0.313634 0.121462
0.66952 0.305241 0.0928054
0.760372 0.297261 0.0715801
0.838529 0.291264 0.0573434
0.891585 0.286915 0.0485695
0.908888 0.285191 0.0457313
0.0651408 0.401389 0.144717
0.0843214 0.399939 0.143664
0.103288 0.398581 0.142977
0.129625 0.39649 0.142931
0.177691 0.393149 0.149111
0.243503 0.388617 0.17145
0.315038 0.379461 0.225147
0.362295 0.377997 0.266819
0.397162 0.382849 0.28011
0.433661 0.3888 0.276463
0.481621 0.393042 0.255833
0.545647 0.392355 0.217197
0.61735 0.386801 0.16875
0.704585 0.378836 0.125582
0.788266 0.371405 0.0970779
0.845609 0.366201 0.0810559
0.864164 0.364462 0.0762341
0.0611582 0.468284 0.145052
0.0803693 0.466712 0.143984
0.0993668 0.465171 0.143236
0.125917 0.463325 0.143008
0.174487 0.459693 0.147585
0.239765 0.455558 0.165118
0.30927 0.448631 0.202731
0.370199 0.440833 0.256016
0.414511 0.440299 0.293507
0.449714 0.445518 0.308797
0.487495 0.45211 0.308446
0.532586 0.457572 0.294087
0.58558 0.459907 0.264408
0.6533 0.457481 0.221393
0.728344 0.452552 0.179126
0.78645 0.447639 0.150546
0.805875 0.445548 0.141543
0.0566567 0.538216 0.145251
0.0760052 0.536614 0.144183
0.0951858 0.535332 0.143481
0.121736 0.533181 0.143008
0.170642 0.529503 0.146441
0.237171 0.525475 0.161135
0.302617 0.520409 0.18819
0.366125 0.512444 0.231495
0.423636 0.505959 0.283986
0.467124 0.505943 0.320653
0.505318 0.511299 0.337072
0.543359 0.518349 0.339223
0.582666 0.524529 0.330236
0.631159 0.528756 0.308537
0.685374 0.529244 0.278691
0.732998 0.527687 0.253178
0.750179 0.52668 0.243809
0.0517128 0.612543 0.145495
0.0712902 0.610986 0.144427
0.0905165 0.609354 0.143618
0.117327 0.607416 0.143038
0.166629 0.603677 0.145586
0.23415 0.599145 0.15787
0.298222 0.595346 0.179904
0.358297 0.589395 0.211124
0.421164 0.581018 0.258793
0.477394 0.575235 0.311803
0.523537 0.575647 0.348058
0.561456 0.58085 0.366796
0.596292 0.587991 0.371878
0.635538 0.594659 0.36643
0.676204 0.599237 0.352819
0.71104 0.601465 0.338491
0.724041 0.601419 0.332448
0.0463111 0.689845 0.145693
0.0661479 0.688075 0.144518
0.0856031 0.686702 0.14374
0.11252 0.684413 0.142962
0.162066 0.680537 0.144778
0.23093 0.676036 0.15523
0.294774 0.672129 0.174197
0.351781 0.667674 0.19852
0.413184 0.660914 0.234836
0.476081 0.652079 0.28748
0.534035 0.646616 0.339818
0.578424 0.6477 0.377279
0.614527 0.65275 0.397223
0.652491 0.659678 0.404089
0.688273 0.665904 0.403128
0.71722 0.669581 0.398291
0.727489 0.670558 0.395758
0.0406653 0.766918 0.145892
0.0609445 0.765301 0.144686
0.0805524 0.763546 0.143771
0.107713 0.761273 0.142885
0.157641 0.757458 0.144183
0.227131 0.752422 0.152941
0.291798 0.748516 0.169833
0.347341 0.744945 0.190494
0.405371 0.739528 0.21857
0.468574 0.731472 0.261967
0.534722 0.722713 0.318303
0.588876 0.718151 0.36965
0.632425 0.719631 0.405371
0.673014 0.724651 0.423423
0.709072 0.730434 0.430549
0.736416 0.734829 0.432105
0.745296 0.735821 0.431891
0.0344854 0.845853 0.14609
0.0552834 0.843702 0.144656
0.0751659 0.8421 0.143725
0.102464 0.839567 0.142672
0.152422 0.835462 0.143404
0.22269 0.830518 0.150927
0.288289 0.826215 0.165881
0.343404 0.822797 0.184237
0.399023 0.818891 0.207538
0.459525 0.812207 0.241398
0.527932 0.803052 0.291585
0.591119 0.794965 0.348852
0.644236 0.791348 0.398856
0.692271 0.792813 0.429984
0.73283 0.797147 0.448371
0.759854 0.800626 0.45774
0.76849 0.801541 0.460075
0.0284276 0.912062 0.14612
0.0501717 0.90988 0.144503
0.0702525 0.907927 0.143404
0.0974594 0.905394 0.14226
0.147646 0.901518 0.142672
0.217838 0.896284 0.149096
0.28455 0.891875 0.162661
0.340139 0.888777 0.17969
0.394308 0.885252 0.200412
0.452644 0.879957 0.22887
0.519905 0.872084 0.271229
0.58761 0.862303 0.328161
0.649638 0.854536 0.389319
0.708034 0.851408 0.437675
0.753933 0.852415 0.472618
0.782834 0.854719 0.493278
0.791791 0.855512 0.499168
0.0227512 0.957275 0.146258
0.0461738 0.954452 0.144091
0.0665141 0.952575 0.142916
0.0935378 0.950286 0.141787
0.143359 0.946303 0.141878
0.213626 0.941299 0.147662
0.281239 0.936934 0.160327
0.337057 0.933715 0.176394
0.390997 0.930648 0.195987
0.449042 0.925536 0.223758
0.517296 0.917006 0.267262
0.588846 0.905699 0.328481
0.656184 0.895293 0.396597
0.721935 0.889006 0.455817
0.772091 0.887816 0.502724
0.802594 0.888945 0.531106
0.811933 0.88957 0.539788
0.0205692 0.972061 0.145937
0.0443885 0.969146 0.143664
0.0648966 0.967315 0.142504
0.0913863 0.965011 0.141268
0.141039 0.961135 0.14136
0.210758 0.95613 0.146731
0.278889 0.95172 0.158999
0.335302 0.948562 0.174975
0.389593 0.945205 0.195148
0.448798 0.939544 0.225132
0.518059 0.930678 0.270314
0.590143 0.918914 0.332296
0.659175 0.907835 0.401984
0.727535 0.900664 0.465064
0.778866 0.89868 0.515389
0.810162 0.899443 0.546731
0.819745 0.900038 0.556435
0.0823682 0.0829633 0.134325
0.0923018 0.0847486 0.132387
0.0978866 0.0887617 0.120714
0.0986038 0.0967575 0.101961
0.111925 0.103655 0.113634
0.193896 0.0932021 0.142184
0.274754 0.0839246 0.146883
0.344533 0.0768597 0.144335
0.414801 0.0694591 0.138598
0.48809 0.0611582 0.130755
0.564782 0.052079 0.120851
0.641947 0.0427253 0.109819
0.728954 0.0336156 0.0988327
0.821408 0.0254215 0.0879072
0.897902 0.019501 0.0792248
0.948272 0.0161135 0.0739605
