modules/detection_bypass/_luts/experimento.cube
# VEGAS Pro LUT
TITLE "experimento"
LUT_3D_SIZE 9
0.25475672 0.61308450 -0.09042694
0.50233030 0.55743706 -0.16157652
0.76295471 0.50172931 -0.16255435
0.97594446 0.44462600 -0.16154429
1.06869996 0.37439317 -0.16374958
1.01047897 0.34408197 -0.16453221
-0.21942841 0.30263567 -0.16515873
-0.05116674 0.35217983 -0.16541238
0.23983185 0.27523050 -0.16556883
-0.29906973 0.51795983 -0.15712228
-0.09059943 0.39788425 -0.15713052
-0.14842112 0.30089694 -0.15761796
-0.02139421 0.24379165 -0.15822390
0.15510342 0.32560849 -0.15890978
0.26318675 0.26898903 -0.16047308
0.33032143 0.16121486 -0.14746924
0.45485064 0.06216095 -0.13779418
0.59347510 0.02490598 -0.15983418
-0.04956177 0.78151327 -0.16587478
0.02930518 0.72906870 -0.16863526
0.11075053 0.67255676 -0.16935031
0.31589416 0.61780345 -0.16956358
0.56541544 0.55363953 -0.16979627
0.89520872 0.48650444 -0.16636407
1.13627779 0.43039820 -0.17007658
0.22181657 0.44306347 -0.16998133
0.17527984 0.43271515 -0.16966046
-0.14572699 0.21990742 -0.15162992
-0.10042924 0.18098144 -0.15105450
-0.02658404 0.15507573 -0.14955880
0.13106216 0.13765404 -0.14965428
0.24657780 0.11121238 -0.11158462
0.34960425 0.07694267 -0.08274222
0.49186176 0.04216618 -0.14412560
0.64572269 0.03509432 -0.14663230
0.70419043 0.02618839 -0.14663106
-0.14107758 0.51822704 -0.17153364
-0.08408741 0.47608566 -0.17124473
0.06814102 0.44310805 -0.17104980
0.30385703 0.40051422 -0.17083527
0.57724172 0.36418235 -0.17059806
0.83699757 0.32207063 -0.16340320
1.04117584 0.27570206 -0.17050102
0.51737946 0.25543973 -0.11291466
0.57639551 0.23687062 -0.12069716
0.17833158 0.33184537 -0.14285068
0.38074163 0.36944315 -0.14360799
0.67699528 0.42546093 -0.14360596
0.90091813 0.48123035 -0.13839051
0.17890526 0.51949978 -0.14509669
0.16362526 0.59370941 -0.14628941
-0.04351087 0.77307844 -0.14657602
0.24834822 0.86600614 -0.13604805
0.52888447 0.92086828 -0.13829525
1.01313972 1.15075874 -0.13970189
0.98816216 1.15469718 -0.14124095
0.33962566 1.06650352 -0.14317980
-0.19922051 0.96480435 -0.14494763
-0.15500163 0.87200165 -0.14646430
-0.02809728 0.85466820 -0.14829901
0.17574863 0.84936184 -0.15003274
0.30928233 0.78541678 -0.14153522
0.42155591 0.71349365 -0.14386950
-0.17633262 0.83445072 -0.15390028
-0.01619692 0.84450412 -0.15402907
0.19978277 0.84407741 -0.15433745
0.34981766 0.85838848 -0.15440290
0.48024857 0.87259138 -0.15453801
0.68512768 0.89040077 -0.15488327
0.82615650 0.91360557 -0.15497783
0.50603497 0.95825726 -0.15463321
0.61542875 0.97138655 -0.15485086
0.06258760 1.02107167 -0.15761106
0.15173347 1.02179456 -0.15739368
-0.12631088 1.05127800 -0.15722859
-0.03124630 1.04850638 -0.15712041
0.09145490 1.04694140 -0.15713203
0.30831015 1.04588580 -0.15713818
0.54571146 1.04577136 -0.15710442
0.86874372 1.03451920 -0.15801774
1.11800897 1.06769621 -0.15946773
-0.09638976 0.00607034 0.04666052
-0.10684118 -0.05938533 0.00134070
0.14551841 -0.02562093 -0.02812050
0.40581527 -0.02231026 -0.04065492
0.64112407 0.00234347 -0.06608274
0.91998351 0.02245149 -0.07429288
1.08196807 0.05347001 -0.07947042
0.14888647 0.15728025 -0.07952467
0.12793572 0.18850371 -0.08757244
0.19325458 0.28966823 -0.10526522
0.36778930 0.19922218 -0.04297851
0.69032240 0.10883033 -0.10894120
0.96038723 0.03017780 -0.11349194
-0.33627698 -0.04667291 -0.11720280
-0.25897345 -0.11731373 -0.12287639
-0.02591859 0.09471773 -0.12541103
0.15300885 0.12645522 -0.10696083
0.32542509 0.17290029 -0.06908792
0.50195622 0.55045533 -0.10149910
0.76699442 0.58649784 -0.10636219
0.97793204 0.62797892 -0.10937216
0.88434356 0.71677059 -0.11219745
0.76339018 0.76437098 -0.11401889
-0.28187549 0.84791791 -0.11667474
-0.15017433 0.89948577 -0.11786991
0.03018311 1.01545072 -0.10916984
0.24720912 1.03730512 -0.10371175
-0.29373166 0.36827737 -0.07404031
-0.20807566 0.30803841 -0.08592580
-0.01309556 0.24497800 -0.09082639
0.24529453 0.20046073 -0.09425853
0.44120437 0.14501195 -0.03353683
0.72794533 0.07426614 -0.10066248
0.92923301 0.00230723 -0.10369124
1.16089582 -0.01164509 -0.10801470
1.23720121 -0.00138176 -0.11241181
0.05615002 0.64335448 -0.09443775
0.19416845 0.61168766 -0.10183337
-0.16822702 0.61049628 -0.10593308
-0.02070703 0.59556293 -0.10889915
0.22164403 0.56833631 -0.11211387
0.42756715 0.53761113 -0.11491849
0.62944353 0.50301963 -0.11782482
0.89504355 0.48515534 -0.11876436
0.99551034 0.48176426 -0.12654483
0.03197882 0.37584367 -0.09533449
0.06845415 0.34806591 -0.10150654
0.32560790 0.30402476 -0.11085320
0.51214403 0.25332692 -0.04954230
0.79129124 0.21447234 -0.10796300
1.06703532 0.16461511 -0.11467889
1.18691850 0.11503357 -0.11642415
-0.29386434 0.17505285 -0.10829003
-0.20833635 0.10879576 -0.11279634
0.56113029 1.15557837 -0.07902825
0.82649529 1.09747910 -0.07883827
1.03235686 1.03602910 -0.08279818
0.40862420 0.96933484 -0.08598462
0.31468099 0.95170045 -0.08699059
0.08646978 0.88807076 -0.09111768
0.36346966 0.87761396 -0.09450759
0.65123940 0.81274211 -0.05227209
0.87146544 0.73941624 -0.06587835
0.47343531 0.21807250 -0.03627481
0.65172207 0.23333050 -0.06516355
0.81467080 0.24116623 -0.10512118
0.98952508 0.23442873 -0.11501623
1.08389652 0.22082354 -0.11845827
0.45041108 0.25670859 -0.12103212
0.41696021 0.29296273 -0.12804985
-0.10250987 0.51654124 -0.11857760
0.03774143 0.54597628 -0.11632226
-0.34603083 1.18292844 -0.11608759
-0.23224066 1.16060197 -0.12391497
-0.12634923 1.13104963 -0.12914565
-0.03683978 1.11393654 -0.13068047
0.07899817 1.09839821 -0.13247207
0.27271268 1.07950699 -0.13314533
0.50333947 1.06088555 -0.13483925
0.82055616 1.03066409 -0.13794817
1.09250033 1.06539357 -0.14866738
0.25479358 -0.23312555 0.31731999
-0.08971092 -0.17809109 0.24472876
-0.02037365 -0.13760580 0.23698519
0.18651678 -0.16136135 0.19520395
0.39051166 -0.14639190 0.13193002
0.64143515 -0.17862006 0.07777085
0.84002298 -0.19719453 0.05965120
1.05085135 -0.22137134 0.03907782
1.06828833 -0.23266879 0.02211594
-0.06020873 0.35770237 0.13104710
-0.05736839 0.40368795 0.11944382
0.07436315 0.43444315 0.07436705
0.32438308 0.47243187 0.03115494
0.58315384 0.50657028 -0.00678346
0.66602182 0.52858973 -0.02653579
0.77505672 0.55891985 -0.03352249
-0.24679030 0.73842949 -0.02471304
-0.08416522 0.78360039 -0.03762978
0.48843670 0.43783563 -0.06289948
0.81717825 0.48898405 -0.05674088
1.06373668 0.54283714 -0.07591661
-0.24134946 0.60043472 -0.08438986
0.27717263 0.07682701 -0.02918386
0.52200729 0.10537748 -0.08910792
0.74065715 0.12874494 -0.08077207
0.97918022 0.15735935 -0.05792090
1.10368586 0.17659792 -0.05713437
-0.00366974 0.98439080 -0.00497708
0.09065964 0.93025911 -0.01970503
0.17229192 0.87739372 -0.03213632
0.30777514 0.82923520 -0.03653127
0.48367456 0.76988566 -0.04092113
0.81650990 0.70302302 -0.04518366
1.07792723 0.63821298 -0.04705720
-0.01993609 0.59187931 -0.04747150
-0.06218132 0.59164965 -0.04599973
0.06611036 0.59167641 -0.02204711
0.11682833 0.58247125 -0.03877692
-0.17141549 0.58846790 -0.04047844
-0.03716953 0.58581573 -0.04625806
0.19794106 0.57498199 -0.05066318
0.37959242 0.56751478 -0.05583758
0.54377860 0.55235642 -0.06130109
0.79098278 0.54829526 -0.08147843
0.94763851 0.55101109 -0.08191738
0.07769158 0.58393657 -0.02931721
0.12073173 0.58093810 -0.04608764
-0.14419475 0.58319592 -0.05135936
-0.03052314 0.59432006 -0.06073448
0.23408578 0.59886181 -0.06563280
0.48461360 0.59806812 -0.07105716
0.72595692 0.59858292 -0.07522317
1.03622901 0.58245051 -0.08982395
1.17020762 0.61258668 -0.09643537
-0.14174442 0.21276155 -0.01610452
0.10451205 0.16555794 -0.01986238
0.34336603 0.08949223 -0.02823835
0.58128166 -0.00045190 -0.04695629
0.85053009 -0.08773683 -0.05028120
0.78077775 -0.12152815 -0.05356748
0.15933371 -0.05607356 -0.05727806
-0.20178357 0.25149915 -0.01158962
-0.07404780 0.28371152 -0.02507346
0.20284043 -0.07951071 -0.01867840
0.47965610 -0.14281613 -0.02725166
-0.22408287 -0.20427288 -0.03478073
-0.13611411 -0.26033524 -0.04147260
0.00828917 -0.28552434 -0.04855594
0.06440383 -0.24732111 -0.06960724
0.23720056 -0.20028904 -0.07545269
0.46278828 -0.16507870 -0.03055046
0.67706263 -0.12644732 -0.02693279
-0.14864972 0.84464997 -0.05039778
-0.04061173 0.86062908 -0.06407817
0.17581965 0.87278444 -0.07417569
0.34214714 0.88994390 -0.07889675
0.49448428 0.90800428 -0.08396999
0.71052510 0.92566055 -0.09219159
0.84359282 0.95566505 -0.09448721
0.36845568 1.01999140 -0.09455785
0.40396893 0.89536566 -0.08617254
-0.09867537 -0.16664165 0.42987537
-0.07759929 -0.14728175 0.38886121
-0.10482042 -0.07214107 0.43672457
0.05776720 -0.04803304 0.39959458
0.22454651 -0.03646204 0.35346341
0.47341466 -0.08250936 0.30108127
0.68195403 -0.09020477 0.27414659
0.89534819 -0.11175119 0.24810962
1.06851101 -0.12089791 0.22052403
-0.03374351 -0.12839296 0.44043258
0.03092846 -0.15381910 0.39623576
-0.01921842 -0.16905853 0.36084554
0.25882626 -0.18949126 0.32958141
0.51154703 -0.21007529 0.28387815
0.74978513 -0.23168889 0.22393741
0.94869196 -0.25094619 0.18671353
1.14983904 -0.26246154 0.16220608
1.16137290 -0.23662724 0.13164307
0.00177252 1.04561985 0.15419942
0.26118225 1.05896068 0.18775465
0.49053904 1.01470387 0.15822110
0.72321326 0.95882833 0.13012570
1.02853549 0.91964716 0.09583366
1.19669747 0.88201761 0.05413797
-0.29080996 0.84411091 0.02439816
-0.12304368 0.88958496 0.04563781
0.14534974 0.83340466 0.03054334
0.87528753 0.62649620 0.06164789
1.00209105 0.64943486 0.06338149
0.71570224 0.68354845 0.04672973
0.45726272 0.71737802 0.03359459
-0.22744836 0.76841688 0.02488543
-0.10672049 0.88764429 0.00448160
0.03054027 0.91977769 -0.00499183
0.12061241 0.95280790 0.02048194
0.31853706 0.97304857 0.07500187
-0.22421470 0.30004314 0.17603271
-0.09868896 0.29844055 0.12479331
0.07655150 0.30389723 0.09470535
0.24480307 0.31226727 0.06163482
0.45128259 0.31177664 0.05930253
0.62354225 0.30330595 0.08819376
0.87096566 0.29227790 0.01938889
1.09697211 0.29607737 -0.01085979
1.25693595 0.30844223 -0.02008603
0.52282166 0.36515397 0.10976093
0.56462121 0.34075585 0.11228257
-0.22608019 0.34661365 0.07147513
-0.13328509 0.33686942 0.05872620
0.19049805 0.32502007 0.05141371
0.44656646 0.31489244 0.04504598
0.63471425 0.29738322 0.08914830
0.93298423 0.28470948 0.00522419
1.06987858 0.29310298 -0.00275812
-0.34483945 0.95264262 0.03727547
-0.28427267 0.93405581 0.01452771
-0.07024926 0.89301610 -0.01263314
0.07306711 0.86364591 -0.01778508
0.23730668 0.82525665 -0.01904905
0.51336026 0.79183036 -0.02159965
0.74910426 0.74276125 -0.02057555
0.59281301 0.72797322 -0.02139117
0.71583050 0.68731672 -0.02085156
0.32917824 0.16268788 0.09230962
0.57269621 0.10731560 0.09267275
0.80367720 0.06268498 0.06699424
0.99044442 0.01479535 0.04760033
0.59222245 -0.04111181 0.02590442
0.50257933 -0.08606797 0.00329702
-0.17592764 -0.10047492 -0.00408617
-0.04579435 -0.07514962 0.12665533
0.23048016 -0.11280216 0.11319737
0.60790789 0.23741929 0.06372954
0.81910437 0.26869580 0.03653789
0.96607143 0.29197240 0.01623635
1.11849844 0.31513205 0.00618321
1.01781368 0.32516637 -0.00066029
0.09440541 0.35001326 -0.01613979
-0.11211869 0.41031569 -0.02141306
0.02831091 0.58012223 0.01193458
0.19036368 0.60283422 0.16631952
-0.16977693 -0.26087177 0.79055208
-0.06071875 -0.25634477 0.74370849
-0.00040611 -0.24133277 0.68708980
0.23672301 -0.21037556 0.65474194
0.43566245 -0.20656028 0.60939711
0.64161432 -0.20267326 0.57157177
0.81347573 -0.19448102 0.53343928
1.01104653 -0.20022129 0.49444249
1.12395215 -0.19638440 0.46316031
0.59142572 0.03230397 0.58746755
0.73456997 0.02444359 0.54749507
-0.19481751 0.08789276 0.53855246
-0.06743398 0.07602239 0.50624299
0.14776786 0.05794112 0.46791339
0.34988284 0.05109959 0.42998815
0.59759182 0.03597531 0.39107764
0.82715046 0.01174690 0.36561123
0.94847274 -0.00126728 0.34903699
-0.19792967 0.05566649 0.60082018
-0.22190511 0.05166883 0.54452407
-0.01516883 0.05170745 0.50416535
0.24346060 0.07588194 0.46807793
0.48531875 0.10186786 0.42096299
0.74961925 0.12280704 0.36648044
0.97224969 0.15272404 0.31566516
0.42841372 0.22964840 0.29955199
0.40931910 0.26765016 0.27317449
0.25673643 0.82251233 0.15399134
0.53309762 0.76754963 0.21044609
0.80059844 0.70794052 0.18772769
0.97938323 0.63417429 0.19383283
-0.02109438 0.57790500 0.14415891
-0.05342079 0.53054577 0.11349339
-0.04370138 0.62203401 0.08984090
0.28332239 0.56335425 0.12648435
0.51752639 0.50661677 0.10744391
0.15105595 -0.25532243 0.50156015
0.40188640 -0.21858366 0.45510548
0.63158345 -0.18814485 0.41863257
0.86510599 -0.15932330 0.38172033
1.01803434 -0.13003621 0.34399348
0.95550478 -0.11932287 0.30021915
0.94693571 -0.09985739 0.25275528
-0.27848944 -0.04983952 0.27314436
-0.09385432 0.02155595 0.29107198
0.29171345 0.53191715 0.24206038
0.25379691 0.50779879 0.20325045
-0.18629490 0.48469427 0.19834286
-0.09357785 0.45721152 0.17538908
0.18014967 0.42203182 0.15942070
0.43628833 0.39693540 0.13803828
0.61441946 0.36268419 0.17484231
0.93365669 0.33264196 0.09634963
1.10179889 0.31823733 0.08720665
0.59306508 0.45717695 0.18160008
0.61117262 0.44670033 0.20165327
-0.22808707 0.47948492 0.16157533
-0.13805805 0.48378256 0.14157297
0.12272554 0.48586401 0.12942000
0.38647819 0.49662709 0.11753777
0.62421638 0.49860135 0.10733379
0.85616851 0.48209694 0.11407725
0.95476061 0.50154799 0.09181263
0.03838170 0.89998949 0.13599180
-0.12936296 0.88263547 0.12126150
0.10980017 0.83095378 0.09373243
0.32327533 0.78234655 0.08923783
0.54174328 0.73794985 0.08448780
0.84755081 0.68324941 0.07541224
1.02717149 0.64355105 0.08902863
-0.15140115 0.71359468 0.11153348
-0.16650593 0.66329825 0.10819277
0.18355998 -0.15218939 0.25648150
0.45110586 -0.20507249 0.25099924
0.73345631 -0.25411305 0.23644644
0.64474851 -0.20127432 0.21544054
0.67533284 -0.12673722 0.19253436
0.33042175 -0.05263146 0.11930568
0.42191613 -0.14246692 0.17654285
0.57320368 -0.21836857 0.26425663
0.71981561 -0.20219135 0.37365055
-0.12061317 0.21122530 0.91358298
-0.03189531 0.17550138 0.83172882
0.20557754 0.12708589 0.79824626
0.44822124 0.08767761 0.78130519
0.67178017 0.04360069 0.75659287
0.93831730 -0.00256222 0.73065883
1.08584368 -0.03278056 0.71039701
0.53541207 -0.02349397 0.70840704
0.36816236 -0.05572819 0.70489234
0.55764312 -0.01582131 0.79795802
0.60364139 -0.00930728 0.76799345
-0.19772182 0.05343098 0.75862527
-0.06365737 0.05153264 0.72805381
0.13762940 0.05390647 0.69078690
0.31547180 0.05570619 0.65959764
0.54225612 0.05451768 0.62283838
0.77211624 0.04565682 0.58768922
0.96640289 0.03958190 0.55741185
0.44493806 0.24837236 0.73869491
0.59374428 0.20483868 0.69126326
-0.19803348 0.23161426 0.68922466
-0.03406668 0.20254375 0.66274023
0.19844505 0.17556649 0.62668097
0.37938341 0.15403032 0.58904088
0.60159051 0.12847368 0.55077863
0.84757972 0.10048922 0.51967871
0.84941167 0.08670215 0.50933230
0.08629695 0.54110420 0.63541722
-0.11931479 0.62606114 0.62569326
0.00934511 0.65157884 0.57827109
0.14038995 0.68724746 0.54549837
0.34138238 0.72590905 0.50826216
0.65399909 0.75208730 0.46389484
0.82709914 0.77216291 0.42422023
-0.29831821 0.84710312 0.42508006
-0.22314417 0.90171224 0.39533207
0.89306152 0.71496433 0.80538434
1.13183534 0.63495350 0.76769018
-0.22000226 0.55684888 0.75860733
-0.00903530 0.47466433 0.71862853
-0.09942081 0.48670131 0.68672073
0.06938852 0.44659919 0.64421719
0.23712452 0.39660981 0.60652202
0.33779529 0.33026198 0.71973562
0.48014519 0.25536463 0.76643509
-0.22275235 0.49504051 0.51298285
-0.07833007 0.51093858 0.45733672
0.10728908 0.53266382 0.41749680
0.21991304 0.55215812 0.38215327
0.39363575 0.56833541 0.35886937
0.59494758 0.58788371 0.32548913
0.73667824 0.58321935 0.31444785
0.86272162 0.58295828 0.30023128
1.10036051 0.61082119 0.25033244
0.68000442 0.42457482 0.38757446
0.73151433 0.40690354 0.35652611
-0.25798905 0.39755335 0.38178274
-0.17888761 0.37941724 0.35547367
0.07273071 0.36732656 0.33393505
0.36224523 0.35309336 0.32270792
0.58303350 0.36168867 0.31032485
0.83762145 0.32022369 0.25098741
1.03843474 0.31131449 0.22935867
0.36085272 0.74245316 0.33020872
0.40391600 0.75120991 0.26103178
-0.19294555 0.81635851 0.24883471
-0.09753497 0.82772338 0.22251578
0.07063522 0.84259456 0.19806182
0.28442428 0.85565102 0.17580585
0.52907896 0.87421173 0.15786788
0.83990991 0.86436272 0.11978085
0.94114590 0.88015950 0.11265879
-0.18019880 0.71680152 0.31380892
0.05013418 0.67933136 0.31820396
0.28219658 0.63412446 0.28618267
0.55845094 0.58706325 0.28175893
0.74059635 0.50846082 0.35879225
0.84330207 0.46310994 0.30062363
0.41384998 0.42394081 0.23559275
-0.18093491 0.56693101 0.29560900
0.05308150 0.51659250 0.27820945
0.61717153 0.27960014 0.83495778
0.83444321 0.32680941 0.81718516
1.00297189 0.36106616 0.80298311
1.17440808 0.39410648 0.79205459
0.12330882 0.41358995 0.78047758
-0.03192578 0.44826472 0.75635803
-0.13521279 0.57384795 0.74953723
0.05663336 0.68790168 0.82796907
0.24034192 0.71362203 0.85138297
-0.34730652 -0.19333400 1.01228547
-0.25575858 -0.23410431 0.99650484
-0.04118802 -0.23051010 0.96129644
0.23643166 -0.21178606 0.94670331
0.45973641 -0.19510528 0.92301983
0.63438803 -0.18047792 0.90117103
0.80894810 -0.16244006 0.87057525
1.02054453 -0.16051656 0.83875674
1.12345481 -0.14940481 0.81726021
0.68880349 0.33277988 0.87738949
0.89232445 0.30684832 0.84765244
-0.28227490 0.37332651 0.87040162
-0.20036937 0.36592224 0.84742248
0.01039111 0.35815802 0.81718898
0.13995616 0.35300961 0.78426546
0.32983479 0.34520805 0.75359887
0.56962353 0.33209777 0.71873170
0.79213065 0.31578946 0.69705856
0.10728997 0.32922316 0.90841907
0.20986944 0.27852675 0.88182765
-0.12853839 0.26451981 0.86426944
0.06651676 0.22279109 0.84822851
0.32029095 0.17342409 0.82476890
0.54515761 0.10959969 0.79687083
0.76713139 0.05464325 0.76311904
1.05188596 0.01557222 0.72386330
1.12080872 -0.00247821 0.70738834
-0.13358003 -0.21040890 0.84959626
0.14138651 -0.23072623 0.89501411
0.40551844 -0.26284808 0.86879396
0.63156927 -0.27127042 0.84900874
0.92837763 -0.22473028 0.83118671
1.13181305 -0.17426766 0.81053996
-0.08263666 -0.11439250 0.79376662
-0.13562272 -0.01940664 0.82274491
-0.03993842 0.03378949 0.81894541
0.10551755 -0.13918014 0.83427328
0.33695871 -0.20116095 0.79727328
0.57526869 -0.18427733 0.76477528
0.84294921 -0.14422861 0.73548722
1.04576135 -0.10418653 0.70658386
0.71773541 -0.07650851 0.67257696
0.23140776 -0.03971187 0.63778406
-0.23323974 0.04687211 0.64569157
-0.06295803 0.10877703 0.67527866
0.18697439 0.74351567 0.64912552
0.12897125 0.72002596 0.60503870
-0.17884728 0.69322520 0.58088917
-0.09028456 0.65710765 0.55419749
0.08212231 0.62954360 0.53621149
0.33262250 0.59467244 0.52774113
0.57461262 0.56662661 0.49844670
0.81954181 0.52307487 0.54572171
1.04170799 0.49122030 0.47796357
0.87051094 0.42915550 0.61545169
0.98070765 0.41881275 0.55924112
-0.27509469 0.50642174 0.55853063
-0.20416595 0.48472545 0.53111029
0.03066414 0.47037110 0.50405937
0.30271539 0.45905471 0.48034397
0.54756272 0.45109591 0.46240327
0.76301569 0.43354926 0.46522895
0.94338489 0.43423980 0.41823107
-0.13042617 1.07170999 0.52818137
-0.12283171 1.10664117 0.47430095
-0.13192388 1.13572371 0.42288959
-0.03561600 1.16569114 0.39132234
0.08100278 1.17876148 0.37465096
0.26133534 1.15986490 0.35262582
0.51697856 1.13660252 0.33742183
0.61162901 1.11848080 0.30147055
0.79793185 1.14374304 0.22536454
0.21388291 0.45306963 0.80040842
0.46973163 0.48838323 0.99324507
0.70073044 0.43941051 0.98349476
0.89087027 0.39349094 0.97481167
0.90759724 0.33205473 0.96214002
0.87039083 0.27635419 0.94198382
-0.06946299 0.25154278 0.92940593
0.01874330 0.24975729 0.98301417
0.17406546 0.23404717 0.96929723
0.13725868 0.56540120 1.00149822
0.17551291 0.51342201 0.99533045
0.23639593 0.46267688 0.98163885
0.42412651 0.41243652 0.97810131
0.63600856 0.36698523 0.97404492
0.91573703 0.31162715 0.97034317
1.11704373 0.26584437 0.96819949
0.33170861 0.29298985 0.98354995
0.12051506 0.26180562 0.98672175
0.56690210 0.22892013 0.99993294
0.57509017 0.23476785 0.98892397
-0.03786562 0.28397384 0.99664629
0.07068155 0.29084077 0.98923552
0.24846354 0.29806316 0.98370165
0.34995541 0.30435494 0.97660059
0.48184747 0.31201398 0.96525389
0.67185366 0.31182420 0.94674861
0.84599233 0.31484962 0.93803906
0.68397015 0.59223473 0.95776451
0.90404087 0.55962807 0.94701618
-0.09610692 0.62861019 0.96954036
-0.02351758 0.60437703 0.96209747
0.14786664 0.58309120 0.95597357
0.24163440 0.55645198 0.94616789
0.34078777 0.53165364 0.93472427
0.54757947 0.51314998 0.91139865
0.70187610 0.51151544 0.91250646
-0.13806340 0.43695241 1.02787793
-0.06463079 0.39779013 1.01452482
0.12944441 0.36072081 0.99010211
0.26180333 0.32988536 0.98624384
0.48239812 0.29700539 0.98104966
0.72315592 0.26113087 0.97125214
0.92072833 0.21834756 0.95681334
0.61076605 0.19580734 0.94254142
0.65714359 0.17905113 0.93824917
0.23924769 0.39794376 0.96383363
0.40132430 0.44810462 1.00106573
0.60280943 0.50244367 0.99517250
0.87706888 0.55468518 0.99013174
0.78913659 0.59071255 0.98830611
0.07057113 0.63251090 0.98127204
0.40102428 0.72388649 0.96866918
0.50964928 0.64918011 0.97584981
0.59974945 0.57969481 1.00843620
0.04636357 0.54890019 0.94418740
0.14526740 0.56716406 0.91740054
0.30998659 0.59035128 0.89792079
0.41450456 0.61193335 0.88111597
0.51287311 0.63709998 0.86539620
0.68254727 0.66764873 0.84143376
0.81862605 0.68913847 0.82101291
0.67427379 0.72374600 0.79078007
0.70788538 0.74377590 0.77718568
0.81306690 0.59178591 0.89537668
0.83873582 0.58506072 0.86664152
-0.01491976 0.61452091 0.85838765
0.04614982 0.59212124 0.83211440
0.19133916 0.56005025 0.81928045
0.35629490 0.54179770 0.80196595
0.55508304 0.51999843 0.79068518
0.77190942 0.48495024 0.76181918
0.97346044 0.46704373 0.73406893
0.83109099 0.58442742 0.88934928
0.92529136 0.59853548 0.84222662
-0.05084120 0.70248061 0.83470470
0.02245236 0.70530671 0.81211120
0.16697465 0.70567048 0.78535193
0.31876540 0.71429408 0.76978010
0.52189976 0.71558720 0.75007248
0.75306624 0.69948089 0.71756166
0.86130655 0.57409501 0.68900335
0.06746500 0.14363180 1.05620170
-0.13991059 -0.04639650 1.06793189
0.09453874 -0.02634816 1.06973577
0.39665362 0.00213575 1.07252324
0.64386684 0.02914798 1.07645869
0.88342136 0.05632543 1.07842577
1.08838141 0.08305154 1.08078063
0.08988568 0.20164122 1.08452630
0.06143291 0.23464192 1.08714139
-0.01251566 0.06339338 1.13564658
-0.01603831 0.10548174 1.13423467
-0.02483834 0.15099704 1.13229632
-0.03900054 0.20150661 1.13021517
-0.05849320 0.25075072 1.12800813
-0.08116849 0.30344146 1.12605309
-0.00765967 0.44012782 1.12407076
-0.00864350 0.50423849 1.12175465
-0.01330142 0.56548017 1.11986887
-0.27160692 0.12033082 1.05510926
-0.18940143 0.04998093 1.05277824
0.00840741 -0.02235040 1.04877675
0.25953311 -0.07333128 1.04617774
0.49500406 -0.12576534 1.04385114
0.71908098 -0.16361795 1.04246271
0.88134426 -0.13591239 1.04280472
1.09598589 -0.12381051 1.04279327
1.18673480 -0.10317417 1.04275346
0.63726634 0.54348654 1.03613544
0.86753529 0.53260130 1.03392398
-0.29105693 0.61821681 1.04083955
-0.23370293 0.61026323 1.04076004
-0.04745597 0.60307252 1.04006994
0.06203691 0.59335506 1.03917062
0.15288417 0.58112842 1.03910279
0.35940072 0.57254380 1.03571153
0.60577941 0.56781626 1.03457737
0.42785928 0.77187705 1.13501263
0.62734687 0.73212773 1.13313663
-0.21784124 0.76194143 1.14563441
-0.11937810 0.73775524 1.14400184
0.10620540 0.70792723 1.14316773
0.28371164 0.67821574 1.14243412
0.45865327 0.64207906 1.14230025
0.65877265 0.60781360 1.14125538
0.63863283 0.61952835 1.14103281
-0.00001995 0.15493631 0.71378773
-0.03965933 0.14591758 0.67612529
-0.01665146 0.11351716 0.63897663
-0.01578565 0.08544177 0.59615129
-0.02950899 0.05946162 0.56431186
-0.05080226 0.03803162 0.53467017
-0.06374226 0.01532740 0.50644439
-0.07248266 -0.00429138 0.47222066
-0.07444162 -0.02031065 0.44721401
-0.01423724 -0.05810864 0.16880950
-0.01236678 -0.06333967 0.19403830
-0.01128249 -0.06872407 0.22052421
-0.01179002 -0.07431797 0.25403497
-0.01486632 -0.07924496 0.28252694
-0.02130821 -0.08366779 0.31174949
-0.03095906 -0.08114234 0.33552447
-0.04282032 -0.07179587 0.35203964
-0.01446565 -0.06706680 0.37704092
-0.12486894 1.11552584 1.14499068
-0.08390498 1.07476687 1.14430857
-0.11542752 1.03743756 1.14371502
-0.01575044 1.00699735 1.14352167
0.12638567 0.96060640 1.14350545
0.29146442 0.92267311 1.14427793
0.54162329 0.88245720 1.14435077
0.79107440 0.83381581 1.14222729
1.05289447 0.78659207 1.13730562
0.97410637 0.49444357 1.14196491
1.13719380 0.49401131 1.14218521
-0.27206987 0.62006909 1.14240885
-0.21536742 0.60157740 1.14263165
0.00257236 0.57751495 1.14128733
0.23842701 0.56015307 1.14086092
0.48043033 0.54808587 1.13658822
0.70248288 0.52197444 1.12703037
0.93687159 0.50855446 1.13349450
