modules/detection_bypass/_luts/experimento.cube
# VEGAS Pro LUT
TITLE "experimento"
LUT_3D_SIZE 5
0.25475672 0.61308450 -0.09042694
0.76295471 0.50172931 -0.16255435
1.06869996 0.37439317 -0.16374958
-0.21942841 0.30263567 -0.16515873
0.23983185 0.27523050 -0.16556883
-0.04956177 0.78151327 -0.16587478
0.11075053 0.67255676 -0.16935031
0.56541544 0.55363953 -0.16979627
1.13627779 0.43039820 -0.17007658
0.17527984 0.43271515 -0.16966046
-0.14107758 0.51822704 -0.17153364
0.06814102 0.44310805 -0.17104980
0.57724172 0.36418235 -0.17059806
1.04117584 0.27570206 -0.17050102
0.57639551 0.23687062 -0.12069716
1.01313972 1.15075874 -0.13970189
0.33962566 1.06650352 -0.14317980
-0.15500163 0.87200165 -0.14646430
0.17574863 0.84936184 -0.15003274
0.42155591 0.71349365 -0.14386950
0.06258760 1.02107167 -0.15761106
-0.12631088 1.05127800 -0.15722859
0.09145490 1.04694140 -0.15713203
0.54571146 1.04577136 -0.15710442
1.11800897 1.06769621 -0.15946773
0.25479358 -0.23312555 0.31731999
-0.02037365 -0.13760580 0.23698519
0.39051166 -0.14639190 0.13193002
0.84002298 -0.19719453 0.05965120
1.06828833 -0.23266879 0.02211594
0.48843670 0.43783563 -0.06289948
1.06373668 0.54283714 -0.07591661
0.27717263 0.07682701 -0.02918386
0.74065715 0.12874494 -0.08077207
1.10368586 0.17659792 -0.05713437
0.06611036 0.59167641 -0.02204711
-0.17141549 0.58846790 -0.04047844
0.19794106 0.57498199 -0.05066318
0.54377860 0.55235642 -0.06130109
0.94763851 0.55101109 -0.08191738
-0.14174442 0.21276155 -0.01610452
0.34336603 0.08949223 -0.02823835
0.85053009 -0.08773683 -0.05028120
0.15933371 -0.05607356 -0.05727806
-0.07404780 0.28371152 -0.02507346
-0.14864972 0.84464997 -0.05039778
0.17581965 0.87278444 -0.07417569
0.49448428 0.90800428 -0.08396999
0.84359282 0.95566505 -0.09448721
0.40396893 0.89536566 -0.08617254
-0.16977693 -0.26087177 0.79055208
-0.00040611 -0.24133277 0.68708980
0.43566245 -0.20656028 0.60939711
0.81347573 -0.19448102 0.53343928
1.12395215 -0.19638440 0.46316031
-0.19792967 0.05566649 0.60082018
-0.01516883 0.05170745 0.50416535
0.48531875 0.10186786 0.42096299
0.97224969 0.15272404 0.31566516
0.40931910 0.26765016 0.27317449
0.15105595 -0.25532243 0.50156015
0.63158345 -0.18814485 0.41863257
1.01803434 -0.13003621 0.34399348
0.94693571 -0.09985739 0.25275528
-0.09385432 0.02155595 0.29107198
0.59306508 0.45717695 0.18160008
-0.22808707 0.47948492 0.16157533
0.12272554 0.48586401 0.12942000
0.62421638 0.49860135 0.10733379
0.95476061 0.50154799 0.09181263
0.18355998 -0.15218939 0.25648150
0.73345631 -0.25411305 0.23644644
0.67533284 -0.12673722 0.19253436
0.42191613 -0.14246692 0.17654285
0.71981561 -0.20219135 0.37365055
0.61717153 0.27960014 0.83495778
1.00297189 0.36106616 0.80298311
0.12330882 0.41358995 0.78047758
-0.13521279 0.57384795 0.74953723
0.24034192 0.71362203 0.85138297
0.68880349 0.33277988 0.87738949
-0.28227490 0.37332651 0.87040162
0.01039111 0.35815802 0.81718898
0.32983479 0.34520805 0.75359887
0.79213065 0.31578946 0.69705856
-0.13358003 -0.21040890 0.84959626
0.40551844 -0.26284808 0.86879396
0.92837763 -0.22473028 0.83118671
-0.08263666 -0.11439250 0.79376662
-0.03993842 0.03378949 0.81894541
0.18697439 0.74351567 0.64912552
-0.17884728 0.69322520 0.58088917
0.08212231 0.62954360 0.53621149
0.57461262 0.56662661 0.49844670
1.04170799 0.49122030 0.47796357
-0.13042617 1.07170999 0.52818137
-0.13192388 1.13572371 0.42288959
0.08100278 1.17876148 0.37465096
0.51697856 1.13660252 0.33742183
0.79793185 1.14374304 0.22536454
0.06746500 0.14363180 1.05620170
0.09453874 -0.02634816 1.06973577
0.64386684 0.02914798 1.07645869
1.08838141 0.08305154 1.08078063
0.06143291 0.23464192 1.08714139
-0.27160692 0.12033082 1.05510926
0.00840741 -0.02235040 1.04877675
0.49500406 -0.12576534 1.04385114
0.88134426 -0.13591239 1.04280472
1.18673480 -0.10317417 1.04275346
0.42785928 0.77187705 1.13501263
-0.21784124 0.76194143 1.14563441
0.10620540 0.70792723 1.14316773
0.45865327 0.64207906 1.14230025
0.63863283 0.61952835 1.14103281
-0.01423724 -0.05810864 0.16880950
-0.01128249 -0.06872407 0.22052421
-0.01486632 -0.07924496 0.28252694
-0.03095906 -0.08114234 0.33552447
-0.01446565 -0.06706680 0.37704092
0.97410637 0.49444357 1.14196491
-0.27206987 0.62006909 1.14240885
0.00257236 0.57751495 1.14128733
0.48043033 0.54808587 1.13658822
0.93687159 0.50855446 1.13349450
