modules/detection_bypass/_luts/experimento.cube
# VEGAS Pro LUT
TITLE "experimento"
LUT_3D_SIZE 33
0.25475672 0.61308450 -0.09042694
0.32145905 0.60372114 -0.16359772
0.38162479 0.59320027 -0.16121450
0.44419882 0.57052922 -0.16141123
0.50233030 0.55743706 -0.16157652
0.57048547 0.54521018 -0.16211545
0.63392168 0.53293073 -0.16226232
0.69374835 0.52009308 -0.16244757
0.76295471 0.50172931 -0.16255435
0.81498325 0.48493218 -0.16140999
0.86374062 0.47177541 -0.15749319
0.91852719 0.45792153 -0.15849294
0.97594446 0.44462600 -0.16154429
1.03574884 0.42189848 -0.16301218
1.07127261 0.40611216 -0.16343923
1.08517635 0.39117789 -0.16365983
1.06869996 0.37439317 -0.16374958
1.04618669 0.36043724 -0.16378887
1.03104734 0.34549379 -0.16396110
1.00378311 0.32598811 -0.16416407
1.01047897 0.34408197 -0.16453221
-0.10556788 0.34203786 -0.16511096
-0.26589808 0.32849789 -0.16521324
-0.24115005 0.31750226 -0.16509537
-0.21942841 0.30263567 -0.16515873
-0.19469304 0.29204836 -0.16527782
-0.16477570 0.27496782 -0.16531834
-0.11653543 0.32176471 -0.16540913
-0.05116674 0.35217983 -0.16541238
0.02395549 0.33022168 -0.16550550
0.09954000 0.30981377 -0.16536088
0.17255922 0.28947359 -0.16536798
0.23983185 0.27523050 -0.16556883
0.29848671 0.25557145 -0.16396403
0.35771528 0.24183932 -0.16104461
0.41769004 0.22379056 -0.15627275
0.42863739 0.20329495 -0.09762209
0.48132917 0.19114622 -0.09911763
0.55072796 0.17509224 -0.11066672
0.63406217 0.15800591 -0.13592745
0.72277993 0.14479907 -0.15830533
0.81408769 0.12979861 -0.16233160
0.87962931 0.11425199 -0.16240206
0.93967283 0.10032684 -0.16251166
0.99520904 0.08462453 -0.16242661
1.03934085 0.06690388 -0.16253372
1.08607376 0.04914290 -0.16245399
1.16723347 0.02704179 -0.16258150
0.05912975 0.01286341 -0.16250823
-0.04114933 -0.00268823 -0.16261622
-0.06762005 -0.01741410 -0.16251789
-0.09360417 -0.03524076 -0.16262968
-0.11703961 -0.05015254 -0.16277947
-0.13870719 -0.07230382 -0.16326547
-0.13873091 0.07028627 -0.16325949
-0.15937299 0.06404730 -0.16309360
-0.11776067 0.04144052 -0.16309655
-0.07913106 0.01882889 -0.16290750
-0.03951292 -0.00577038 -0.16293725
0.00428024 -0.02346895 -0.16277628
0.04690108 -0.05078233 -0.16262491
0.09383232 -0.06912466 -0.16244122
0.14268768 -0.09869906 -0.16225377
0.18540496 -0.12205709 -0.16211353
0.22797561 -0.14214483 -0.16197938
0.28449944 -0.13495095 -0.16186278
0.35553810 -0.11818527 -0.16192529
0.42692745 -0.10692530 -0.16005707
0.50792617 -0.09297712 -0.16027650
0.58800322 -0.07542804 -0.16029823
0.66468352 -0.06138985 -0.16024685
0.71581995 -0.04676871 -0.16015236
0.77612001 -0.02913025 -0.16011739
0.84390664 -0.00724154 -0.15994397
0.91780412 0.00770890 -0.15986301
0.43855608 0.02277227 -0.15555753
0.25102490 0.04393349 -0.09044404
0.26563838 0.06524945 -0.09083079
0.26528257 0.08061849 -0.09090589
0.26056042 0.09805407 -0.09108065
0.26475763 0.11814974 -0.11028741
0.30521271 0.17356047 -0.15863037
0.10101844 0.18739747 -0.15852571
-0.16392472 0.20858175 -0.15835674
-0.10749058 0.23279440 -0.15812062
-0.05720814 0.25379503 -0.15811794
0.00597890 0.27482522 -0.15844555
0.07292433 0.28924507 -0.15853895
0.13942096 0.44745669 -0.15829174
0.22434495 0.46866506 -0.15797183
0.29462433 0.47892871 -0.15765522
0.37204567 0.49428934 -0.15741007
0.43123406 0.50944573 -0.15730640
0.51195997 0.52302110 -0.15719141
0.58502668 0.53562242 -0.15709127
0.64024335 0.55060738 -0.15690766
0.69727945 0.56401122 -0.15674524
0.75163001 0.58198291 -0.15660076
0.80068892 0.59723842 -0.15648258
0.84933811 0.61627042 -0.15647559
0.90482950 0.63206077 -0.15668958
0.96745294 0.65131152 -0.15677148
0.93927759 0.66820818 -0.15664960
0.77003092 0.68339235 -0.15647362
0.76513517 0.70425940 -0.15631251
0.75044876 0.72416276 -0.15617689
0.72547328 0.73734373 -0.15605167
0.69315737 0.75439012 -0.15587707
0.67287523 0.76892883 -0.15575173
0.69499463 0.78240854 -0.15569021
-0.09686925 0.80055290 -0.15555473
-0.11860626 0.81495249 -0.15544462
-0.06231526 0.83572483 -0.15533580
-0.00706705 0.85820949 -0.15527226
0.68641019 0.95859176 -0.15488560
0.72161961 0.93851274 -0.15516384
0.76386905 0.91592693 -0.15439789
0.80944002 0.89377552 -0.15415636
0.84376836 0.87011498 -0.15462151
0.87466753 0.84662545 -0.15484250
0.89467984 0.82771206 -0.15505517
0.92681092 0.80191541 -0.15525308
0.95938283 0.77701330 -0.15540878
1.00755739 0.75804806 -0.15556271
0.87006897 0.73297876 -0.15572210
0.87714368 0.70528662 -0.15577455
0.96149504 0.68125826 -0.15592824
1.02576840 0.65380234 -0.15602823
1.08168602 0.62715137 -0.15595740
1.13211203 0.60292274 -0.15616424
1.19971466 0.57232821 -0.15668267
0.80484515 0.54804271 -0.15698223
-0.29906973 0.51795983 -0.15712228
-0.23035936 0.48956302 -0.15714425
-0.18838370 0.45499873 -0.15702830
-0.14204298 0.42624262 -0.15701488
-0.09059943 0.39788425 -0.15713052
-0.03032023 0.37469143 -0.15727347
0.06730630 0.34834924 -0.15740080
-0.14593819 0.32223630 -0.15749918
-0.14842112 0.30089694 -0.15761796
-0.12261512 0.31745735 -0.15780318
-0.09564207 0.29272857 -0.15792914
-0.06142854 0.26947910 -0.15808150
-0.02139421 0.24379165 -0.15822390
0.02282837 0.22285175 -0.15840900
0.07188064 0.20268068 -0.15858135
0.12004931 0.16594167 -0.15872435
0.15510342 0.32560849 -0.15890978
0.18499394 0.34395841 -0.15940556
0.21550885 0.32119632 -0.16006705
0.23664258 0.29430228 -0.16037869
0.26318675 0.26898903 -0.16047308
0.28859109 0.24730504 -0.16058670
0.30786091 0.22114907 -0.16067420
0.32429674 0.19361819 -0.16078082
0.33032143 0.16121486 -0.14746924
0.31759569 0.13683008 -0.09438147
0.34972203 0.11145088 -0.09431162
0.38461289 0.08525168 -0.09539138
0.45485064 0.06216095 -0.13779418
0.49528027 0.03466495 -0.15843245
0.52549160 0.01232279 -0.16103493
0.55199450 0.01959471 -0.16120860
0.59347510 0.02490598 -0.15983418
0.64430755 0.02743023 -0.16029052
0.66041851 0.02555202 -0.16053045
0.73813701 0.03375208 -0.16082324
0.83366561 0.03950025 -0.16109303
0.91756564 0.03990195 -0.16136710
0.97070509 0.04995251 -0.16166013
1.01755643 0.06011594 -0.16175501
1.08350718 0.06995853 -0.16204154
0.74290293 0.07953849 -0.16206174
-0.16364127 0.08599870 -0.16244256
-0.09203395 0.10056200 -0.16258435
-0.04710236 0.11716978 -0.16267593
-0.00215854 0.12885350 -0.16277416
0.04453083 0.14637661 -0.16287576
0.09387041 0.15727232 -0.16298133
0.16592677 0.17336132 -0.16309075
-0.19949001 0.18082836 -0.16320336
-0.16024952 0.37235343 -0.16347818
-0.14703637 0.39999968 -0.16395733
-0.12980740 0.40253651 -0.16430533
-0.11463147 0.40723854 -0.16442744
-0.09455533 0.40734956 -0.16450119
-0.06188296 0.41613570 -0.16458410
-0.02032930 0.42028230 -0.16467527
0.02334857 0.46991411 -0.16475847
0.06349212 0.49720678 -0.16483271
0.11776808 0.50466013 -0.16490883
0.18027408 0.51014930 -0.16498388
0.23448977 0.51878941 -0.16505708
0.29644364 0.52647847 -0.16512765
0.35982996 0.53523105 -0.16519530
0.41726658 0.54047918 -0.16534856
0.47315523 0.54454625 -0.16377975
0.52883780 0.55555409 -0.16304784
0.59355778 0.56333864 -0.16372608
0.65524220 0.57023168 -0.16403973
0.71535122 0.57398701 -0.16429469
0.77910566 0.58654171 -0.16472475
0.82972395 0.59447110 -0.16515106
0.86908793 0.60357267 -0.16534406
0.92044502 0.61585563 -0.16560677
0.96682495 0.62111777 -0.16582091
1.00758076 0.63170540 -0.16584194
0.94499195 0.64283669 -0.16593650
1.02676702 0.65410525 -0.16595583
1.08270133 0.66828096 -0.16600090
1.12314427 0.67743742 -0.16604602
1.17023110 0.68820399 -0.16610934
1.20882201 0.70194060 -0.16620097
1.24840224 0.70973313 -0.16627319
-0.11744965 0.72413725 -0.16641927
-0.23311502 0.77542681 -0.16671528
-0.18502785 0.77415091 -0.16698685
-0.14460294 0.77769125 -0.16709486
-0.09915236 0.78252345 -0.16714080
-0.05140543 0.78975606 -0.16717948
0.02814585 0.80013812 -0.16721317
-0.06987932 0.81479287 -0.16726033
-0.09632929 0.97164428 -0.16731420
-0.04933686 0.97060013 -0.16736048
-0.00508087 0.97364324 -0.16741396
0.04466624 0.98468488 -0.16748112
0.09442405 0.99561137 -0.16753715
0.14761727 1.00167930 -0.16758418
0.20131069 1.00904465 -0.16769847
0.25005102 1.01339817 -0.16656956
0.29023796 1.02141082 -0.16473447
0.32864907 1.02519524 -0.16559313
0.36307958 1.03620493 -0.16631633
0.38957766 1.04734612 -0.16651693
0.42332172 1.04333889 -0.16712244
0.45580074 1.03191555 -0.16770661
0.47587836 1.01996338 -0.16809595
0.49998951 1.00764835 -0.16809934
0.52570319 0.99250799 -0.16812278
0.56850249 0.97787637 -0.16815063
0.61036766 0.96464419 -0.16816308
0.66088569 0.95046502 -0.16816126
0.70933205 0.93533581 -0.16815864
0.73852503 0.91951364 -0.16815878
0.76571631 0.90322375 -0.16816317
0.79285181 0.89169377 -0.16818236
0.83167034 0.87436080 -0.16821703
0.84556973 0.84973639 -0.16827604
0.44224766 0.82405001 -0.16843271
0.52596027 0.80274945 -0.16862832
0.60606706 0.78877425 -0.16870861
0.66650140 0.77210659 -0.16871773
0.73381019 0.75662988 -0.16873845
0.79512739 0.74747288 -0.16876076
0.90080726 0.73195487 -0.16878638
-0.22696474 0.78638917 -0.16882120
-0.25533208 0.81771362 -0.16885120
-0.23970239 0.79888147 -0.16887324
-0.22746903 0.78056902 -0.16889726
-0.21238048 0.76814872 -0.16892400
-0.19696859 0.75307381 -0.16895252
-0.15680020 0.74074495 -0.16900672
-0.09467340 0.76014739 -0.16840221
-0.04956177 0.78151327 -0.16587478
-0.02586693 0.76449174 -0.16725269
-0.00719467 0.75083160 -0.16793066
0.01210688 0.73931783 -0.16850941
0.02930518 0.72906870 -0.16863526
0.05198338 0.71198398 -0.16925374
0.06990624 0.69852877 -0.16926797
0.09192608 0.68381178 -0.16930665
0.11075053 0.67255676 -0.16935031
0.15501481 0.65698367 -0.16939825
0.20586458 0.64443523 -0.16944984
0.24943015 0.63444865 -0.16950521
0.31589416 0.61780345 -0.16956358
0.38207996 0.60151821 -0.16962261
0.44086426 0.58601004 -0.16968152
0.49948782 0.56632233 -0.16974120
0.56541544 0.55363953 -0.16979627
0.64085329 0.53944063 -0.16984329
0.73714399 0.51869702 -0.16994028
0.82673001 0.50055379 -0.16944775
0.89520872 0.48650444 -0.16636407
0.95857078 0.47392473 -0.16758469
1.01632810 0.45671558 -0.16930346
1.06969917 0.44048953 -0.16989699
1.13627779 0.43039820 -0.17007658
0.69023389 0.43850315 -0.16998042
0.13418807 0.47564059 -0.17005810
0.18836288 0.46011037 -0.17001741
0.22181657 0.44306347 -0.16998133
0.26000199 0.43365997 -0.16994908
0.29245839 0.42272940 -0.16991773
0.33554688 0.40690190 -0.16990241
0.17527984 0.43271515 -0.16966046
-0.16440259 0.55218071 -0.16669849
-0.12940198 0.53383410 -0.16761978
-0.10861713 0.51967311 -0.16914861
-0.08689535 0.50464398 -0.16984808
-0.06343756 0.48842272 -0.16981943
-0.03722785 0.47744444 -0.16981597
-0.00859008 0.46203679 -0.16981043
0.01828608 0.45040080 -0.16980797
0.06214401 0.43423706 -0.16980872
0.11830249 0.42277974 -0.16980758
0.18362562 0.40975839 -0.16980621
0.24223880 0.39149511 -0.16981126
0.30229390 0.38134709 -0.16982220
0.37655678 0.35897487 -0.16983519
0.43394792 0.34363559 -0.16984916
0.49325401 0.32793823 -0.16986439
0.55021232 0.30969355 -0.16548747
0.58316374 0.28393090 -0.12032277
0.66827601 0.27019656 -0.13840635
0.75465667 0.25634652 -0.15548727
0.83362138 0.23507933 -0.16579355
0.89949155 0.21922550 -0.16945359
0.95018363 0.21094030 -0.16997322
1.00187492 0.19594431 -0.17005755
1.05832279 0.18014872 -0.17005961
1.05030143 0.17478471 -0.17005327
0.68866396 0.18554074 -0.14995129
0.77046371 0.17361999 -0.16608234
0.80520719 0.16957550 -0.16856721
0.84043372 0.15668964 -0.16973493
0.86907417 0.15247545 -0.16995180
0.90243566 0.14174347 -0.17004469
0.81905079 0.14205247 -0.16977976
-0.22295430 0.37133545 -0.16740079
-0.17736892 0.34792992 -0.16838241
-0.16049984 0.33535114 -0.17015281
-0.14246294 0.31886145 -0.17009309
-0.12104109 0.31267846 -0.17009312
-0.09664916 0.29457697 -0.17008942
-0.06608321 0.28053179 -0.17007989
-0.04018680 0.26910105 -0.17006676
0.00263467 0.26166114 -0.17005153
0.07648174 0.24220870 -0.17003468
0.15409406 0.23348573 -0.17001764
0.22605792 0.21719269 -0.17000306
0.29087397 0.20318441 -0.16999157
0.36575064 0.19154029 -0.16732411
0.37952152 0.17148322 -0.10459246
0.43683678 0.15450974 -0.10478687
0.50204986 0.13998324 -0.11193614
0.59603947 0.12367377 -0.14659469
0.67437994 0.09513446 -0.16828248
0.72120315 0.08287780 -0.16978729
0.78969479 0.06975680 -0.17001373
0.84794587 0.05634014 -0.17002533
0.88773018 0.03116020 -0.17002450
0.94338387 0.01821423 -0.17002076
0.99453694 0.00648519 -0.17001541
1.05766952 -0.00128481 -0.17000954
1.11438441 -0.00586313 -0.17000467
1.17434263 -0.02695669 -0.17000321
1.21795273 -0.02917870 -0.17000581
1.24455285 -0.03222533 -0.17001221
1.27540672 -0.03484517 -0.17002200
1.26654994 -0.03327199 -0.17009053
1.30885124 -0.05277097 -0.16856462
-0.24288692 0.25014904 -0.16670693
-0.19471574 0.23026259 -0.16613394
-0.17834501 0.21857378 -0.16719106
-0.16038229 0.20654701 -0.16557749
-0.14066073 0.20215711 -0.16564438
-0.11600277 0.18947074 -0.16571027
-0.08768582 0.18420379 -0.16412933
-0.06393169 0.17151780 -0.16419514
-0.02586634 0.16649802 -0.16426055
0.02977784 0.16171688 -0.16268601
0.10194825 0.14844762 -0.16280663
0.16260408 0.14335896 -0.16123591
0.21977398 0.12970629 -0.16129750
0.26928580 0.12225622 -0.14889547
0.27113488 0.11960578 -0.09744450
0.31797090 0.11045823 -0.09267078
0.35665762 0.09328062 -0.09277476
0.40257251 0.08306900 -0.09941407
0.46401230 0.07260536 -0.13068783
0.50710273 0.06562828 -0.14716327
0.54596931 0.04823275 -0.15511981
0.58295357 0.03843904 -0.15658972
0.61097926 0.03183979 -0.15683192
0.63783491 0.02439038 -0.15695676
0.67472303 0.00988627 -0.15540797
0.70877492 0.00689234 -0.15545148
0.77830255 0.00700897 -0.15549941
0.81232750 0.00629967 -0.15393367
0.81874466 0.00736131 -0.15397479
0.83326977 0.00198384 -0.15397528
0.83418852 0.00275149 -0.15402201
0.83571458 0.00290027 -0.15246402
0.86645126 -0.00563103 -0.15254927
-0.14572699 0.21990742 -0.15162992
-0.13684915 0.20359580 -0.15253614
-0.12475955 0.19299704 -0.15255889
-0.11367212 0.19186375 -0.15100969
-0.10042924 0.18098144 -0.15105450
-0.08722126 0.17974766 -0.15105820
-0.06683425 0.16809501 -0.15105085
-0.05103558 0.16635677 -0.15110654
-0.02658404 0.15507573 -0.14955880
0.01208328 0.15336731 -0.14962415
0.05114092 0.14215343 -0.14962491
0.08969912 0.14008893 -0.14963603
0.13106216 0.13765404 -0.14965428
0.17488934 0.12494114 -0.14971282
0.20760493 0.12147449 -0.14819141
0.24185574 0.11642577 -0.14604315
0.24657780 0.11121238 -0.11158462
0.26120162 0.09917016 -0.08036258
0.29449093 0.09253457 -0.08057145
0.31015146 0.08588129 -0.08058621
0.34960425 0.07694267 -0.08274222
0.37959969 0.07108895 -0.09722751
0.42711914 0.05727012 -0.12675337
0.46628162 0.04869022 -0.13992910
0.49186176 0.04216618 -0.14412560
0.53377098 0.03947308 -0.14594817
0.59707081 0.03949439 -0.14656673
0.62845314 0.03483507 -0.14664523
0.64572269 0.03509432 -0.14663230
0.65753001 0.03668981 -0.14661969
0.66568983 0.03797055 -0.14660719
0.67634451 0.04011779 -0.14659898
0.70419043 0.02618839 -0.14663106
-0.14845330 0.22027870 -0.14574163
-0.11442159 0.20802820 -0.14663252
-0.10641070 0.20164093 -0.14660552
-0.09899079 0.19540657 -0.14661181
-0.08782504 0.18840095 -0.14662065
-0.07671304 0.18714312 -0.14663306
-0.05972646 0.17937142 -0.14664920
-0.04825057 0.17780893 -0.14666986
-0.03055969 0.17587414 -0.14669490
-0.00297513 0.16823590 -0.14672393
0.03298819 0.16636872 -0.14675666
0.07354967 0.15867877 -0.14679198
0.11259209 0.15630677 -0.14682057
0.15499631 0.15284933 -0.14684922
0.17997341 0.15018100 -0.14687583
0.21755600 0.14278136 -0.14691009
0.25207797 0.13839385 -0.14684463
0.27888021 0.13280953 -0.13154362
0.27669093 0.12913772 -0.08935376
0.30232275 0.11793503 -0.07985141
0.33430085 0.11391445 -0.08005749
0.36577529 0.10711985 -0.08178112
0.39230368 0.10275529 -0.08192517
0.43113190 0.09627881 -0.09310414
0.49982634 0.08399235 -0.12783836
0.53128546 0.10645557 -0.12184215
0.60470271 0.15165487 -0.11990326
0.63958311 0.17839430 -0.12076351
0.67754877 0.18181869 -0.13020636
0.69254649 0.17712897 -0.13677341
0.71416712 0.18225430 -0.13998616
0.72285110 0.18451996 -0.14109544
0.74868727 0.18056189 -0.14615877
-0.17804539 0.37688795 -0.15280230
-0.14116113 0.36336303 -0.15269914
-0.13684210 0.36067903 -0.15420434
-0.13209899 0.35384426 -0.15409493
-0.12251933 0.35652524 -0.15404247
-0.11147993 0.34888014 -0.15394676
-0.09662234 0.35102707 -0.15380272
-0.08327878 0.34317958 -0.15529636
-0.06376231 0.34502274 -0.15519056
-0.03426382 0.34296298 -0.15511203
0.00332972 0.33823863 -0.15504040
0.05382164 0.33612096 -0.15491055
0.10141597 0.33734688 -0.15640126
0.15334882 0.33125898 -0.15629181
0.19330317 0.32815427 -0.15625198
0.24792290 0.32714856 -0.15617287
0.28704134 0.32671234 -0.15768529
0.34271318 0.31368059 -0.15758692
0.39168611 0.31098375 -0.15749307
0.42784536 0.30943018 -0.15901713
0.48701215 0.30146208 -0.15881930
0.52589214 0.29025802 -0.14953756
0.54457837 0.28479183 -0.11658525
0.59258926 0.28030434 -0.11130370
0.66856557 0.27204397 -0.12748137
0.74393511 0.27201590 -0.14247218
0.85691726 0.27237138 -0.15830594
0.92558849 0.26771483 -0.16184169
0.96908653 0.27342162 -0.16239217
0.99601573 0.27521005 -0.16415130
1.03068376 0.28037328 -0.16417448
1.05298328 0.28517258 -0.16408017
1.09477007 0.28310618 -0.16564368
-0.23683831 0.51398265 -0.16551191
-0.19210108 0.50298601 -0.16706674
-0.18597260 0.49913982 -0.16697274
-0.17688365 0.49482015 -0.16687270
-0.16250625 0.49773473 -0.16842139
-0.14707370 0.49259484 -0.16832095
-0.12345465 0.49469259 -0.16822103
-0.10257466 0.49694374 -0.16978016
-0.07695441 0.49087575 -0.16962880
-0.03835111 0.49284819 -0.17119966
0.01260664 0.49442905 -0.17105851
0.07447497 0.48824939 -0.17264643
0.15310530 0.48985729 -0.17256893
0.24068095 0.48355123 -0.17255320
0.30113170 0.46956205 -0.17245659
0.37763208 0.46269739 -0.17246544
0.44287604 0.45209926 -0.17235239
0.50960624 0.44378692 -0.17233101
0.57912368 0.43436906 -0.17221963
0.63057220 0.41796902 -0.17220339
0.70514905 0.40642178 -0.16856731
0.75931042 0.39166942 -0.15510419
0.81031346 0.38407004 -0.15944585
0.88200361 0.37463936 -0.16688111
0.94873816 0.35553643 -0.17024603
1.02884412 0.34537008 -0.17182861
0.96775794 0.34064141 -0.17110926
1.01822519 0.33840567 -0.17203873
1.04404974 0.33584124 -0.17194039
1.06131363 0.33603349 -0.17196612
1.06720650 0.33588150 -0.17179209
1.07093036 0.32543451 -0.17166099
1.11490655 0.31652644 -0.17169888
-0.14107758 0.51822704 -0.17153364
-0.17036486 0.50690788 -0.17152420
-0.14045586 0.49502447 -0.17139019
-0.11333553 0.48734927 -0.17134145
-0.08408741 0.47608566 -0.17124473
-0.05048212 0.46802670 -0.17109123
-0.00817276 0.45620832 -0.17112830
0.02509523 0.44791773 -0.17099328
0.06814102 0.44310805 -0.17104980
0.11013012 0.42840245 -0.17093422
0.16465002 0.42262843 -0.17090045
0.23382840 0.41484448 -0.17091957
0.30385703 0.40051422 -0.17083527
0.37927410 0.39435118 -0.17080903
0.44908851 0.38573322 -0.17079721
0.51697016 0.37951440 -0.17076991
0.57724172 0.36418235 -0.17059806
0.63707054 0.35219288 -0.16009773
0.67882413 0.34256050 -0.13997182
0.76217324 0.33222970 -0.15321065
0.83699757 0.32207063 -0.16340320
0.89699244 0.30803442 -0.16786654
0.94064677 0.29797265 -0.16947781
0.99104071 0.28733951 -0.17033187
1.04117584 0.27570206 -0.17050102
1.10499048 0.26787055 -0.17091671
0.60946172 0.27005720 -0.12538444
0.51515365 0.26676804 -0.13526894
0.51737946 0.25543973 -0.11291466
0.52401131 0.25086656 -0.11111218
0.52692527 0.24699429 -0.11168376
0.53184193 0.24621032 -0.11237806
0.57639551 0.23687062 -0.12069716
0.07259157 0.36694902 -0.16965312
-0.08595069 0.37893245 -0.16967019
-0.02552250 0.36543745 -0.16964380
0.02621875 0.35219428 -0.16963978
0.07496471 0.34368116 -0.16948538
0.12294550 0.33182716 -0.16945879
0.18111791 0.32243201 -0.16937235
0.23288228 0.31040150 -0.16933137
0.28662759 0.30088979 -0.16915548
0.34070823 0.29311210 -0.16914970
0.39806119 0.28156278 -0.16901024
0.46024460 0.27253729 -0.16874291
0.50131983 0.26414436 -0.14938346
0.53795922 0.25445768 -0.11218750
0.62001687 0.24301428 -0.12870541
0.69203675 0.23107910 -0.14484112
0.75212651 0.22341824 -0.15591329
0.81498981 0.21412812 -0.16462702
0.87911063 0.20363602 -0.16810763
0.95850152 0.18886825 -0.16891478
1.02799547 0.17580464 -0.16885480
1.07142234 0.16201174 -0.16889742
1.10164523 0.15249252 -0.16879560
1.13162351 0.14345010 -0.16888420
1.15382528 0.13316819 -0.16885938
1.18886364 0.11974945 -0.16919014
0.62494785 0.13820191 -0.14514221
-0.10836098 0.14462107 -0.16632709
-0.09319470 0.13244471 -0.16649556
-0.10100085 0.12416878 -0.16659622
-0.10292461 0.11846219 -0.16644160
-0.10694586 0.10894896 -0.16659309
-0.09070375 0.09753943 -0.16665581
-0.06252059 0.13633758 -0.16649896
-0.01381719 0.15400253 -0.16654526
0.08972556 0.13971052 -0.16666141
0.18334217 0.13228852 -0.16783397
0.27290627 0.14018053 -0.17048720
0.30984592 0.14060186 -0.13664559
0.34305355 0.13410078 -0.10667580
0.39341825 0.12565114 -0.10698641
0.42863470 0.11371955 -0.10743071
0.47489631 0.09747428 -0.12108380
0.53354013 0.07443251 -0.15552977
0.67199135 0.04425270 -0.16669142
0.69885069 0.02652401 -0.16617134
0.73973739 0.01296758 -0.16625844
0.79305851 0.00535914 -0.16610910
0.83851713 -0.00404050 -0.17169735
0.75718230 -0.01587148 -0.09677757
-0.12389102 -0.06320754 -0.07491380
-0.08080065 -0.06420712 -0.07516307
-0.06509157 -0.06857618 -0.07404427
-0.05248176 -0.07201483 -0.07287284
-0.04460130 -0.07752158 -0.06702825
-0.07843173 -0.06487063 -0.13921873
0.93126851 -0.08606324 -0.16771522
1.01820397 -0.09882835 -0.16551566
1.07950437 -0.11333591 -0.16555293
0.62927270 -0.12930559 -0.16565697
0.58617717 -0.13637123 -0.17099594
-0.16676994 -0.10976897 -0.09523591
-0.15008900 -0.11982797 -0.16318689
-0.13932972 -0.14310449 -0.16047077
-0.11564752 -0.15849812 -0.16028117
-0.08429669 -0.17392874 -0.16011913
-0.04398352 -0.18532240 -0.16023096
0.00944356 -0.18464039 -0.16005972
0.07150336 -0.17709851 -0.16005893
0.12848009 -0.17156106 -0.15993735
0.19278865 -0.15733849 -0.15983845
0.25880781 -0.14448227 -0.15970422
0.31457919 -0.13416049 -0.15831378
0.37565845 -0.11627525 -0.15412448
0.44121984 -0.10572875 -0.14999589
0.49834368 -0.09207692 -0.14856713
0.54766017 -0.07829683 -0.14857109
0.60762948 -0.06788944 -0.14852670
0.68008959 -0.05541912 -0.14821616
0.76025844 -0.04398730 -0.14828837
0.86083102 -0.03001473 -0.14830989
0.93423975 -0.01734972 -0.14841686
0.99565494 -0.00577071 -0.14842170
1.05254960 0.00721091 -0.14856265
1.09603500 0.01833214 -0.14874838
1.13752639 0.03306908 -0.14873885
1.07329369 0.07511667 -0.14903995
-0.36297908 0.09382500 -0.14917561
-0.31030661 0.10947011 -0.14920329
-0.29187855 0.12363008 -0.14931202
-0.27238908 0.13887738 -0.14915247
-0.24554630 0.15555593 -0.14944082
-0.21530287 0.16602634 -0.14512970
-0.15738820 0.25263238 -0.14056174
-0.07698890 0.29270199 -0.14151783
-0.00671422 0.29840958 -0.14193931
0.03609527 0.30828193 -0.14227164
0.08577515 0.31186178 -0.14271826
0.13053751 0.32021925 -0.14288694
0.17833158 0.33184537 -0.14285068
0.22792172 0.33744481 -0.14304017
0.28030962 0.34917209 -0.14298116
0.32676420 0.35654902 -0.14341563
0.38074163 0.36944315 -0.14360799
0.44809416 0.38039553 -0.14357588
0.52078283 0.39763257 -0.14386256
0.59901774 0.41396055 -0.14376688
0.67699528 0.42546093 -0.14360596
0.74314326 0.44163066 -0.14118256
0.79686582 0.45198500 -0.13682486
0.84615427 0.46778995 -0.13693987
0.90091813 0.48123035 -0.13839051
0.95863581 0.48460999 -0.14150934
0.82759166 0.49510214 -0.14291762
0.15540296 0.50901997 -0.14483210
0.17890526 0.51949978 -0.14509669
0.17923367 0.53428155 -0.14512357
0.17568412 0.55141860 -0.14546975
0.16994782 0.56945944 -0.14568916
0.16362526 0.59370941 -0.14628941
0.19217582 0.72195679 -0.14625095
-0.14686608 0.73770773 -0.14620921
-0.10295346 0.75221312 -0.14658158
-0.04351087 0.77307844 -0.14657602
0.01888361 0.78134429 -0.14708236
0.09130713 0.80206829 -0.14494747
0.16670869 0.81828922 -0.13409220
0.24834822 0.86600614 -0.13604805
0.31729028 0.87400514 -0.13658722
0.38851997 0.88867384 -0.13726173
0.46016622 0.90464395 -0.13781478
0.52888447 0.92086828 -0.13829525
0.58909547 0.93842310 -0.13820884
0.64081144 0.95568025 -0.13874353
0.69356000 0.97384012 -0.13863488
0.75146890 0.98607135 -0.13916498
