modules/detection_bypass/_luts/interview-cool_17.C0003.cube
TITLE "Generated by Resolve"
LUT_3D_SIZE 33
0.00132753 0.00137331 0.00181582
0.00856031 0.00221256 0.00259403
0.0386206 0.00653086 0.00683604
0.0757 0.0120241 0.0122683
0.11667 0.018967 0.0190738
0.153796 0.027512 0.0273289
0.187594 0.0379187 0.037171
0.21973 0.0512551 0.049546
0.251301 0.0696727 0.0663005
0.281605 0.091783 0.0876478
0.310155 0.113054 0.109056
0.33785 0.133516 0.130037
0.365469 0.155032 0.151568
0.393454 0.177508 0.174441
0.421775 0.200885 0.198413
0.449546 0.224048 0.222263
0.477012 0.247089 0.246036
0.504677 0.270329 0.270039
0.53286 0.29424 0.294713
0.561059 0.318196 0.319402
0.589609 0.342214 0.344106
0.618326 0.366049 0.368612
0.646738 0.389242 0.392386
0.67538 0.412177 0.415854
0.70486 0.435218 0.439384
0.734539 0.45774 0.462333
0.765255 0.480217 0.485191
0.798276 0.503288 0.508583
0.833219 0.526268 0.531823
0.873228 0.550484 0.556222
0.922637 0.576989 0.582803
0.950637 0.59884 0.604959
0.960143 0.616449 0.623087
0.00880446 0.0239109 0.00988785
0.0150759 0.0215305 0.00854505
0.0536355 0.0274815 0.014435
0.0927291 0.0339818 0.0209201
0.13077 0.0458991 0.0297856
0.164462 0.0601358 0.0396735
0.196429 0.076112 0.0511177
0.227253 0.0935073 0.0646372
0.257267 0.110521 0.0813916
0.285634 0.126345 0.0996872
0.31313 0.142901 0.118502
0.340108 0.160281 0.137789
0.367117 0.178836 0.157733
0.394553 0.198474 0.179278
0.422034 0.218631 0.201602
0.448936 0.238758 0.223972
0.476051 0.259449 0.246906
0.503227 0.28043 0.270008
0.530953 0.301976 0.293645
0.559304 0.324163 0.317739
0.587869 0.346502 0.341787
0.616266 0.368627 0.365438
0.645029 0.390845 0.389044
0.673884 0.412833 0.412268
0.702708 0.434806 0.435325
0.732265 0.457115 0.458595
0.762692 0.479301 0.48159
0.794583 0.501595 0.50457
0.829084 0.524361 0.527947
0.868177 0.548196 0.552285
0.91574 0.57409 0.578546
0.94963 0.596963 0.601846
0.959152 0.614618 0.620127
0.0280919 0.0784924 0.0293126
0.0325017 0.0717937 0.0262608
0.0699016 0.0779126 0.0316777
0.113634 0.0866255 0.0390631
0.15082 0.0965896 0.0477607
0.183322 0.10428 0.0572519
0.214252 0.115343 0.0697795
0.243778 0.127947 0.0850996
0.271397 0.141161 0.101152
0.297505 0.155016 0.116976
0.322942 0.169421 0.133272
0.348089 0.184466 0.14992
0.373953 0.200809 0.168338
0.400153 0.217838 0.188022
0.426535 0.235645 0.208759
0.452995 0.253773 0.230152
0.479042 0.272053 0.251606
0.506081 0.291524 0.274189
0.533272 0.311437 0.296971
0.561288 0.332265 0.32047
0.58967 0.353536 0.344167
0.617823 0.37464 0.367407
0.646372 0.395956 0.390677
0.675242 0.41735 0.413809
0.704234 0.43856 0.436515
0.734081 0.459953 0.459251
0.764813 0.481712 0.4822
0.796994 0.504005 0.505486
0.831479 0.526558 0.528878
0.869917 0.549813 0.552819
0.918791 0.576181 0.579736
0.950408 0.598428 0.602548
0.959823 0.615854 0.620691
0.0511177 0.134096 0.0525826
0.0554513 0.125261 0.0475013
0.090898 0.128359 0.0521553
0.126635 0.13373 0.0585031
0.164599 0.140902 0.0670176
0.200122 0.150057 0.0775158
0.229816 0.159472 0.0893416
0.257252 0.166354 0.1019
0.28484 0.175082 0.117906
0.310719 0.185016 0.133608
0.335637 0.196017 0.149142
0.360861 0.208911 0.165759
0.385595 0.222782 0.18294
0.410941 0.238087 0.201465
0.436072 0.253895 0.220523
0.461158 0.270161 0.240192
0.486275 0.286809 0.260288
0.511727 0.304189 0.28098
0.538552 0.322942 0.303075
0.565667 0.342184 0.325429
0.59324 0.36202 0.348135
0.62153 0.382483 0.371267
0.649561 0.402716 0.393912
0.677897 0.423087 0.416434
0.707118 0.443931 0.439185
0.736568 0.464561 0.461479
0.767208 0.485496 0.483879
0.800092 0.507179 0.506874
0.834745 0.529397 0.53019
0.873426 0.552544 0.554253
0.922576 0.578698 0.58117
0.951461 0.600381 0.603601
0.96083 0.6177 0.621729
0.0779278 0.182727 0.0794995
0.0863508 0.174044 0.0734569
0.116518 0.174945 0.0771801
0.144381 0.177478 0.0823835
0.176257 0.18233 0.0896162
0.209339 0.188312 0.0979324
0.241642 0.195682 0.107485
0.270497 0.20415 0.118471
0.29601 0.211688 0.130861
0.321233 0.218006 0.145815
0.346319 0.225513 0.161563
0.371084 0.235233 0.177844
0.396277 0.246754 0.195377
0.421378 0.259373 0.213626
0.446921 0.273396 0.232914
0.471534 0.287541 0.251881
0.496468 0.302739 0.271519
0.521523 0.318822 0.291539
0.547311 0.335988 0.312322
0.573785 0.354192 0.333806
0.600793 0.372976 0.355673
0.627894 0.391974 0.377493
0.655589 0.411475 0.399603
0.683619 0.431083 0.421622
0.712062 0.450843 0.443519
0.74165 0.471092 0.465721
0.772351 0.491585 0.487938
0.804807 0.512505 0.510384
0.839582 0.533837 0.533028
0.879545 0.556832 0.557168
0.929534 0.582849 0.584146
0.952804 0.602899 0.605097
0.962219 0.620233 0.623362
0.105592 0.225818 0.106615
0.120714 0.218921 0.102251
0.142962 0.217487 0.103883
0.164858 0.217716 0.106752
0.190036 0.219562 0.111254
0.21854 0.223926 0.117922
0.248127 0.228763 0.124987
0.277989 0.235126 0.133547
0.305989 0.242573 0.14406
0.33193 0.250278 0.157717
0.356069 0.257221 0.171878
0.380438 0.26424 0.187549
0.405249 0.272435 0.204974
0.430732 0.282765 0.223651
0.455543 0.294072 0.242298
0.480507 0.306508 0.261509
0.505058 0.319646 0.28069
0.530755 0.334508 0.301091
0.556619 0.350317 0.321767
0.583276 0.367361 0.343114
0.610407 0.385367 0.364858
0.637354 0.403525 0.386297
0.664607 0.422065 0.407736
0.692378 0.441016 0.429282
0.720485 0.460044 0.450629
0.749615 0.479469 0.47216
0.780224 0.499443 0.494011
0.812711 0.51986 0.516106
0.848219 0.541039 0.538781
0.888518 0.563302 0.562325
0.941573 0.58938 0.589548
0.95494 0.606851 0.608042
0.964111 0.623713 0.625895
0.130526 0.263966 0.130388
0.150835 0.258045 0.127535
0.168917 0.255833 0.128115
0.187121 0.255055 0.129931
0.206821 0.254978 0.132525
0.229664 0.256657 0.136797
0.25539 0.260273 0.14284
0.282322 0.264332 0.148989
0.310887 0.270085 0.157031
0.338643 0.277302 0.167834
0.365774 0.285222 0.182696
0.390249 0.292775 0.197375
0.414084 0.300237 0.213123
0.438788 0.308278 0.231159
0.463828 0.317006 0.250309
0.488411 0.326711 0.269383
0.513451 0.338262 0.289021
0.538521 0.351064 0.308812
0.564706 0.365682 0.329641
0.591318 0.381353 0.35082
0.618433 0.398032 0.372366
0.646204 0.415671 0.394308
0.673747 0.433433 0.415793
0.701686 0.451652 0.437232
0.730663 0.470558 0.458961
0.759991 0.489494 0.480308
0.790509 0.508797 0.501701
0.823697 0.529 0.523812
0.860243 0.550072 0.546517
0.902296 0.572351 0.570214
0.948806 0.596277 0.595407
0.957855 0.612238 0.612482
0.966949 0.628855 0.630167
0.156603 0.298894 0.153887
0.17821 0.293538 0.150744
0.194446 0.290547 0.150439
0.210361 0.289647 0.151888
0.225528 0.288518 0.153246
0.243503 0.288472 0.155779
0.264881 0.29015 0.160006
0.288899 0.293431 0.165881
0.314443 0.297215 0.171542
0.34229 0.303014 0.179614
0.370336 0.310018 0.191287
0.39791 0.317983 0.206622
0.423514 0.325841 0.222522
0.447623 0.333471 0.238987
0.471733 0.341436 0.25687
0.49575 0.349447 0.275563
0.520958 0.35877 0.295674
0.546487 0.369589 0.31606
0.572442 0.382147 0.336751
0.599237 0.39649 0.358083
0.626352 0.411917 0.379492
0.653666 0.428077 0.400916
0.681743 0.445197 0.422675
0.710185 0.462745 0.444282
0.739193 0.480781 0.465827
0.769619 0.499611 0.487724
0.80148 0.518914 0.509682
0.835752 0.538949 0.531991
0.873899 0.559991 0.554986
0.919722 0.583017 0.57969
0.952041 0.603372 0.601434
0.961059 0.618875 0.618128
0.970459 0.635187 0.635615
0.182666 0.33225 0.177172
0.204395 0.327169 0.173297
0.22031 0.324041 0.172396
0.234302 0.322881 0.173449
0.24654 0.321279 0.174105
0.260639 0.32018 0.175448
0.277531 0.320211 0.178027
0.297642 0.32195 0.182361
0.320821 0.325093 0.188281
0.345418 0.328618 0.193637
0.37261 0.334157 0.201694
0.400748 0.341131 0.213947
0.428916 0.349279 0.229877
0.455451 0.356939 0.247013
0.480003 0.364141 0.264317
0.504234 0.372061 0.282567
0.528313 0.380438 0.301396
0.55375 0.390036 0.321798
0.579751 0.400687 0.342779
0.606867 0.413108 0.364508
0.63444 0.427176 0.386404
0.661906 0.442039 0.407889
0.689815 0.457816 0.429374
0.718502 0.474556 0.451041
0.747692 0.491768 0.472496
0.778302 0.509789 0.494255
0.81091 0.528695 0.516396
0.846815 0.548745 0.5393
0.887129 0.569909 0.562875
0.936843 0.593469 0.588525
0.955215 0.610681 0.607309
0.964385 0.626139 0.624155
0.973922 0.642069 0.641413
0.207965 0.36466 0.200046
0.230228 0.360128 0.196262
0.246265 0.356847 0.194598
0.258961 0.355337 0.195209
0.269245 0.353567 0.195438
0.280034 0.351827 0.195834
0.293416 0.350713 0.197162
0.309712 0.350988 0.2
0.328862 0.352499 0.204196
0.351415 0.355474 0.209888
0.375525 0.358801 0.215351
0.402045 0.364034 0.223484
0.429953 0.370703 0.235874
0.458549 0.378561 0.252552
0.485679 0.385946 0.270588
0.511742 0.393469 0.289387
0.537072 0.401617 0.30869
0.562005 0.410574 0.328237
0.587991 0.420706 0.349004
0.614435 0.431724 0.370214
0.641779 0.443885 0.39205
0.669947 0.457404 0.414267
0.698054 0.471763 0.43592
0.726818 0.487205 0.457557
0.756878 0.503853 0.479484
0.787808 0.521065 0.501198
0.821042 0.539345 0.5234
0.858045 0.55903 0.546487
0.900343 0.580087 0.570474
0.949187 0.603067 0.595987
0.958053 0.617838 0.612497
0.967346 0.633219 0.629526
0.97702 0.649104 0.646937
0.233661 0.396048 0.222431
0.255818 0.39202 0.219028
0.27187 0.389242 0.217472
0.283986 0.387717 0.217884
0.292668 0.385504 0.217456
0.301152 0.383413 0.217182
0.311437 0.381552 0.217426
0.324224 0.380453 0.218692
0.340078 0.380621 0.221408
0.35874 0.381857 0.22533
0.380774 0.384588 0.230671
0.404486 0.387732 0.236362
0.43006 0.39234 0.244373
0.457816 0.398672 0.256901
0.487022 0.406424 0.274632
0.515373 0.413977 0.293919
0.543053 0.422019 0.314183
0.569955 0.430594 0.334859
0.596262 0.440009 0.355535
0.623255 0.450767 0.376913
0.650278 0.462058 0.398306
0.677745 0.474098 0.419913
0.706294 0.487343 0.441978
0.735561 0.501503 0.463996
0.765789 0.516762 0.485969
0.798032 0.533471 0.5084
0.832013 0.551019 0.530739
0.870008 0.570031 0.553887
0.915694 0.59144 0.578897
0.952087 0.611124 0.601343
0.960891 0.625437 0.61767
0.970138 0.640421 0.634531
0.97998 0.656291 0.652171
0.260227 0.427298 0.245167
0.281727 0.423438 0.241672
0.297215 0.420981 0.240406
0.308766 0.419318 0.240528
0.316396 0.416999 0.239765
0.323064 0.414557 0.238911
0.330861 0.412055 0.238209
0.340795 0.410071 0.238285
0.353201 0.408804 0.239338
0.368704 0.408774 0.24181
0.386999 0.409735 0.245426
0.408835 0.412467 0.250797
0.431907 0.415106 0.256352
0.457298 0.419562 0.264683
0.48571 0.426123 0.278416
0.515419 0.433753 0.296956
0.545022 0.44152 0.317403
0.57406 0.449958 0.338842
0.602792 0.459083 0.360922
0.631067 0.469123 0.383017
0.658946 0.480064 0.404868
0.686717 0.491554 0.426429
0.715068 0.503792 0.448142
0.744564 0.517082 0.470268
0.775296 0.531289 0.4925
0.80766 0.546624 0.514855
0.843427 0.563714 0.538048
0.883726 0.582437 0.562005
0.932433 0.603586 0.587594
0.955139 0.619959 0.606943
0.963943 0.63386 0.623209
0.973205 0.648524 0.64004
0.982986 0.663966 0.657481
0.286427 0.457679 0.267704
0.306889 0.453864 0.263996
0.321813 0.451499 0.262745
0.332784 0.450019 0.262837
0.339834 0.447547 0.261799
0.345281 0.444648 0.260319
0.351232 0.442084 0.25919
0.358785 0.439414 0.258305
0.36849 0.437324 0.258228
0.380911 0.436271 0.259403
0.396063 0.435874 0.261555
0.414176 0.436805 0.265171
0.435966 0.439521 0.270527
0.459022 0.442039 0.276402
0.484596 0.446525 0.28542
0.51342 0.453132 0.300023
0.543954 0.460899 0.319554
0.574639 0.468879 0.340917
0.605463 0.477653 0.363729
0.635798 0.48719 0.386938
0.665522 0.497505 0.409949
0.694972 0.508614 0.432609
0.723995 0.520348 0.454582
0.753887 0.532952 0.476677
0.78529 0.546685 0.499138
0.818479 0.561303 0.521752
0.855238 0.577462 0.54519
0.898177 0.59588 0.570077
0.949599 0.616739 0.596445
0.958144 0.629435 0.612421
0.966918 0.642802 0.62858
0.976394 0.657328 0.645701
0.98616 0.672374 0.66305
0.312566 0.487816 0.290425
0.331655 0.484199 0.286702
0.346166 0.482139 0.285771
0.356573 0.480552 0.285603
0.363272 0.478096 0.284428
0.36791 0.47512 0.282658
0.372412 0.472099 0.280903
0.378058 0.469154 0.279393
0.385534 0.466499 0.278416
0.39527 0.464286 0.278202
0.407706 0.463188 0.279301
0.422843 0.462821 0.281453
0.441199 0.46392 0.285191
0.463004 0.466468 0.290379
0.486351 0.468925 0.296803
0.512123 0.473487 0.3066
0.541344 0.480064 0.322042
0.572732 0.487907 0.342519
0.604501 0.496071 0.364645
0.636637 0.504936 0.388327
0.66836 0.514565 0.41236
0.699825 0.525078 0.436271
0.731472 0.536645 0.460029
0.762707 0.548806 0.482856
0.794873 0.561883 0.505516
0.829816 0.576425 0.528908
0.867872 0.592081 0.552605
0.913252 0.610086 0.578042
0.95256 0.627909 0.601846
0.961105 0.639963 0.617807
0.969924 0.652689 0.633967
0.979599 0.666957 0.651392
0.989456 0.681666 0.668818
0.338766 0.51812 0.313481
0.356695 0.514931 0.310002
0.370825 0.513283 0.309682
0.380301 0.511391 0.309071
0.386709 0.509102 0.307912
0.390829 0.506004 0.305898
0.394308 0.502632 0.303624
0.398535 0.499504 0.301686
0.404211 0.4963 0.299901
0.41181 0.493568 0.298802
0.421866 0.491585 0.298711
0.434211 0.490211 0.299535
0.449393 0.489906 0.301656
0.468086 0.491081 0.305425
0.490043 0.493446 0.310414
0.513741 0.495857 0.317494
0.540276 0.500572 0.328481
0.569528 0.506996 0.344427
0.60177 0.514839 0.365667
0.634424 0.522881 0.388281
0.667384 0.531655 0.41236
0.700862 0.541436 0.437308
0.73431 0.552178 0.462135
0.768521 0.564172 0.486961
0.803372 0.577035 0.511238
0.839963 0.591089 0.535317
0.880903 0.606912 0.560143
0.930175 0.625116 0.586694
0.955261 0.639399 0.606729
0.963989 0.651286 0.622965
0.972915 0.66363 0.639277
0.982467 0.677089 0.656428
0.992584 0.691661 0.674281
0.365576 0.549249 0.337316
0.382208 0.546334 0.334386
0.395407 0.545007 0.334386
0.404288 0.542962 0.333455
0.410254 0.54052 0.332036
0.41416 0.537484 0.329976
0.416968 0.533913 0.327398
0.419898 0.530282 0.324804
0.424186 0.527016 0.322698
0.429953 0.523659 0.320729
0.437629 0.520745 0.319463
0.447807 0.518776 0.319326
0.460426 0.517388 0.320073
0.475853 0.517067 0.322118
0.494881 0.518227 0.325795
0.517189 0.520546 0.330632
0.541131 0.522911 0.33843
0.5682 0.527504 0.350301
0.598108 0.533715 0.367086
0.630686 0.541176 0.388556
0.664118 0.548989 0.411582
0.698375 0.5579 0.436286
0.733455 0.567803 0.461845
0.769802 0.579049 0.487953
0.807294 0.591546 0.513893
0.847272 0.605463 0.539925
0.891615 0.621118 0.566308
0.946914 0.64007 0.595056
0.957961 0.65127 0.611597
0.966583 0.662654 0.627604
0.975662 0.674952 0.644129
0.985275 0.688121 0.661341
0.995392 0.702251 0.679164
0.39266 0.580987 0.361685
0.408453 0.578805 0.359976
0.420569 0.577371 0.359716
0.428534 0.575143 0.358526
0.433906 0.572396 0.356741
0.437476 0.569146 0.354421
0.439948 0.56585 0.35198
0.442008 0.562036 0.349096
0.444953 0.55816 0.346273
0.449317 0.554696 0.343969
0.455283 0.551202 0.341863
0.463249 0.54818 0.340444
0.47364 0.546166 0.340215
0.486549 0.544656 0.340826
0.502312 0.544259 0.342763
0.521523 0.545388 0.346273
0.544182 0.547509 0.350866
0.568521 0.549706 0.35938
0.595865 0.554101 0.372045
0.626505 0.560082 0.389593
0.659403 0.567193 0.411109
0.693858 0.575006 0.434653
0.729946 0.583902 0.460182
0.767346 0.594034 0.486641
0.807004 0.605859 0.513924
0.849241 0.619089 0.541329
0.897414 0.634607 0.569757
0.951461 0.652552 0.599054
0.960235 0.663203 0.615625
0.969024 0.674357 0.631907
0.978119 0.686336 0.648447
0.987854 0.699474 0.665858
0.998001 0.71342 0.683696
0.419867 0.613245 0.386435
0.435004 0.611887 0.386038
0.445594 0.609979 0.385214
0.452842 0.607843 0.384039
0.45771 0.604868 0.381994
0.460868 0.601526 0.379538
0.462852 0.59794 0.376806
0.464439 0.594034 0.373785
0.466346 0.589944 0.370657
0.469413 0.586007 0.367758
0.473991 0.582254 0.365179
0.48014 0.578668 0.362966
0.488319 0.575509 0.36141
0.498955 0.573388 0.361074
0.512108 0.571832 0.361578
0.528283 0.571283 0.363317
0.547875 0.572244 0.366613
0.570886 0.574197 0.370916
0.595834 0.576226 0.380255
0.623697 0.580453 0.393774
0.654734 0.586206 0.411887
0.68835 0.592966 0.433631
0.724071 0.600748 0.45774
0.762112 0.609705 0.48397
0.802487 0.620188 0.511452
0.846738 0.632624 0.540154
0.897749 0.647578 0.570336
0.952422 0.664637 0.600534
0.961532 0.674937 0.617823
0.970794 0.686046 0.634989
0.980102 0.69781 0.651911
0.989883 0.710689 0.669398
1 0.72491 0.68777
0.447379 0.646159 0.412161
0.461112 0.645182 0.412177
0.470512 0.643046 0.411032
0.476921 0.64036 0.409308
0.481407 0.637568 0.40737
0.484291 0.634226 0.404883
0.485908 0.630304 0.401862
0.487022 0.626413 0.39881
0.488136 0.622095 0.395422
0.490043 0.617746 0.392096
0.493156 0.613443 0.388907
0.497917 0.609552 0.386236
0.504311 0.605844 0.383917
0.51281 0.602731 0.38233
0.523857 0.600412 0.381796
0.537377 0.598795 0.382177
0.553841 0.598184 0.38378
0.573968 0.598962 0.386847
0.597467 0.600702 0.390845
0.623072 0.602533 0.401068
0.651621 0.606577 0.415534
0.683238 0.612161 0.434226
0.717754 0.618677 0.456153
0.755138 0.626474 0.480934
0.795468 0.635584 0.507851
0.84033 0.646632 0.536858
0.892348 0.660395 0.567971
0.952728 0.677165 0.600717
0.962005 0.686824 0.618402
0.971527 0.697643 0.636133
0.981216 0.709316 0.653803
0.991333 0.722148 0.671916
1 0.736873 0.691676
0.475486 0.680385 0.438895
0.487251 0.678828 0.4383
0.49572 0.676661 0.437064
0.501335 0.673854 0.435187
0.505089 0.670619 0.432853
0.507591 0.667201 0.43032
0.508843 0.663218 0.427253
0.509483 0.6589 0.42385
0.51017 0.654734 0.420569
0.511238 0.650126 0.416968
0.513268 0.645396 0.413336
0.516609 0.641016 0.410086
0.521492 0.636973 0.407294
0.528191 0.633036 0.404791
0.537011 0.629862 0.403204
0.548302 0.627375 0.402487
0.562295 0.625635 0.402701
0.579232 0.624933 0.404135
0.599893 0.625559 0.406973
0.624033 0.627131 0.410712
0.650126 0.62887 0.421759
0.679591 0.632715 0.437171
0.712337 0.638117 0.456718
0.747829 0.644343 0.478859
0.787457 0.652277 0.504433
0.831434 0.661768 0.53257
0.882551 0.673701 0.563378
0.949798 0.690166 0.599023
0.961761 0.699397 0.617563
0.971389 0.709484 0.635615
0.981353 0.720867 0.653895
0.991714 0.733486 0.672526
1 0.74844 0.693538
0.503563 0.715358 0.465858
0.513756 0.713451 0.464866
0.520928 0.710903 0.463264
0.525933 0.708186 0.461433
0.529107 0.704646 0.458869
0.531044 0.700832 0.456016
0.532143 0.696849 0.452979
0.532403 0.692363 0.449485
0.532418 0.687663 0.445777
0.532799 0.682918 0.442054
0.533989 0.678111 0.438331
0.536095 0.673259 0.434623
0.539651 0.668711 0.431296
0.544717 0.664347 0.428244
0.551675 0.660319 0.425681
0.560861 0.656855 0.423819
0.572656 0.654414 0.423117
0.587137 0.652506 0.423194
0.604654 0.651743 0.424506
0.62565 0.652216 0.427085
0.650507 0.653605 0.430549
0.67744 0.655222 0.442512
0.707729 0.658961 0.458824
0.741909 0.664164 0.479164
0.779156 0.670283 0.501884
0.821988 0.678416 0.528664
0.871794 0.68864 0.558694
0.934951 0.70248 0.593103
0.961196 0.713039 0.616053
0.970672 0.722225 0.633982
0.980545 0.732799 0.652247
0.991104 0.745159 0.671366
1 0.759655 0.692531
0.531762 0.751461 0.493141
0.540688 0.74963 0.49218
0.546761 0.746685 0.490242
0.550835 0.743297 0.487892
0.553628 0.739925 0.485466
0.555169 0.735851 0.482429
0.555779 0.731426 0.479088
0.555795 0.726986 0.475685
0.555291 0.721889 0.471733
0.554955 0.716731 0.467704
0.555337 0.711727 0.463844
0.556466 0.706371 0.459724
0.558709 0.701244 0.455848
0.562524 0.696635 0.452476
0.567834 0.691997 0.449241
0.575067 0.687816 0.446586
0.584695 0.684321 0.444739
0.596841 0.68162 0.443809
0.61178 0.679652 0.443778
0.630152 0.678843 0.445014
0.651698 0.679042 0.447272
0.67718 0.680278 0.450462
0.705196 0.681804 0.463447
0.736736 0.685435 0.480781
0.772351 0.690394 0.501686
0.812451 0.696712 0.525673
0.859739 0.705211 0.553903
0.919539 0.716823 0.587106
0.96051 0.727901 0.614176
0.969741 0.736263 0.631846
0.979431 0.746014 0.649927
0.989532 0.757275 0.668421
1 0.77116 0.689128
0.561044 0.790188 0.521798
0.568368 0.787671 0.520272
0.573648 0.784665 0.518303
0.576944 0.781003 0.51577
0.57882 0.776806 0.512779
0.579934 0.772686 0.509773
0.580087 0.767895 0.506218
0.579629 0.762722 0.502312
0.578973 0.757778 0.498543
0.578073 0.752224 0.494285
0.577539 0.74641 0.489815
0.57789 0.741009 0.485695
0.578973 0.735302 0.481376
0.581292 0.729824 0.477302
0.585214 0.72491 0.473777
0.590799 0.719997 0.470375
0.598413 0.715648 0.467613
0.608499 0.712276 0.465843
0.621134 0.709194 0.464622
0.636622 0.707103 0.464469
0.655344 0.706157 0.465522
0.677852 0.706279 0.467643
0.704265 0.707393 0.470603
0.733867 0.708919 0.484871
0.766934 0.712322 0.503273
0.804288 0.717174 0.524773
0.848447 0.72372 0.550347
0.903853 0.733272 0.581384
0.960235 0.744762 0.612955
0.968811 0.751781 0.629572
0.978088 0.760586 0.647135
0.987884 0.770977 0.665248
0.998657 0.783688 0.684764
0.591638 0.832319 0.55201
0.597574 0.829297 0.550164
0.60174 0.825727 0.547845
0.604395 0.82179 0.545205
0.605676 0.817197 0.541985
0.606027 0.812222 0.53843
0.605798 0.807126 0.534752
0.604852 0.80148 0.530602
0.603479 0.795575 0.526223
0.60206 0.789685 0.521828
0.600824 0.783444 0.517143
0.600229 0.777127 0.512383
0.600549 0.771313 0.508034
0.601694 0.76524 0.503517
0.604105 0.759274 0.499138
0.608194 0.75404 0.495415
0.613993 0.748898 0.491905
0.621897 0.744259 0.488991
0.632425 0.740612 0.487068
0.645548 0.737453 0.485756
0.661585 0.735241 0.485496
0.681117 0.734325 0.486503
0.704402 0.734173 0.488319
0.731975 0.735149 0.491081
0.763058 0.736721 0.506523
0.798535 0.740001 0.52636
0.839246 0.744747 0.549187
0.889921 0.752102 0.577264
0.958999 0.763439 0.612497
0.968368 0.769467 0.628031
0.976959 0.777188 0.644526
0.986145 0.786511 0.661768
0.996323 0.798215 0.680491
0.624811 0.880461 0.585214
0.629541 0.876951 0.583078
0.632364 0.872236 0.580056
0.634104 0.867613 0.577035
0.634623 0.862287 0.57348
0.634211 0.856413 0.569497
0.63331 0.850462 0.565393
0.631922 0.844327 0.561059
0.629938 0.837507 0.556161
0.627848 0.830655 0.551217
0.625895 0.823713 0.546136
0.624369 0.816617 0.540948
0.623514 0.809644 0.535836
0.623621 0.803052 0.531014
0.624765 0.796521 0.526268
0.627222 0.790112 0.521645
0.631464 0.784436 0.517693
0.637476 0.778943 0.514015
0.645777 0.773968 0.510887
0.656748 0.770077 0.508827
0.670314 0.766781 0.507439
0.687053 0.764309 0.506996
0.707301 0.763317 0.507897
0.731426 0.763043 0.509544
0.760586 0.763851 0.512108
0.793835 0.765423 0.528939
0.832273 0.768673 0.550301
0.878294 0.773739 0.57528
0.939666 0.782406 0.607126
0.968826 0.789517 0.628092
0.976257 0.795834 0.642588
0.984634 0.804196 0.658595
0.994034 0.814878 0.676158
0.663706 0.940703 0.624964
0.667002 0.936095 0.622217
0.668208 0.929763 0.61828
0.668376 0.923125 0.614084
0.66772 0.916228 0.609659
0.666423 0.909163 0.605051
0.664363 0.901396 0.599939
0.662028 0.893721 0.594827
0.659388 0.885878 0.589532
0.656397 0.877546 0.583764
0.653361 0.869078 0.577844
0.65098 0.861143 0.572244
0.648951 0.852796 0.566339
0.647776 0.844846 0.560662
0.647654 0.837293 0.555306
0.64863 0.829908 0.550072
0.651087 0.82295 0.54519
0.655467 0.816754 0.540963
0.661677 0.810758 0.537011
0.670146 0.805417 0.533715
0.681544 0.801175 0.531456
0.695628 0.797589 0.529915
0.713008 0.794965 0.529351
0.734356 0.793713 0.530053
0.759716 0.793347 0.531579
0.790677 0.794064 0.533989
0.826734 0.795605 0.552499
0.869337 0.798856 0.575677
0.923903 0.804746 0.604028
0.970367 0.81236 0.630045
0.976608 0.817533 0.642451
0.983856 0.824582 0.65655
0.992203 0.834287 0.672511
0.695644 0.985733 0.656306
0.700206 0.985611 0.65594
0.703746 0.985397 0.655406
0.706279 0.985107 0.654704
0.708064 0.984756 0.653864
0.707424 0.980163 0.650645
0.703258 0.968734 0.643488
0.698848 0.957366 0.636301
0.69456 0.946532 0.629374
0.690013 0.93547 0.622217
0.685603 0.924514 0.615045
0.681682 0.914015 0.608011
0.67837 0.903944 0.60119
0.675593 0.893797 0.594263
0.673961 0.884611 0.587976
0.673259 0.875563 0.581765
0.673838 0.86685 0.575784
0.676127 0.85893 0.570413
0.68043 0.851926 0.565759
0.686809 0.845228 0.561425
0.695659 0.839582 0.558022
0.707332 0.834699 0.555398
0.721935 0.830701 0.553628
0.739971 0.827787 0.552895
0.762463 0.826291 0.553445
0.789487 0.825757 0.554833
0.822873 0.826459 0.557214
0.863462 0.827985 0.578103
0.91223 0.831571 0.603769
0.973159 0.838346 0.634287
0.978134 0.84271 0.644343
0.984039 0.848615 0.656123
0.990997 0.856886 0.669779
0.708766 0.989868 0.665248
0.712993 0.98967 0.664729
0.716136 0.98938 0.664027
