modules/detection_bypass/_luts/interview-cool_17.C0003.cube
TITLE "Generated by Resolve"
LUT_3D_SIZE 9
0.00132753 0.00137331 0.00181582
0.11667 0.018967 0.0190738
0.251301 0.0696727 0.0663005
0.365469 0.155032 0.151568
0.477012 0.247089 0.246036
0.589609 0.342214 0.344106
0.70486 0.435218 0.439384
0.833219 0.526268 0.531823
0.960143 0.616449 0.623087
0.0779278 0.182727 0.0794995
0.176257 0.18233 0.0896162
0.29601 0.211688 0.130861
0.396277 0.246754 0.195377
0.496468 0.302739 0.271519
0.600793 0.372976 0.355673
0.712062 0.450843 0.443519
0.839582 0.533837 0.533028
0.962219 0.620233 0.623362
0.182666 0.33225 0.177172
0.24654 0.321279 0.174105
0.320821 0.325093 0.188281
0.428916 0.349279 0.229877
0.528313 0.380438 0.301396
0.63444 0.427176 0.386404
0.747692 0.491768 0.472496
0.887129 0.569909 0.562875
0.973922 0.642069 0.641413
0.286427 0.457679 0.267704
0.339834 0.447547 0.261799
0.36849 0.437324 0.258228
0.435966 0.439521 0.270527
0.543954 0.460899 0.319554
0.665522 0.497505 0.409949
0.78529 0.546685 0.499138
0.949599 0.616739 0.596445
0.98616 0.672374 0.66305
0.39266 0.580987 0.361685
0.433906 0.572396 0.356741
0.444953 0.55816 0.346273
0.47364 0.546166 0.340215
0.544182 0.547509 0.350866
0.659403 0.567193 0.411109
0.807004 0.605859 0.513924
0.960235 0.663203 0.615625
0.998001 0.71342 0.683696
0.503563 0.715358 0.465858
0.529107 0.704646 0.458869
0.532418 0.687663 0.445777
0.539651 0.668711 0.431296
0.572656 0.654414 0.423117
0.650507 0.653605 0.430549
0.779156 0.670283 0.501884
0.961196 0.713039 0.616053
1 0.759655 0.692531
0.624811 0.880461 0.585214
0.634623 0.862287 0.57348
0.629938 0.837507 0.556161
0.623514 0.809644 0.535836
0.631464 0.784436 0.517693
0.670314 0.766781 0.507439
0.760586 0.763851 0.512108
0.939666 0.782406 0.607126
0.994034 0.814878 0.676158
0.722911 0.994064 0.674311
0.733211 0.99266 0.671107
0.733867 0.990433 0.666117
0.731929 0.987747 0.660105
0.735454 0.985031 0.653864
0.737636 0.939788 0.624933
0.77969 0.909682 0.608225
0.899153 0.903243 0.610971
0.992111 0.917449 0.670192
0.838483 1 0.767987
0.836454 1 0.753841
0.82208 1 0.734127
0.802579 1 0.710414
0.787182 0.999817 0.686778
0.79202 0.996811 0.679911
0.82034 0.994858 0.675044
0.90074 0.995834 0.67602
0.99852 0.99852 0.681498
0.0128939 0.0128939 0.186572
0.17084 0.0383307 0.197925
0.311101 0.104005 0.21593
0.397192 0.176944 0.241001
0.497185 0.263249 0.300267
0.605051 0.354925 0.376928
0.71928 0.446174 0.460822
0.850553 0.537026 0.547921
0.964157 0.623758 0.633509
0.080293 0.179355 0.183703
0.163134 0.180591 0.195178
0.31313 0.193072 0.193927
0.402914 0.231296 0.22797
0.496468 0.285527 0.282795
0.599939 0.361151 0.361288
0.710369 0.444846 0.44773
0.837491 0.532113 0.536828
0.96202 0.619867 0.626001
0.182315 0.333654 0.252628
0.18468 0.324666 0.183597
0.313649 0.321828 0.192035
0.426184 0.334707 0.247349
0.518151 0.36025 0.308034
0.616144 0.409873 0.37882
0.721309 0.473472 0.456367
0.845869 0.547509 0.540444
0.965148 0.626291 0.625574
0.273167 0.459342 0.326452
0.28806 0.44921 0.267826
0.33872 0.438987 0.264195
0.430396 0.436072 0.2701
0.545968 0.450614 0.33312
0.649393 0.482002 0.406653
0.757916 0.527153 0.485222
0.89482 0.591592 0.571054
0.976211 0.655085 0.645411
0.365515 0.58146 0.398779
0.392233 0.573434 0.361975
0.410101 0.560113 0.353017
0.451713 0.547799 0.346654
0.539269 0.54432 0.350408
0.662257 0.558419 0.422827
0.793912 0.593164 0.51252
0.9552 0.649454 0.606348
0.98912 0.695186 0.668162
0.466682 0.713695 0.473274
0.497627 0.703624 0.460777
0.502159 0.687526 0.449134
0.511238 0.669596 0.436347
0.554009 0.654902 0.427802
0.645029 0.649683 0.428931
0.780697 0.662028 0.510979
0.96286 0.703578 0.619577
0.998672 0.745266 0.684825
0.59852 0.875776 0.583108
0.611399 0.857877 0.571679
0.606043 0.83415 0.555505
0.597665 0.807645 0.536995
0.606714 0.783566 0.520485
0.653239 0.765515 0.509758
0.753475 0.758404 0.508797
0.935744 0.773068 0.61207
0.996475 0.803967 0.680751
0.705989 0.994064 0.674464
0.71722 0.99266 0.67129
0.717021 0.990478 0.666453
0.71313 0.987823 0.660639
0.714839 0.984787 0.654795
0.714656 0.934493 0.623911
0.762341 0.904601 0.607019
0.887114 0.893416 0.604303
0.993988 0.904768 0.674723
0.821714 1 0.767117
0.820005 1 0.75346
0.804929 1 0.7346
0.783703 1 0.712093
0.765301 1 0.689036
0.767865 0.997269 0.681071
0.797314 0.995422 0.676646
0.879652 0.995941 0.676753
0.998322 0.998322 0.680735
0.0327001 0.0327001 0.346929
0.169619 0.0542 0.345388
0.34226 0.127825 0.366857
0.49369 0.254566 0.403098
0.584863 0.335668 0.41883
0.670146 0.407004 0.455436
0.775479 0.487053 0.516304
0.920851 0.575906 0.594079
0.977035 0.646967 0.662348
0.0923781 0.181308 0.323583
0.17052 0.184878 0.359609
0.340551 0.200183 0.367208
0.452903 0.251804 0.357702
0.52842 0.305974 0.368032
0.623636 0.378805 0.41593
0.732479 0.460761 0.483772
0.865034 0.548486 0.563653
0.968246 0.631189 0.643503
0.176623 0.325994 0.328878
0.187716 0.323598 0.329992
0.307378 0.320623 0.332876
0.428199 0.328588 0.331365
0.530068 0.348898 0.348257
0.619104 0.396689 0.396231
0.720607 0.462165 0.463752
0.843748 0.541878 0.54548
0.965072 0.625437 0.630762
0.269841 0.454643 0.37229
0.266773 0.44596 0.333089
0.285664 0.444923 0.285664
0.425574 0.435294 0.282399
0.540261 0.440757 0.347784
0.633936 0.465141 0.409873
0.731792 0.508247 0.473579
0.849393 0.56846 0.54876
0.966644 0.637613 0.628168
0.362417 0.577157 0.425742
0.360021 0.569574 0.370809
0.37792 0.556634 0.35172
0.432288 0.543755 0.344778
0.532769 0.539574 0.349386
0.655177 0.550576 0.421973
0.766217 0.579599 0.497917
0.900664 0.625437 0.580377
0.978302 0.676081 0.64892
0.462181 0.708095 0.4907
0.476738 0.699168 0.458198
0.48307 0.683314 0.44686
0.492775 0.665431 0.43418
0.54049 0.650462 0.42533
0.637644 0.643748 0.424567
0.773983 0.654749 0.509422
0.954437 0.694133 0.612329
0.990295 0.730282 0.669993
0.580056 0.86804 0.578241
0.596857 0.850965 0.567422
0.591653 0.827771 0.551644
0.582238 0.802243 0.533883
0.591043 0.778134 0.517418
0.640864 0.75993 0.506432
0.745174 0.751675 0.503944
0.92314 0.764263 0.607752
0.994659 0.793835 0.677485
0.695766 0.9935 0.673289
0.708415 0.992142 0.670237
0.708202 0.98999 0.665522
0.703426 0.987381 0.659831
0.697734 0.970642 0.646494
0.698787 0.923888 0.6177
0.749004 0.895018 0.601175
0.874357 0.882734 0.596933
0.993759 0.892592 0.674556
0.80885 1 0.762524
0.808118 1 0.749203
0.793164 1 0.730739
0.771618 1 0.709026
0.752209 0.999908 0.686976
0.754665 0.996948 0.68043
0.783688 0.995102 0.676051
0.864729 0.995514 0.675929
0.998108 0.998108 0.679881
0.0596628 0.0596628 0.489982
0.16939 0.0765393 0.483467
0.332586 0.126131 0.485237
0.50454 0.272053 0.532357
0.670192 0.405341 0.571069
0.805844 0.506905 0.595911
0.946334 0.590677 0.638163
0.975464 0.644129 0.678248
1 0.708721 0.736355
0.10367 0.175891 0.457664
0.169909 0.183734 0.473304
0.322301 0.211887 0.48043
0.479728 0.279667 0.507042
0.622858 0.376394 0.525322
0.72285 0.452506 0.537652
0.822003 0.521584 0.571969
0.951751 0.60087 0.631434
0.986557 0.663798 0.688594
0.181689 0.325109 0.441093
0.211353 0.320531 0.451316
0.307195 0.321019 0.495262
0.468177 0.323888 0.49868
0.575921 0.365682 0.475731
0.651194 0.413764 0.480446
0.747814 0.479988 0.521248
0.87512 0.559533 0.584878
0.971344 0.636774 0.655238
0.262928 0.447227 0.449668
0.269108 0.443824 0.4486
0.287266 0.440665 0.449195
0.41944 0.430945 0.443
0.52668 0.438209 0.440589
0.629694 0.458854 0.457511
0.733562 0.495521 0.493767
0.844114 0.554025 0.554208
0.967407 0.629694 0.632212
0.358511 0.572045 0.479606
0.357259 0.565164 0.452689
0.353613 0.554467 0.429053
0.39408 0.548684 0.395712
0.527459 0.53724 0.399298
0.647684 0.541588 0.444602
0.746273 0.561852 0.50248
0.855772 0.601862 0.563836
0.970474 0.658396 0.634882
0.456855 0.701564 0.520195
0.455009 0.693919 0.479683
0.445274 0.679042 0.44799
0.460777 0.660975 0.432425
0.522362 0.645853 0.423911
0.631373 0.639536 0.426734
0.76289 0.646357 0.504875
0.901396 0.676051 0.589166
0.98175 0.711635 0.654734
0.571511 0.858427 0.587335
0.57882 0.842786 0.562325
0.575952 0.820188 0.546914
0.567269 0.795102 0.529381
0.5776 0.771282 0.513024
0.630213 0.753002 0.501793
0.73669 0.744793 0.500191
0.905394 0.754986 0.598749
0.990158 0.782879 0.669291
0.686 0.992676 0.671611
0.700999 0.991379 0.668635
0.701701 0.989258 0.663996
0.697124 0.986679 0.658366
0.683879 0.954391 0.636484
0.686534 0.910994 0.609506
0.737926 0.883772 0.593805
0.861036 0.87126 0.589166
0.992203 0.880171 0.671641
0.796429 1 0.756054
0.797253 1 0.742901
0.783169 1 0.724743
0.762081 1 0.703487
0.744869 0.999115 0.685237
0.746777 0.996155 0.678721
0.774914 0.994385 0.67451
0.852842 0.994797 0.674357
0.997833 0.997833 0.678874
0.100481 0.100481 0.651759
0.163119 0.106813 0.636225
0.328069 0.141894 0.624857
0.486961 0.272801 0.649409
0.669673 0.419944 0.707942
0.883696 0.556435 0.742962
0.983032 0.657496 0.778973
1 0.747219 0.829343
1 0.844892 0.909285
0.113039 0.156542 0.595392
0.158572 0.173678 0.596216
0.310475 0.208667 0.599237
0.461158 0.290562 0.619181
0.631083 0.397803 0.665446
0.814145 0.517098 0.694194
0.962081 0.619806 0.720531
0.996765 0.68159 0.753506
1 0.756313 0.80708
0.189822 0.320287 0.566018
0.215686 0.317739 0.568917
0.312215 0.324163 0.601129
0.443854 0.340993 0.607324
0.596307 0.388968 0.628672
0.747784 0.477821 0.639338
0.878401 0.559915 0.651347
0.963912 0.62324 0.681437
0.99588 0.680049 0.725567
0.255497 0.441489 0.548653
0.294011 0.440391 0.561898
0.326696 0.435218 0.571664
0.416251 0.429908 0.610681
0.568246 0.432258 0.601068
0.69424 0.467002 0.586221
0.772686 0.512581 0.585016
0.886717 0.575784 0.620737
0.975296 0.643839 0.675105
0.352041 0.565301 0.567605
0.357961 0.562081 0.566476
0.357351 0.552499 0.559182
0.3906 0.544579 0.555123
0.521584 0.532769 0.545602
0.624399 0.541054 0.544381
0.727657 0.559457 0.559136
0.850462 0.590387 0.589105
0.976532 0.646082 0.646159
0.451408 0.695018 0.586511
0.451331 0.688563 0.566079
0.44239 0.674311 0.547082
0.438315 0.660044 0.52372
0.500053 0.646265 0.504097
0.624491 0.634562 0.506264
0.746227 0.638422 0.545022
0.86627 0.655833 0.594522
0.980636 0.69456 0.652949
0.564675 0.848798 0.623087
0.557626 0.834882 0.590036
0.543679 0.813504 0.563134
0.527138 0.789303 0.536248
0.541238 0.767056 0.514138
0.60914 0.74876 0.503822
0.728496 0.738872 0.512093
0.887572 0.744228 0.593576
0.985977 0.768795 0.661738
0.670222 0.991974 0.677363
0.683467 0.990875 0.66775
0.686458 0.988739 0.663066
0.683131 0.986114 0.657374
0.663569 0.9393 0.627497
0.669596 0.898787 0.602045
0.724697 0.872526 0.586587
0.848249 0.860517 0.583795
0.990402 0.867399 0.66833
0.779599 1 0.750332
0.782834 1 0.737316
0.770153 1 0.719326
0.749935 1 0.698177
0.735882 0.998306 0.683482
0.738231 0.995315 0.676936
0.766262 0.993561 0.672755
0.84155 0.993973 0.672557
0.997757 0.997757 0.678584
0.132662 0.132662 0.774151
0.132738 0.132677 0.774166
0.322225 0.169299 0.782055
0.472267 0.249943 0.802853
0.645914 0.43444 0.869917
0.874601 0.574105 0.937835
0.995514 0.679316 0.995514
1 0.819409 1
1 1 1
0.132998 0.133639 0.774227
0.138003 0.146807 0.775219
0.299947 0.195499 0.787732
0.451164 0.289113 0.792172
0.608225 0.414603 0.816388
0.809155 0.53817 0.875044
0.979614 0.651194 0.927825
1 0.764202 0.987625
1 0.902342 1
0.204669 0.313375 0.737804
0.209018 0.313909 0.725002
0.308324 0.320928 0.739849
0.43125 0.34342 0.736324
0.571252 0.406271 0.751873
0.751431 0.500374 0.79939
0.960739 0.617075 0.826078
1 0.700114 0.86067
1 0.793347 0.906966
0.26479 0.439155 0.681117
0.299596 0.438865 0.687312
0.339498 0.432792 0.692729
0.424094 0.435325 0.724254
0.549401 0.447395 0.728405
0.708659 0.488121 0.749798
0.889052 0.574762 0.750744
0.975998 0.644984 0.759777
1 0.699489 0.785657
0.333623 0.554116 0.663157
0.392126 0.557977 0.685054
0.402136 0.548074 0.681971
0.427695 0.539223 0.687556
0.51902 0.532158 0.710018
0.665339 0.535393 0.701823
0.804623 0.565133 0.688457
0.910689 0.608423 0.68481
0.983337 0.658106 0.713008
0.446372 0.688853 0.691188
0.451606 0.684855 0.689418
0.445716 0.671717 0.678492
0.442008 0.656535 0.665919
0.496803 0.64213 0.654582
0.618647 0.630076 0.644663
0.72108 0.637781 0.642405
0.837079 0.654688 0.655467
0.997818 0.684123 0.683421
0.558785 0.840558 0.701854
0.552926 0.827695 0.682475
0.539879 0.807401 0.663401
0.523568 0.783368 0.642771
0.520058 0.764996 0.615824
0.596902 0.744518 0.603784
0.720394 0.732189 0.605188
0.8598 0.735409 0.639948
1 0.752514 0.687175
0.668269 0.99115 0.728786
0.667155 0.9906 0.707591
0.663096 0.988678 0.693523
0.654551 0.98056 0.680003
0.623545 0.928603 0.63975
0.628717 0.892699 0.605447
0.699199 0.866835 0.590784
0.836515 0.851225 0.605295
0.993057 0.854704 0.673854
0.749264 1 0.751751
0.754894 1 0.736751
0.74464 1 0.718791
0.725734 1 0.697551
0.713771 0.998108 0.683131
0.718639 0.99498 0.676326
0.749844 0.993103 0.671885
0.826917 0.993347 0.671305
0.998291 0.998291 0.680598
0.132662 0.132662 0.774151
0.132662 0.132662 0.774151
0.259525 0.155077 0.778836
0.442374 0.201099 0.78999
0.625177 0.400671 0.855741
0.853651 0.568338 0.934722
0.998627 0.684794 0.998627
1 0.843 1
1 1 1
0.132662 0.132662 0.774151
0.132662 0.132662 0.774151
0.234348 0.149905 0.777707
0.414939 0.206439 0.791058
0.591959 0.395209 0.853269
0.787869 0.541817 0.920851
0.983597 0.658259 0.983597
1 0.792264 1
1 1 1
0.187442 0.263996 0.786465
0.191241 0.272053 0.787427
0.265675 0.283848 0.806378
0.414435 0.322148 0.824903
0.558816 0.403372 0.856306
0.726452 0.514961 0.90724
0.966674 0.627619 0.966674
1 0.73637 1
1 0.896361 1
0.275669 0.436255 0.812482
0.283101 0.434684 0.814572
0.336431 0.430686 0.831266
0.425299 0.436408 0.864805
0.539071 0.457191 0.879133
0.677424 0.512779 0.905852
0.891951 0.599268 0.951095
0.997909 0.683528 0.997909
1 0.798321 1
0.343664 0.558068 0.837568
0.410834 0.560861 0.861845
0.426276 0.550561 0.856428
0.451728 0.539681 0.843397
0.529168 0.54023 0.868559
0.650782 0.549813 0.868055
0.820951 0.583886 0.884215
0.981567 0.65478 0.886412
1 0.720333 0.89163
0.467216 0.681392 0.828153
0.5019 0.679057 0.837201
0.501869 0.665995 0.824063
0.498283 0.649607 0.807157
0.523369 0.638575 0.809918
0.616251 0.629602 0.820615
0.764187 0.631815 0.810697
0.952987 0.65861 0.795758
1 0.693538 0.78819
0.555291 0.834058 0.836942
0.553521 0.823011 0.828733
0.543084 0.803555 0.811872
0.528664 0.779919 0.79057
0.5243 0.760006 0.773816
0.59379 0.740154 0.756252
0.714183 0.727382 0.745464
0.829145 0.73463 0.742382
1 0.751568 0.75581
0.667079 0.990814 0.833082
0.666636 0.990585 0.815961
0.663005 0.988891 0.800015
0.647303 0.967422 0.778256
0.618219 0.91873 0.746624
0.611231 0.886687 0.713878
0.690669 0.858671 0.701564
0.826276 0.842512 0.701976
1 0.845365 0.735607
0.741863 1 0.828977
0.734585 1 0.801358
0.719081 1 0.775998
0.698604 1 0.751003
0.683711 0.998367 0.729915
0.681254 0.997208 0.7093
0.706905 0.999481 0.686061
0.799481 0.999023 0.684932
1 1 0.696391
0.132662 0.132662 0.774151
0.132662 0.132662 0.774151
0.132662 0.132662 0.774151
0.404898 0.190616 0.787274
0.567666 0.240009 0.801022
0.829465 0.545205 0.92285
0.996994 0.681926 0.996994
1 0.853529 1
1 1 1
0.132662 0.132662 0.774151
0.132662 0.132662 0.774151
0.132662 0.132662 0.774151
0.374685 0.182513 0.785245
0.550622 0.291188 0.815778
0.769497 0.521004 0.910475
0.982483 0.656245 0.982483
1 0.802075 1
1 1 1
0.132662 0.132662 0.774151
0.132662 0.132662 0.774151
0.132662 0.132662 0.774151
0.345541 0.180331 0.784573
0.53164 0.347463 0.834638
0.711452 0.496864 0.898497
0.965881 0.626154 0.965881
1 0.746487 1
1 0.939574 1
0.258595 0.404623 0.806851
0.258259 0.403967 0.806745
0.25745 0.395239 0.806302
0.392874 0.407874 0.851316
0.522515 0.43563 0.869566
0.665431 0.500771 0.900023
0.87187 0.597757 0.950164
1 0.693492 1
1 0.839948 1
0.338384 0.548775 0.835462
0.377432 0.548638 0.848936
0.405844 0.540566 0.859297
0.441306 0.532067 0.87335
0.523232 0.53492 0.910353
0.638132 0.550607 0.924437
0.793652 0.596704 0.949218
0.988052 0.666163 0.988052
1 0.769528 1
0.45008 0.675151 0.881544
0.508858 0.675471 0.906569
0.514748 0.663035 0.908888
0.515297 0.647227 0.908721
0.543786 0.636042 0.922011
0.623407 0.635782 0.963348
0.753796 0.642863 0.974441
0.991089 0.67155 0.991089
1 0.731182 1
0.591104 0.824506 0.949874
0.605631 0.814206 0.956603
0.602792 0.795132 0.954696
0.593378 0.771893 0.949432
0.592905 0.751003 0.948714
0.622141 0.73814 0.963653
0.711284 0.726497 0.98584
0.883223 0.727977 0.966217
1 0.754253 0.940246
0.667155 0.991333 0.991333
0.668574 0.991943 0.991943
0.666514 0.991058 0.991058
0.655543 0.959884 0.981796
0.627192 0.912596 0.934432
0.616892 0.879896 0.904158
0.687297 0.852857 0.878462
0.818738 0.836469 0.863539
0.989563 0.844907 0.855985
0.735012 1 1
0.729183 1 1
0.714549 1 0.961028
0.69427 1 0.916854
0.682673 0.997955 0.880034
0.680903 0.997131 0.849729
0.700374 1 0.821561
0.789242 1 0.806729
0.981918 1 0.806745
0.132662 0.132662 0.774151
0.132662 0.132662 0.774151
0.132662 0.132662 0.774151
0.132662 0.132662 0.774151
0.536751 0.229343 0.797879
0.77055 0.442954 0.874754
0.985534 0.661692 0.985534
1 0.848295 1
1 1 1
0.132662 0.132662 0.774151
0.132662 0.132662 0.774151
0.132662 0.132662 0.774151
0.132662 0.132662 0.774151
0.505318 0.219669 0.795087
0.723827 0.434211 0.870542
0.972381 0.638041 0.972381
1 0.798856 1
1 1 1
0.132662 0.132662 0.774151
0.132662 0.132662 0.774151
0.132662 0.132662 0.774151
0.132662 0.132662 0.774151
0.469352 0.208927 0.792096
0.676356 0.427771 0.867353
0.957183 0.610025 0.957183
1 0.743999 1
1 0.958892 1
0.167498 0.220172 0.781643
0.176898 0.241199 0.783871
0.173953 0.234684 0.783154
0.221317 0.27071 0.7944
0.475349 0.352407 0.836027
0.642496 0.461707 0.881834
0.850752 0.582574 0.942061
1 0.692271 1
1 0.853361 1
0.325643 0.526314 0.830503
0.323171 0.521935 0.829557
0.316625 0.510277 0.827085
0.388037 0.506249 0.851575
0.499168 0.513787 0.898589
0.62327 0.533944 0.915953
0.778912 0.586908 0.943954
0.988312 0.666621 0.988312
1 0.782864 1
0.402594 0.660105 0.862669
0.484443 0.664698 0.895445
0.496101 0.653132 0.900191
0.498878 0.637598 0.900999
0.531929 0.626886 0.916091
0.613809 0.627359 0.958038
0.740459 0.637751 0.971542
0.965759 0.673899 0.992386
1 0.7467 1
0.57966 0.815747 0.944137
0.601419 0.80705 0.95433
0.600259 0.788388 0.953277
0.591318 0.765545 0.948257
0.591745 0.744717 0.948013
0.622766 0.731533 0.963897
0.713359 0.729747 1
0.878859 0.733394 1
1 0.760891 1
0.671641 0.993271 0.993271
0.677028 0.99559 0.99559
0.675975 0.995148 0.995148
0.666926 0.949523 0.990112
0.656947 0.902724 0.984344
0.658106 0.869856 0.984421
0.691005 0.851774 1
0.815 0.835203 1
1 0.835767 1
0.729061 1 1
0.728023 1 1
0.716258 1 1
0.69807 1 1
0.684688 0.998917 0.998917
0.682628 0.998032 0.998032
0.700938 1 1
0.785306 1 1
0.967346 1 1
