modules/detection_bypass/_luts/interview-cool_17.C0003.cube
TITLE "Generated by Resolve"
LUT_3D_SIZE 5
0.00132753 0.00137331 0.00181582
0.251301 0.0696727 0.0663005
0.477012 0.247089 0.246036
0.70486 0.435218 0.439384
0.960143 0.616449 0.623087
0.182666 0.33225 0.177172
0.320821 0.325093 0.188281
0.528313 0.380438 0.301396
0.747692 0.491768 0.472496
0.973922 0.642069 0.641413
0.39266 0.580987 0.361685
0.444953 0.55816 0.346273
0.544182 0.547509 0.350866
0.807004 0.605859 0.513924
0.998001 0.71342 0.683696
0.624811 0.880461 0.585214
0.629938 0.837507 0.556161
0.631464 0.784436 0.517693
0.760586 0.763851 0.512108
0.994034 0.814878 0.676158
0.838483 1 0.767987
0.82208 1 0.734127
0.787182 0.999817 0.686778
0.82034 0.994858 0.675044
0.99852 0.99852 0.681498
0.0327001 0.0327001 0.346929
0.34226 0.127825 0.366857
0.584863 0.335668 0.41883
0.775479 0.487053 0.516304
0.977035 0.646967 0.662348
0.176623 0.325994 0.328878
0.307378 0.320623 0.332876
0.530068 0.348898 0.348257
0.720607 0.462165 0.463752
0.965072 0.625437 0.630762
0.362417 0.577157 0.425742
0.37792 0.556634 0.35172
0.532769 0.539574 0.349386
0.766217 0.579599 0.497917
0.978302 0.676081 0.64892
0.580056 0.86804 0.578241
0.591653 0.827771 0.551644
0.591043 0.778134 0.517418
0.745174 0.751675 0.503944
0.994659 0.793835 0.677485
0.80885 1 0.762524
0.793164 1 0.730739
0.752209 0.999908 0.686976
0.783688 0.995102 0.676051
0.998108 0.998108 0.679881
0.100481 0.100481 0.651759
0.328069 0.141894 0.624857
0.669673 0.419944 0.707942
0.983032 0.657496 0.778973
1 0.844892 0.909285
0.189822 0.320287 0.566018
0.312215 0.324163 0.601129
0.596307 0.388968 0.628672
0.878401 0.559915 0.651347
0.99588 0.680049 0.725567
0.352041 0.565301 0.567605
0.357351 0.552499 0.559182
0.521584 0.532769 0.545602
0.727657 0.559457 0.559136
0.976532 0.646082 0.646159
0.564675 0.848798 0.623087
0.543679 0.813504 0.563134
0.541238 0.767056 0.514138
0.728496 0.738872 0.512093
0.985977 0.768795 0.661738
0.779599 1 0.750332
0.770153 1 0.719326
0.735882 0.998306 0.683482
0.766262 0.993561 0.672755
0.997757 0.997757 0.678584
0.132662 0.132662 0.774151
0.259525 0.155077 0.778836
0.625177 0.400671 0.855741
0.998627 0.684794 0.998627
1 1 1
0.187442 0.263996 0.786465
0.265675 0.283848 0.806378
0.558816 0.403372 0.856306
0.966674 0.627619 0.966674
1 0.896361 1
0.343664 0.558068 0.837568
0.426276 0.550561 0.856428
0.529168 0.54023 0.868559
0.820951 0.583886 0.884215
1 0.720333 0.89163
0.555291 0.834058 0.836942
0.543084 0.803555 0.811872
0.5243 0.760006 0.773816
0.714183 0.727382 0.745464
1 0.751568 0.75581
0.741863 1 0.828977
0.719081 1 0.775998
0.683711 0.998367 0.729915
0.706905 0.999481 0.686061
1 1 0.696391
0.132662 0.132662 0.774151
0.132662 0.132662 0.774151
0.536751 0.229343 0.797879
0.985534 0.661692 0.985534
1 1 1
0.132662 0.132662 0.774151
0.132662 0.132662 0.774151
0.469352 0.208927 0.792096
0.957183 0.610025 0.957183
1 0.958892 1
0.325643 0.526314 0.830503
0.316625 0.510277 0.827085
0.499168 0.513787 0.898589
0.778912 0.586908 0.943954
1 0.782864 1
0.57966 0.815747 0.944137
0.600259 0.788388 0.953277
0.591745 0.744717 0.948013
0.713359 0.729747 1
1 0.760891 1
0.729061 1 1
0.716258 1 1
0.684688 0.998917 0.998917
0.700938 1 1
0.967346 1 1
