modules/detection_bypass/_luts/LOOK1.cube
LUT_3D_SIZE 16
0.000000 0.000000 0.000000
0.000000 0.000000 0.000000
0.000000 0.000000 0.000000
0.032084 0.000000 0.000000
0.093292 0.000000 0.000000
0.243660 0.000000 0.000000
0.405892 0.000000 0.000000
0.543008 0.000000 0.000000
0.632614 0.000000 0.000000
0.684863 0.000000 0.000000
0.728123 0.000000 0.000000
0.785658 0.007876 0.007876
0.836183 0.022082 0.022082
0.881626 0.035028 0.035028
0.921137 0.050140 0.046435
0.951002 0.083933 0.067368
0.000000 0.000000 0.000000
0.000000 0.000000 0.000000
0.000000 0.000000 0.000000
0.032679 0.011636 0.000000
0.093658 0.025411 0.000000
0.244560 0.040177 0.000000
0.406873 0.044914 0.000000
0.544397 0.045336 0.000000
0.634957 0.044686 0.000000
0.687661 0.043992 0.000000
0.730525 0.043248 0.000000
0.787582 0.042415 0.008588
0.838371 0.044414 0.022760
0.883504 0.049660 0.035553
0.923032 0.068891 0.048547
0.952856 0.096505 0.071926
0.000000 0.000000 0.000000
0.000000 0.000000 0.000000
0.000000 0.000000 0.000000
0.035173 0.024018 0.000000
0.095242 0.049605 0.000000
0.250291 0.077817 0.000000
0.411201 0.086370 0.000000
0.549135 0.087074 0.000000
0.643391 0.085631 0.000000
0.698579 0.084182 0.000000
0.740239 0.082818 0.000000
0.795823 0.080957 0.011934
0.846480 0.083286 0.025471
0.891536 0.099683 0.037959
0.930723 0.120475 0.060148
0.959694 0.137712 0.090087
0.000000 0.037823 0.000000
0.013499 0.037959 0.000000
0.026398 0.038650 0.000000
0.040126 0.040126 0.000000
0.098436 0.075081 0.000000
0.259154 0.115550 0.000000
0.421175 0.126937 0.000000
0.558534 0.127456 0.000000
0.657363 0.124996 0.000000
0.717022 0.122626 0.000000
0.759816 0.121170 0.004516
0.810565 0.130280 0.018174
0.861000 0.150588 0.032086
0.905359 0.169559 0.057934
0.943895 0.187087 0.097254
0.968144 0.200012 0.125782
0.000000 0.132705 0.030001
0.013244 0.133993 0.000000
0.059216 0.138947 0.000000
0.093772 0.148251 0.000000
0.129058 0.163788 0.000000
0.259468 0.184812 0.000000
0.433025 0.190350 0.000000
0.573103 0.183008 0.000000
0.676426 0.181031 0.000000
0.741742 0.190015 0.002903
0.787032 0.209059 0.015340
0.829887 0.227594 0.032335
0.878806 0.239912 0.068575
0.921678 0.254274 0.108185
0.958753 0.269382 0.143818
0.968156 0.273812 0.166863
0.000000 0.261909 0.106821
0.000000 0.263741 0.103473
0.011304 0.270142 0.082778
0.088097 0.280898 0.031941
0.153332 0.297954 0.000000
0.233896 0.309363 0.000000
0.432249 0.309662 0.000000
0.583121 0.302037 0.000000
0.694737 0.294469 0.007654
0.768182 0.297504 0.018141
0.816318 0.310387 0.032535
0.856081 0.323139 0.086743
0.896578 0.336354 0.129631
0.937401 0.348095 0.162992
0.968156 0.357985 0.192600
0.968156 0.353644 0.210478
0.000000 0.398749 0.190967
0.001252 0.400533 0.189378
0.029914 0.407478 0.181999
0.072327 0.418596 0.162803
0.124917 0.434974 0.110735
0.218946 0.455261 0.034524
0.390032 0.456205 0.010798
0.578680 0.438769 0.018375
0.703092 0.420721 0.026533
0.784075 0.413673 0.035126
0.837670 0.416145 0.068130
0.880065 0.423894 0.130928
0.917148 0.435765 0.182804
0.954611 0.446502 0.220182
0.968156 0.446194 0.247491
0.968156 0.436175 0.262589
0.019247 0.529707 0.279057
0.025640 0.531341 0.278085
0.049269 0.537738 0.274338
0.086505 0.548064 0.261804
0.131268 0.561961 0.232277
0.212378 0.579399 0.161942
0.341175 0.594549 0.041262
0.535779 0.585934 0.039419
0.698389 0.553579 0.046165
0.792425 0.533537 0.054023
0.852285 0.528517 0.106138
0.897846 0.531469 0.169055
0.936700 0.538457 0.220033
0.968156 0.544700 0.262572
0.968156 0.533097 0.290893
0.968156 0.519108 0.305428
0.044322 0.641281 0.360726
0.049367 0.642582 0.360098
0.069064 0.647690 0.356451
0.102128 0.656370 0.346534
0.162572 0.668890 0.320374
0.249030 0.684624 0.275614
0.331557 0.700684 0.187977
0.468554 0.707703 0.074074
0.660541 0.696880 0.066412
0.785397 0.664256 0.079341
0.857233 0.645966 0.146946
0.907993 0.640333 0.207445
0.948844 0.640177 0.254924
0.968156 0.632392 0.293247
0.968156 0.616908 0.322273
0.968144 0.600473 0.335778
0.108271 0.733482 0.433969
0.114934 0.734600 0.433603
0.142033 0.739185 0.430471
0.189705 0.747473 0.422799
0.248907 0.759132 0.405024
0.316672 0.773304 0.375592
0.379727 0.787901 0.326995
0.457368 0.798659 0.230290
0.601866 0.797259 0.139933
0.759748 0.788304 0.145663
0.849573 0.762671 0.196587
0.906271 0.745815 0.245728
0.950152 0.736828 0.286260
0.968156 0.717677 0.319414
0.968144 0.694538 0.343652
0.968156 0.674538 0.358738
0.238987 0.813543 0.504585
0.243833 0.814303 0.504389
0.263726 0.817831 0.502631
0.299138 0.824605 0.497020
0.343218 0.834252 0.483779
0.393816 0.846094 0.462919
0.448711 0.858095 0.434981
0.493380 0.868197 0.361333
0.586614 0.870603 0.274105
0.718708 0.864144 0.237812
0.833196 0.858337 0.258792
0.899595 0.839414 0.290387
0.945711 0.822912 0.320140
0.968144 0.798276 0.346520
0.968144 0.764508 0.367752
0.968156 0.739824 0.376685
0.341549 0.880452 0.567707
0.345290 0.880982 0.567348
0.360389 0.883688 0.565588
0.386676 0.888611 0.559949
0.420136 0.895995 0.549371
0.459969 0.905197 0.531015
0.507430 0.914462 0.511172
0.537823 0.922716 0.453090
0.598906 0.926006 0.374796
0.700569 0.921678 0.322336
0.804191 0.915354 0.318301
0.888227 0.912125 0.337807
0.940657 0.896887 0.357417
0.968144 0.870117 0.375215
0.968156 0.827462 0.390578
0.968144 0.797374 0.398487
0.415071 0.934373 0.617185
0.417922 0.934803 0.616606
0.429920 0.936461 0.614423
0.450405 0.940306 0.608997
0.476812 0.945658 0.598405
0.508868 0.952859 0.582049
0.548355 0.960175 0.563124
0.576060 0.966800 0.517196
0.617941 0.968156 0.448556
0.695548 0.967073 0.391162
0.785351 0.961302 0.371537
0.864754 0.956982 0.377777
0.931385 0.954812 0.393813
0.968156 0.933020 0.406619
0.968144 0.884537 0.417704
0.968156 0.847791 0.421437
0.468258 0.968156 0.651484
0.471043 0.968156 0.651196
0.480263 0.968144 0.647987
0.496931 0.968156 0.641813
0.518164 0.968156 0.630703
0.545034 0.968156 0.615620
0.578289 0.968156 0.600130
0.601357 0.968156 0.565063
0.626109 0.968156 0.504994
0.678381 0.968156 0.448372
0.750275 0.968144 0.419187
0.823469 0.968156 0.414799
0.888431 0.968156 0.422871
0.946779 0.968156 0.436430
0.968156 0.937476 0.444606
0.968144 0.895066 0.447607
0.505289 0.968156 0.664981
0.507405 0.968144 0.664523
0.516201 0.968156 0.662996
0.529676 0.968156 0.657960
0.548276 0.968156 0.649990
0.571237 0.968156 0.639791
0.600009 0.968156 0.628223
0.623658 0.968156 0.604076
0.638477 0.968156 0.550838
0.673739 0.968156 0.497255
0.728496 0.968156 0.462764
0.787916 0.968156 0.449924
0.843982 0.968144 0.450569
0.897772 0.968156 0.458613
0.949115 0.968156 0.470710
0.968156 0.939568 0.470478
0.530747 0.968156 0.676286
0.532227 0.968156 0.675929
0.538632 0.968156 0.674184
0.550833 0.968156 0.671296
0.566347 0.968156 0.665323
0.586247 0.968156 0.657464
0.611609 0.968156 0.647577
0.639678 0.968156 0.635061
0.647211 0.968144 0.589023
0.669890 0.968156 0.539457
0.710418 0.968144 0.501370
0.760365 0.968156 0.480189
0.811256 0.968156 0.473453
0.860594 0.968156 0.475678
0.908554 0.968156 0.483271
0.956902 0.968144 0.495271
0.000000 0.000000 0.000000
0.000000 0.000000 0.000000
0.000000 0.000000 0.000000
0.032142 0.000000 0.011437
0.093315 0.000000 0.025322
0.243445 0.000000 0.040109
0.405872 0.000000 0.044897
0.543388 0.000000 0.045360
0.633603 0.000000 0.044673
0.685966 0.000000 0.044020
0.728742 0.000000 0.043306
0.785909 0.007966 0.042431
0.836615 0.022150 0.044264
0.881768 0.035086 0.049409
0.921392 0.048106 0.057397
0.951336 0.081091 0.074616
0.000000 0.000000 0.000000
0.000000 0.000000 0.000000
0.000000 0.000000 0.000000
0.032740 0.000000 0.000000
0.093701 0.000000 0.000000
0.244123 0.000000 0.000000
0.406846 0.000000 0.000000
0.544637 0.000000 0.000000
0.635797 0.000000 0.000000
0.688624 0.000000 0.000000
0.730982 0.001474 0.001474
0.787725 0.015348 0.015348
0.838606 0.028530 0.028530
0.883753 0.040779 0.040779
0.923455 0.064734 0.055588
0.953226 0.095923 0.080758
0.000000 0.000000 0.000000
0.000000 0.000000 0.000000
0.000000 0.000000 0.000000
0.035253 0.022821 0.000000
0.095293 0.046369 0.000000
0.249258 0.071873 0.000000
0.410883 0.079654 0.000000
0.549378 0.080243 0.000000
0.644257 0.078877 0.000000
0.699686 0.077553 0.000000
0.740810 0.076258 0.004758
0.796086 0.075221 0.018400
0.846693 0.079074 0.031149
0.891716 0.097656 0.043041
0.930987 0.119074 0.068575
0.960067 0.138514 0.098602
0.000000 0.037831 0.013456
0.000000 0.038028 0.000000
0.025073 0.038733 0.000000
0.040166 0.040166 0.000000
0.098422 0.073977 0.000000
0.259041 0.112650 0.000000
0.420797 0.123437 0.000000
0.558560 0.123915 0.000000
0.658054 0.121459 0.000000
0.718124 0.119062 0.000000
0.760856 0.117779 0.011679
0.810785 0.128195 0.024267
0.861165 0.149370 0.038006
0.905690 0.168834 0.065463
0.944103 0.187480 0.105682
0.968144 0.201529 0.133744
0.000000 0.133404 0.044041
0.000000 0.134627 0.036541
0.051205 0.139185 0.000000
0.091792 0.147866 0.000000
0.128011 0.162978 0.000000
0.260226 0.184146 0.000000
0.433122 0.189036 0.000000
0.573177 0.181368 0.000000
0.676818 0.179305 0.000000
0.742715 0.188448 0.010028
0.787857 0.207868 0.021603
0.830213 0.226744 0.040335
0.879018 0.239495 0.077097
0.921878 0.254689 0.116373
0.958741 0.270481 0.151317
0.968144 0.275571 0.174004
0.000000 0.262455 0.116665
0.000000 0.264029 0.113779
0.011197 0.270350 0.097721
0.075638 0.280979 0.046089
0.149508 0.297751 0.011533
0.234228 0.309522 0.000000
0.432863 0.309483 0.000000
0.583350 0.301658 0.005055
0.695358 0.293882 0.014483
0.769122 0.296900 0.024219
0.817196 0.309736 0.040027
0.856716 0.322849 0.093706
0.896780 0.336789 0.137007
0.937408 0.348955 0.169872
0.968156 0.359280 0.199038
0.968144 0.355418 0.216955
0.000000 0.399083 0.199174
0.001152 0.400748 0.197534
0.029792 0.407560 0.190895
0.072275 0.418758 0.173431
0.120438 0.434878 0.122607
0.217969 0.455280 0.045691
0.390853 0.456515 0.017392
0.579233 0.438718 0.024442
0.703630 0.420552 0.032120
0.784887 0.413345 0.040331
0.838507 0.415785 0.075519
0.881032 0.423732 0.137517
0.918010 0.436154 0.188586
0.954679 0.447521 0.226452
0.968144 0.447557 0.253567
0.968156 0.437903 0.268395
0.019283 0.530081 0.285900
0.025447 0.531536 0.284751
0.049120 0.537924 0.281253
0.086410 0.548190 0.269126
0.131489 0.561922 0.240261
0.214163 0.579362 0.171577
0.341822 0.594629 0.047580
0.536392 0.586198 0.044451
0.699094 0.553588 0.050890
0.793234 0.533312 0.058743
0.853110 0.528292 0.112249
0.898757 0.531593 0.174480
0.937497 0.538646 0.225174
0.968156 0.544739 0.267253
0.968156 0.534049 0.296430
0.968144 0.520482 0.310814
0.044374 0.641522 0.366088
0.049264 0.642761 0.365402
0.068944 0.647796 0.361873
0.102107 0.656535 0.352217
0.164361 0.668920 0.326354
0.250860 0.684564 0.282102
0.332853 0.700841 0.196235
0.468822 0.707846 0.079776
0.661123 0.697120 0.070422
0.786010 0.664217 0.083831
0.858105 0.645895 0.151978
0.908642 0.640336 0.211859
0.949459 0.640314 0.258888
0.968156 0.632408 0.297047
0.968156 0.617519 0.326180
0.968156 0.601464 0.340517
0.108810 0.733852 0.438387
0.115225 0.734937 0.437903
0.142301 0.739465 0.434788
0.190198 0.747664 0.427184
0.249736 0.759199 0.409429
0.317731 0.773320 0.380204
0.381609 0.787868 0.332981
0.457984 0.798779 0.236631
0.601897 0.797389 0.145177
0.760263 0.788514 0.149781
0.850120 0.762635 0.200153
0.907024 0.745816 0.249263
0.950918 0.736783 0.289497
0.968156 0.717385 0.322509
0.968156 0.694887 0.347435
0.968144 0.675361 0.363260
0.239195 0.813656 0.508297
0.243942 0.814563 0.507954
0.263743 0.818049 0.506233
0.299380 0.824750 0.500568
0.343631 0.834381 0.487260
0.394187 0.846240 0.466340
0.449979 0.858226 0.439022
0.494298 0.868350 0.366096
0.586633 0.870760 0.278176
0.718689 0.864222 0.240968
0.833546 0.858518 0.261532
0.899891 0.839379 0.292958
0.946062 0.822928 0.322732
0.968156 0.797836 0.349003
0.968144 0.764740 0.370291
0.968156 0.740184 0.379919
0.341670 0.880566 0.570736
0.345323 0.881173 0.570268
0.360317 0.883734 0.568556
0.386863 0.888640 0.562952
0.420326 0.896065 0.552285
0.460222 0.905239 0.533760
0.507537 0.914538 0.513507
0.538517 0.922750 0.456475
0.598933 0.926211 0.377859
0.700447 0.921806 0.325099
0.804259 0.915534 0.320551
0.888255 0.912100 0.339856
0.940947 0.896855 0.359380
0.968144 0.869704 0.377527
0.968144 0.827398 0.393811
0.968156 0.797713 0.402254
0.415079 0.934480 0.619831
0.418052 0.934740 0.619303
0.429930 0.936566 0.617110
0.450486 0.940217 0.611577
0.477067 0.945717 0.600995
0.509023 0.952903 0.584559
0.548345 0.960017 0.565263
0.576615 0.966857 0.520007
0.618097 0.968156 0.451338
0.695388 0.967323 0.393505
0.785289 0.961559 0.373364
0.864912 0.957035 0.379563
0.931604 0.954729 0.395446
0.968156 0.932776 0.408231
0.968156 0.884266 0.419520
0.968156 0.847836 0.423704
0.468518 0.968156 0.653710
0.471373 0.968156 0.653440
0.480468 0.968144 0.650223
0.497137 0.968156 0.643969
0.518303 0.968144 0.632820
0.545234 0.968156 0.617726
0.578347 0.968156 0.602005
0.602152 0.968156 0.567807
0.626516 0.968156 0.507629
0.678275 0.968156 0.450571
0.750083 0.968144 0.421000
0.823289 0.968156 0.416391
0.888460 0.968156 0.424324
0.947172 0.968144 0.437905
0.968156 0.936962 0.446051
0.968156 0.894923 0.449158
0.505437 0.968156 0.666794
0.507683 0.968144 0.666473
0.516225 0.968156 0.664879
0.529778 0.968156 0.659827
0.548341 0.968156 0.651708
0.571326 0.968156 0.641452
0.599998 0.968156 0.629679
0.624518 0.968156 0.606357
0.638975 0.968156 0.553178
0.673949 0.968156 0.499519
0.728494 0.968156 0.464582
0.787879 0.968156 0.451473
0.844162 0.968144 0.452023
0.897939 0.968156 0.459865
0.949385 0.968156 0.471975
0.968156 0.939229 0.471832
0.530570 0.968144 0.677908
0.532303 0.968144 0.677633
0.538755 0.968144 0.675856
0.550892 0.968144 0.672917
0.566457 0.968156 0.666927
0.586542 0.968144 0.659045
0.611620 0.968156 0.648997
0.640613 0.968156 0.637180
0.647858 0.968156 0.591213
0.670221 0.968156 0.541549
0.710462 0.968156 0.503093
0.760400 0.968156 0.481657
0.811220 0.968156 0.474665
0.860637 0.968156 0.476957
0.908498 0.968156 0.484582
0.957009 0.968156 0.496450
0.000000 0.000000 0.000000
0.000000 0.000000 0.000000
0.000000 0.000000 0.000000
0.032413 0.000000 0.022131
0.093496 0.000000 0.048693
0.242906 0.000000 0.076961
0.406134 0.000000 0.086206
0.544448 0.000000 0.087072
0.637242 0.000000 0.085740
0.690966 0.000000 0.084380
0.731286 0.000000 0.083036
0.786936 0.008297 0.081096
0.837685 0.022447 0.080107
0.882720 0.035294 0.080917
0.922388 0.048661 0.092504
0.952120 0.080734 0.107479
0.000000 0.000000 0.000000
0.000000 0.000000 0.000000
0.000000 0.000000 0.000000
0.032980 0.000000 0.021354
0.093868 0.000000 0.045673
0.243513 0.000000 0.071256
0.406880 0.000000 0.079547
0.545358 0.000000 0.080261
0.639129 0.000000 0.078959
0.693586 0.000000 0.077669
0.733792 0.001698 0.076433
0.788838 0.015701 0.075124
0.839818 0.028838 0.075250
0.884769 0.041007 0.077386
0.924413 0.061516 0.091114
0.953991 0.094447 0.110641
0.000000 0.000000 0.000000
0.000000 0.000000 0.000000
0.000000 0.000000 0.000000
0.035427 0.000000 0.000000
0.095412 0.000000 0.000000
0.246984 0.000000 0.000000
0.410542 0.000000 0.000000
0.549901 0.001298 0.001298
0.646888 0.010549 0.010549
0.703263 0.020832 0.020832
0.744261 0.031351 0.031351
0.796682 0.041945 0.041945
0.847504 0.058832 0.052468
0.892738 0.086898 0.068327
0.932102 0.116648 0.101394
0.961506 0.145009 0.132726
0.000000 0.038093 0.026007
0.000000 0.038285 0.024788
0.000000 0.038972 0.000000
0.040409 0.040409 0.000000
0.098548 0.067777 0.000000
0.258249 0.097817 0.000000
0.419504 0.106203 0.000000
0.558897 0.106308 0.007988
0.660721 0.104356 0.017032
0.721884 0.103129 0.026683
0.764659 0.103219 0.036594
0.811552 0.119716 0.046649
0.861943 0.143746 0.064378
0.906395 0.166388 0.099844
0.945170 0.191097 0.138009
0.968156 0.209545 0.165397
0.000000 0.137419 0.072437
0.000000 0.138112 0.070831
0.000000 0.141119 0.057043
0.073003 0.146906 0.015504
0.123334 0.159661 0.000000
0.262791 0.180617 0.004585
0.433234 0.182621 0.011077
0.572905 0.174077 0.018465
0.678695 0.171714 0.026624
0.746339 0.181859 0.035343
0.791532 0.202903 0.044487
0.832100 0.223014 0.071929
0.879717 0.238782 0.111149
0.922414 0.257286 0.147860
0.959444 0.275823 0.180893
0.968156 0.283708 0.203129
0.000000 0.264313 0.147468
0.000000 0.265827 0.146380
0.010401 0.271191 0.138639
0.059157 0.281002 0.113794
0.132448 0.296717 0.060964
0.236520 0.309865 0.019837
0.435122 0.308453 0.025190
0.583913 0.299997 0.031602
0.697439 0.291611 0.038799
0.772320 0.294506 0.046587
0.820404 0.307113 0.069305
0.860010 0.322062 0.121426
0.897168 0.338980 0.165239
0.937678 0.353022 0.197192
0.968156 0.364905 0.225485
0.968144 0.363190 0.243145
0.000000 0.400426 0.228466
0.001315 0.402076 0.227545
0.028957 0.408362 0.222650
0.071754 0.419269 0.210214
0.120202 0.434493 0.173233
0.217867 0.455005 0.087421
0.394149 0.457332 0.041190
0.581359 0.438574 0.046802
0.705573 0.419805 0.053103
0.787995 0.412021 0.059983
0.842244 0.414074 0.105099
0.884450 0.423797 0.163141
0.921323 0.437501 0.211672
0.956149 0.451093 0.250419
0.968156 0.453206 0.277592
0.968156 0.445056 0.291510
0.019631 0.531235 0.311626
0.025751 0.532807 0.310834
0.048329 0.538488 0.307256
0.085860 0.548568 0.296832
0.132388 0.561517 0.270461
0.223043 0.578553 0.208712
0.344026 0.594546 0.083218
0.539303 0.586759 0.063573
0.701712 0.553146 0.069039
0.796152 0.532802 0.077089
0.856474 0.527803 0.136917
0.902070 0.531719 0.196781
0.941037 0.539636 0.245451
0.968144 0.545170 0.285932
0.968156 0.537654 0.317455
0.968144 0.526277 0.333148
0.044600 0.642461 0.388000
0.049509 0.643724 0.387328
0.068219 0.648611 0.383482
0.101726 0.657218 0.374662
0.171176 0.668935 0.349669
0.257719 0.684457 0.307364
0.338679 0.700918 0.228407
0.469728 0.708581 0.106238
0.663492 0.697862 0.086239
0.788925 0.663732 0.104802
0.861027 0.645414 0.171984
0.911624 0.640330 0.229572
0.952468 0.640703 0.275418
0.968144 0.631832 0.312628
0.968156 0.619277 0.341911
0.968156 0.605535 0.359477
0.110836 0.734826 0.456711
0.117229 0.735919 0.456445
0.143164 0.740352 0.453002
0.191583 0.748241 0.445720
0.253720 0.759513 0.428363
0.322072 0.773393 0.399440
0.389241 0.787863 0.356734
0.460735 0.799280 0.261519
0.602090 0.798292 0.166488
0.762180 0.789087 0.167127
0.852617 0.762147 0.215565
0.909633 0.745274 0.263397
0.953525 0.736635 0.302629
0.968144 0.716125 0.335107
0.968144 0.696222 0.361736
0.968144 0.677749 0.378995
0.240143 0.814546 0.523361
0.244820 0.815355 0.523111
0.263868 0.818673 0.520962
0.299841 0.825292 0.515343
0.345312 0.834723 0.501941
0.396292 0.846478 0.480896
0.456135 0.858319 0.456810
0.497890 0.868696 0.385168
0.586636 0.871584 0.294868
0.718866 0.864984 0.253647
0.835067 0.858870 0.272777
0.901798 0.838972 0.303758
0.948161 0.822454 0.333350
0.968156 0.795999 0.359228
0.968144 0.764907 0.380701
0.968144 0.741438 0.393034
0.342172 0.881057 0.583110
0.345707 0.881731 0.582573
0.359970 0.884254 0.580550
0.387225 0.889006 0.574712
0.421195 0.896227 0.563847
0.461066 0.905357 0.545244
0.508091 0.914637 0.523903
0.541821 0.923029 0.471593
0.599449 0.926638 0.392377
0.699589 0.922386 0.336194
0.804725 0.915937 0.329685
0.889511 0.912259 0.348217
0.942346 0.896361 0.367626
0.968144 0.867751 0.386676
0.968156 0.826624 0.403327
0.968156 0.798331 0.412988
0.415352 0.934717 0.630779
0.418196 0.934990 0.630269
0.429677 0.936936 0.627821
0.450377 0.940378 0.622168
0.477562 0.945852 0.611336
0.509401 0.952895 0.594577
0.548379 0.960235 0.574122
0.579228 0.967001 0.532213
0.618707 0.968144 0.463093
0.694553 0.967924 0.403637
0.784863 0.961993 0.381786
0.865406 0.957281 0.386927
0.932557 0.954886 0.402377
0.968156 0.931379 0.415087
0.968156 0.883057 0.427051
0.968156 0.847923 0.432927
0.468284 0.968156 0.663231
0.470881 0.968144 0.662800
0.480182 0.968156 0.659590
0.496896 0.968144 0.653277
0.518774 0.968156 0.641952
0.545677 0.968156 0.626486
0.578374 0.968144 0.609643
0.605562 0.968144 0.579130
0.628160 0.968144 0.518584
0.678023 0.968156 0.459843
0.749386 0.968156 0.428338
0.822979 0.968144 0.423070
0.888848 0.968156 0.430649
0.948154 0.968144 0.443922
0.968156 0.935775 0.452119
0.968156 0.894442 0.455602
0.506045 0.968144 0.674685
0.508086 0.968156 0.674193
0.516531 0.968156 0.672551
0.530237 0.968156 0.667338
0.548804 0.968156 0.658996
0.571608 0.968156 0.648592
0.600136 0.968156 0.636217
0.628198 0.968156 0.616378
0.641574 0.968156 0.563641
0.674675 0.968156 0.509021
0.728149 0.968144 0.472332
0.787645 0.968156 0.457843
0.844111 0.968156 0.457637
0.898344 0.968156 0.465229
0.950302 0.968156 0.477462
0.968144 0.938362 0.477529
0.530091 0.968144 0.684287
0.531969 0.968156 0.684017
0.539007 0.968156 0.682732
0.551353 0.968156 0.679708
0.567222 0.968156 0.673638
0.587196 0.968156 0.665726
0.612097 0.968156 0.655060
0.643155 0.968156 0.644933
0.650687 0.968156 0.600166
0.671459 0.968144 0.549999
0.710672 0.968156 0.510453
0.760351 0.968156 0.488118
0.811168 0.968156 0.480690
0.860869 0.968156 0.482362
0.909090 0.968144 0.489528
0.957842 0.968156 0.501186
0.000000 0.000000 0.030430
0.010901 0.000000 0.030608
0.021410 0.000000 0.031359
0.032920 0.000000 0.032920
0.093824 0.000000 0.071557
0.241883 0.000000 0.112606
0.405441 0.000000 0.126264
0.545106 0.000000 0.127547
0.642179 0.000000 0.125429
0.697921 0.000000 0.123328
0.737347 0.000000 0.121376
0.787865 0.008931 0.118680
0.838621 0.023009 0.116758
0.883834 0.035790 0.123428
0.923566 0.049842 0.143276
0.953353 0.083960 0.155690
0.000000 0.011055 0.031064
0.000000 0.000000 0.031198
0.020696 0.000000 0.031969
0.033504 0.000000 0.033504
0.094208 0.000000 0.070790
0.242595 0.000000 0.109976
0.406626 0.000000 0.122887
0.546461 0.000000 0.123976
0.644394 0.000000 0.121813
0.700637 0.000000 0.119709
0.740265 0.002202 0.117796
0.789849 0.016328 0.115461
0.840820 0.029366 0.114914
0.885869 0.041443 0.124478
0.925684 0.063588 0.144688
0.955362 0.097492 0.159207
0.000000 0.022919 0.033562
0.000000 0.021846 0.033739
0.000000 0.000000 0.034454
0.035968 0.000000 0.035968
0.095735 0.000000 0.065823
0.246444 0.000000 0.096338
0.410967 0.000000 0.105894
0.551533 0.001629 0.106326
0.652445 0.011203 0.104283
0.711231 0.021447 0.102899
0.751808 0.031912 0.102469
0.798483 0.042406 0.102518
0.849224 0.056552 0.109175
0.894256 0.082769 0.129915
0.933847 0.118180 0.157352
0.963079 0.149103 0.179027
0.000000 0.038598 0.038598
0.000000 0.038767 0.038767
0.000000 0.039437 0.039437
0.040896 0.040896 0.040896
0.098844 0.043231 0.043231
0.252054 0.046455 0.046455
0.418582 0.050676 0.050676
0.559806 0.055750 0.055750
0.665097 0.061633 0.061633
0.729242 0.068209 0.068209
0.771637 0.075346 0.075346
0.813843 0.104235 0.092330
0.863567 0.138183 0.124837
0.908165 0.173596 0.162612
0.947144 0.207608 0.197994
0.968156 0.233218 0.224723
0.000000 0.145978 0.102131
0.000000 0.146701 0.102056
0.000000 0.148387 0.100937
0.048544 0.148803 0.096583
0.112036 0.154723 0.071157
0.262799 0.173270 0.053780
0.431919 0.170995 0.057788
0.571503 0.162003 0.062586
0.681945 0.158894 0.068211
0.752937 0.171087 0.074414
0.799075 0.194444 0.086872
0.838565 0.218403 0.132452
0.881168 0.243688 0.171979
0.923922 0.267925 0.205288
0.961040 0.290958 0.235850
0.968156 0.303988 0.257261
0.000000 0.270114 0.184793
0.000000 0.271193 0.185463
0.011058 0.275182 0.186180
0.058708 0.282337 0.180739
0.113206 0.294691 0.147684
0.242131 0.309319 0.075516
0.438284 0.306410 0.067268
0.584478 0.297289 0.071741
0.700138 0.288438 0.076932
0.777366 0.291079 0.085817
0.826684 0.303943 0.124117
0.866137 0.322953 0.171456
0.901722 0.344381 0.213621
0.938613 0.363382 0.247417
0.968156 0.378259 0.274555
0.968156 0.380731 0.292140
0.000000 0.403411 0.271841
0.001659 0.404928 0.272036
0.029490 0.410555 0.271445
0.071081 0.419987 0.265285
0.122755 0.433472 0.239853
0.224796 0.453516 0.164679
0.400122 0.458099 0.082108
0.584487 0.438052 0.082921
0.708833 0.418790 0.087713
0.793487 0.409433 0.105807
0.849383 0.412586 0.158719
0.891347 0.425327 0.210172
0.927721 0.441484 0.253554
0.960772 0.458007 0.290805
0.968156 0.464265 0.319837
0.968156 0.460659 0.335108
0.020257 0.533433 0.354230
0.026349 0.534913 0.354018
0.048801 0.540211 0.352709
0.085163 0.549197 0.344807
0.141937 0.560437 0.322195
0.243768 0.576741 0.271798
0.350443 0.593628 0.161039
0.544940 0.587208 0.095990
