modules/detection_bypass/_luts/LOOK1.cube
LUT_3D_SIZE 6
0.000000 0.000000 0.000000
0.032084 0.000000 0.000000
0.405892 0.000000 0.000000
0.684863 0.000000 0.000000
0.836183 0.022082 0.022082
0.951002 0.083933 0.067368
0.000000 0.037823 0.000000
0.040126 0.040126 0.000000
0.421175 0.126937 0.000000
0.717022 0.122626 0.000000
0.861000 0.150588 0.032086
0.968144 0.200012 0.125782
0.000000 0.398749 0.190967
0.072327 0.418596 0.162803
0.390032 0.456205 0.010798
0.784075 0.413673 0.035126
0.917148 0.435765 0.182804
0.968156 0.436175 0.262589
0.108271 0.733482 0.433969
0.189705 0.747473 0.422799
0.379727 0.787901 0.326995
0.759748 0.788304 0.145663
0.950152 0.736828 0.286260
0.968156 0.674538 0.358738
0.415071 0.934373 0.617185
0.450405 0.940306 0.608997
0.548355 0.960175 0.563124
0.695548 0.967073 0.391162
0.931385 0.954812 0.393813
0.968156 0.847791 0.421437
0.530747 0.968156 0.676286
0.550833 0.968156 0.671296
0.611609 0.968156 0.647577
0.669890 0.968156 0.539457
0.811256 0.968156 0.473453
0.956902 0.968144 0.495271
0.000000 0.000000 0.030430
0.032920 0.000000 0.032920
0.405441 0.000000 0.126264
0.697921 0.000000 0.123328
0.838621 0.023009 0.116758
0.953353 0.083960 0.155690
0.000000 0.038598 0.038598
0.040896 0.040896 0.040896
0.418582 0.050676 0.050676
0.729242 0.068209 0.068209
0.863567 0.138183 0.124837
0.968156 0.233218 0.224723
0.000000 0.403411 0.271841
0.071081 0.419987 0.265285
0.400122 0.458099 0.082108
0.793487 0.409433 0.105807
0.927721 0.441484 0.253554
0.968156 0.460659 0.335108
0.114239 0.736817 0.490199
0.194460 0.749439 0.480318
0.405979 0.787536 0.401439
0.766033 0.789909 0.201728
0.958691 0.736267 0.328396
0.968144 0.681531 0.402881
0.415174 0.934969 0.651970
0.450320 0.940763 0.643500
0.549823 0.960017 0.593608
0.693350 0.968144 0.424140
0.934933 0.954711 0.416296
0.968156 0.848189 0.448717
0.529365 0.968144 0.696609
0.552182 0.968156 0.693018
0.613507 0.968144 0.667324
0.675472 0.968156 0.568490
0.811219 0.968156 0.492646
0.959348 0.968156 0.511353
0.000000 0.000000 0.430113
0.126566 0.000000 0.425013
0.398542 0.000000 0.390615
0.722107 0.000000 0.337963
0.842826 0.026839 0.336252
0.956076 0.097683 0.353778
0.000000 0.126898 0.430591
0.044329 0.044329 0.430793
0.415296 0.053812 0.406454
0.756293 0.070977 0.359912
0.882138 0.140509 0.369690
0.968156 0.246999 0.399623
0.000000 0.433192 0.438127
0.073725 0.445111 0.448043
0.441748 0.450568 0.441424
0.800648 0.446481 0.433443
0.965744 0.497141 0.488337
0.968156 0.553403 0.547033
0.094386 0.752662 0.615135
0.193935 0.760285 0.629333
0.493762 0.773981 0.617511
0.789713 0.785759 0.464707
0.968156 0.739513 0.510724
0.968156 0.712633 0.556637
0.402747 0.939922 0.752815
0.443676 0.943227 0.755601
0.587339 0.951962 0.727020
0.720382 0.965796 0.597071
0.951115 0.950950 0.539563
0.968156 0.852581 0.562962
0.521457 0.968156 0.764653
0.546237 0.968156 0.764131
0.645219 0.968156 0.753424
0.729558 0.968156 0.699744
0.824675 0.968156 0.605439
0.968144 0.968156 0.603138
0.000000 0.000000 0.679627
0.123133 0.000000 0.698575
0.365981 0.000000 0.716648
0.700450 0.000000 0.660678
0.848726 0.034220 0.608409
0.960070 0.115762 0.593163
0.000000 0.123055 0.701428
0.050888 0.050888 0.721277
0.382284 0.059847 0.743492
0.744245 0.076297 0.702695
0.892047 0.150681 0.647837
0.968156 0.255835 0.618606
0.008977 0.407434 0.736626
0.078827 0.413544 0.757387
0.448600 0.450183 0.773509
0.800325 0.452037 0.758041
0.968156 0.497249 0.732865
0.968156 0.550071 0.711548
0.100310 0.764268 0.776958
0.174475 0.775092 0.786914
0.490212 0.784309 0.787847
0.798496 0.779392 0.772525
0.968156 0.785744 0.778075
0.968156 0.795375 0.789714
0.366616 0.953801 0.830385
0.402031 0.957692 0.833318
0.591606 0.952700 0.849395
0.807081 0.941936 0.832786
0.962813 0.936487 0.781758
0.968156 0.879785 0.790258
0.484531 0.968144 0.815850
0.512526 0.968156 0.821731
0.657553 0.968156 0.847820
0.823994 0.968156 0.854465
0.879513 0.968156 0.813498
0.968156 0.963435 0.797218
0.000000 0.000000 0.810109
0.116556 0.000000 0.811176
0.319732 0.000000 0.818269
0.627820 0.009137 0.809535
0.856323 0.045096 0.821094
0.968144 0.147128 0.795777
0.000000 0.116142 0.820871
0.060006 0.062977 0.824805
0.344989 0.068010 0.855172
0.670100 0.090870 0.854719
0.882931 0.197377 0.849209
0.968156 0.282120 0.805332
0.020325 0.385541 0.853909
0.105964 0.392277 0.875654
0.465545 0.463655 0.939675
0.762975 0.465896 0.943865
0.968144 0.514051 0.935940
0.968156 0.560148 0.874296
0.184803 0.712816 0.906341
0.251168 0.722289 0.920965
0.499311 0.748293 0.952931
0.804392 0.781325 0.937860
0.968156 0.788489 0.933809
0.968156 0.798680 0.887747
0.394349 0.952632 0.964981
0.425042 0.956460 0.967956
0.572679 0.959369 0.965801
0.821482 0.939888 0.937839
0.956695 0.936861 0.931664
0.968156 0.931447 0.928898
0.483321 0.968156 0.898333
0.504685 0.968156 0.898941
0.632842 0.968156 0.898401
0.844009 0.968156 0.923305
0.948057 0.968156 0.946698
0.968156 0.964529 0.930388
0.000000 0.000000 0.902005
0.106993 0.000000 0.903357
0.288842 0.000000 0.898812
0.568538 0.018454 0.896350
0.806162 0.049367 0.918500
0.968156 0.191935 0.938840
0.000000 0.106686 0.912255
0.068927 0.080941 0.917409
0.318732 0.088335 0.918047
0.605601 0.118750 0.931325
0.832925 0.206878 0.943922
0.968144 0.315878 0.941155
0.027792 0.355723 0.942765
0.145368 0.370007 0.950403
0.485596 0.482801 0.968156
0.697593 0.485128 0.968144
0.889204 0.522830 0.968156
0.968156 0.580196 0.968156
0.189789 0.645870 0.968156
0.283001 0.654079 0.968156
0.518489 0.693143 0.968156
0.802790 0.786099 0.968156
0.910280 0.790394 0.968156
0.968156 0.801245 0.968156
0.382850 0.848354 0.968156
0.430795 0.853225 0.968156
0.571621 0.869259 0.968156
0.817807 0.889675 0.968156
0.945344 0.937221 0.968156
0.968156 0.936444 0.963938
0.503411 0.968156 0.968156
0.522632 0.968156 0.968156
0.631301 0.968156 0.968156
0.834356 0.968156 0.968144
0.967957 0.968156 0.968144
0.968163 0.968156 0.968156
