modules/detection_bypass/_luts/LOW_SAT_-_Braw_Vivid_Ludeman_LUT.cube
TITLE "Generated by Resolve"
LUT_3D_SIZE 33
0.00538643 0.0355077 0.0424048
0.00541695 0.0355535 0.0425116
0.00547799 0.0356298 0.0426642
0.00567636 0.0357214 0.0428779
0.00633249 0.0358892 0.0433204
0.00708019 0.0360723 0.0438087
0.00781262 0.036286 0.0443122
0.00872816 0.0365759 0.0448005
0.0101167 0.0369879 0.0452735
0.0120851 0.0375219 0.0458991
0.0154421 0.0379034 0.04654
0.0225681 0.0380255 0.0470436
0.0319371 0.0387579 0.0483253
0.0435798 0.0399481 0.049958
0.0581521 0.041474 0.0516365
0.0742046 0.0434424 0.0521401
0.0921492 0.0453346 0.0527047
0.112367 0.0473487 0.0535744
0.136248 0.049836 0.0551614
0.161868 0.0530404 0.0574502
0.189303 0.0563363 0.059617
0.21912 0.0595407 0.0614023
0.253223 0.0623789 0.0617685
0.290944 0.0656443 0.0622568
0.332723 0.0694133 0.0630503
0.380804 0.074052 0.0654917
0.432975 0.0791333 0.0695811
0.488685 0.0845655 0.0747997
0.546532 0.0898451 0.0798657
0.604623 0.0944076 0.0847181
0.663981 0.0995499 0.0897841
0.72726 0.10753 0.0957961
0.787915 0.116213 0.101549
0.00588998 0.0361639 0.0434272
0.00595102 0.0362402 0.043595
0.0059968 0.0363165 0.0437629
0.00627146 0.0364843 0.044007
0.00683604 0.0366827 0.0443732
0.00746166 0.0368963 0.0447852
0.00814832 0.0371252 0.0452125
0.00909438 0.0374456 0.045655
0.0105898 0.0378424 0.0461891
0.0127871 0.0382391 0.0467536
0.016434 0.0384222 0.0471809
0.0244144 0.038819 0.0478523
0.0344549 0.0399634 0.049485
0.0481422 0.0415808 0.0511635
0.0634623 0.0432746 0.0522927
0.0799115 0.0449989 0.0526284
0.0991226 0.046952 0.0533761
0.121233 0.0492561 0.0546273
0.145724 0.051957 0.0563821
0.171862 0.0553597 0.0589761
0.200717 0.0585641 0.0609751
0.231846 0.0615549 0.0622568
0.266392 0.06421 0.0623331
0.306615 0.0676738 0.0628519
0.3505 0.0716869 0.0641794
0.398245 0.0762493 0.0665446
0.453117 0.08159 0.0716259
0.509377 0.0869154 0.0767071
0.567117 0.0921492 0.0816968
0.62591 0.0965286 0.0865949
0.686946 0.103044 0.092195
0.749355 0.111177 0.0982071
0.809369 0.119997 0.103929
0.00607309 0.0370184 0.0442817
0.00608835 0.0371252 0.044419
0.00610361 0.0372168 0.0445716
0.00650034 0.0373693 0.0448463
0.00704967 0.0375525 0.0452125
0.00762951 0.0377661 0.0456397
0.00831617 0.037995 0.0460822
0.00933852 0.0383001 0.0465705
0.0108797 0.0386816 0.0471199
0.0132143 0.0389715 0.0475929
0.0182193 0.0393378 0.0481575
0.0268711 0.0402228 0.0491646
0.0372778 0.0416876 0.0506142
0.0532387 0.0432593 0.0519265
0.0694438 0.0448615 0.0525978
0.0868391 0.0466468 0.0532387
0.106172 0.0486763 0.054139
0.130251 0.0513008 0.0556954
0.155688 0.0543679 0.057908
0.182483 0.0577401 0.0605478
0.212161 0.0608072 0.0623636
0.244938 0.0634623 0.0628519
0.280797 0.0661479 0.0628519
0.32221 0.069749 0.0634165
0.368338 0.074052 0.0652934
0.418143 0.0787671 0.0684672
0.47303 0.084062 0.0736095
0.530526 0.0893873 0.0786145
0.588479 0.0943313 0.0835584
0.646586 0.0986648 0.0884718
0.709667 0.106691 0.0946517
0.771115 0.115145 0.100603
0.83093 0.123995 0.106432
0.00611887 0.0380102 0.0451057
0.00611887 0.038117 0.0452583
0.00613413 0.0382391 0.0454108
0.00660716 0.0383154 0.0457008
0.00714122 0.038529 0.0461128
0.00770581 0.0387121 0.0465705
0.0083772 0.0389105 0.0470588
0.00941482 0.0391852 0.0475166
0.0108949 0.0395209 0.0479896
0.013489 0.0398566 0.0484321
0.0200809 0.04065 0.049134
0.0294804 0.0419928 0.0501564
0.0425422 0.043595 0.0513161
0.0590066 0.0450141 0.0523079
0.0753033 0.0466316 0.0530709
0.0937057 0.0485542 0.0540322
0.114549 0.0508583 0.0552529
0.1393 0.0536355 0.0568551
0.165713 0.0569772 0.0596323
0.193957 0.0601816 0.0619974
0.223743 0.0630198 0.0635691
0.258167 0.0653086 0.0632486
0.296513 0.0683604 0.0634318
0.33843 0.0720684 0.06421
0.386313 0.0765545 0.066392
0.438529 0.0814374 0.0705272
0.493568 0.0866407 0.0755169
0.551415 0.0920577 0.0804303
0.609384 0.0966506 0.0853895
0.669017 0.102251 0.0908064
0.731838 0.110475 0.0971389
0.792782 0.119158 0.102998
0.850996 0.128618 0.109331
0.00607309 0.0390631 0.0459907
0.00607309 0.0391699 0.0461433
0.00619516 0.0393072 0.0463569
0.00663767 0.0394598 0.0467384
0.00714122 0.0395972 0.0471504
0.00770581 0.0397498 0.0476081
0.00833143 0.0399786 0.0480507
0.00927749 0.0402838 0.0483864
0.0108034 0.0406958 0.0487068
0.0139162 0.041474 0.0492409
0.0220951 0.0427253 0.0498665
0.0324254 0.0443275 0.050782
0.0482032 0.0458076 0.0517128
0.0649424 0.0472419 0.0527047
0.0811322 0.049012 0.0540169
0.100862 0.0513161 0.0551919
0.123949 0.0538643 0.056611
0.149599 0.0567178 0.0585489
0.17641 0.0599527 0.0615702
0.205692 0.0626841 0.0632944
0.237232 0.0650645 0.0639506
0.271763 0.0672618 0.0635996
0.312444 0.0708782 0.0640574
0.35668 0.0749065 0.0653086
0.40441 0.0792554 0.0674754
0.458839 0.0842451 0.0725109
0.514763 0.0894942 0.0773785
0.571969 0.0947585 0.0821698
0.630167 0.0992447 0.0872816
0.691569 0.106294 0.0933242
0.753979 0.114626 0.0996109
0.814099 0.123201 0.105333
0.87097 0.133333 0.112154
0.00584421 0.0404059 0.046891
0.00578317 0.0406043 0.0470436
0.00596628 0.0408637 0.047303
0.00633249 0.0411231 0.0476539
0.00677501 0.0412909 0.0480049
0.00729381 0.0415351 0.0483864
0.00796521 0.0417945 0.0486763
0.00907912 0.0422827 0.0489662
0.0112764 0.0432136 0.0493935
0.0159152 0.0443885 0.0499123
0.0247044 0.0456855 0.0504463
0.0357061 0.047364 0.0512856
0.054139 0.0485847 0.052079
0.0708171 0.05037 0.0536965
0.0881819 0.0525521 0.0553597
0.108248 0.0551003 0.0565194
0.134096 0.0576791 0.0581826
0.160616 0.0603952 0.0605325
0.187945 0.0629892 0.0630198
0.217624 0.0651713 0.0641489
0.251041 0.0673991 0.0642405
0.287663 0.0701457 0.064271
0.328893 0.073991 0.064622
0.375219 0.0780804 0.0663005
0.424994 0.082414 0.0694285
0.478721 0.0871748 0.0743877
0.535485 0.0925612 0.0790417
0.592599 0.0975052 0.0839399
0.650675 0.102266 0.0892805
0.71429 0.110552 0.095964
0.775769 0.118975 0.102037
0.835294 0.127764 0.107881
0.890303 0.138094 0.114809
0.00529488 0.0426795 0.0478676
0.00523384 0.0431067 0.0480812
0.00546273 0.0437171 0.0483864
0.00582895 0.0440528 0.0486458
0.0062562 0.0444953 0.0488899
0.00677501 0.0449836 0.049073
0.00759899 0.0455482 0.0492866
0.0090486 0.0462806 0.0495766
0.0118868 0.0471809 0.0499733
0.0181735 0.0482948 0.0504921
0.0279393 0.0496376 0.0511482
0.0410468 0.0511482 0.0518959
0.06009 0.0525216 0.052842
0.0769513 0.0545357 0.0548257
0.0962234 0.0567941 0.0562142
0.118685 0.0592508 0.0576486
0.144884 0.0617533 0.0595102
0.171893 0.0640116 0.0619669
0.200412 0.0661021 0.0636301
0.230823 0.0681468 0.0644694
0.26598 0.0705882 0.0647746
0.304936 0.0740063 0.0650034
0.347021 0.0778058 0.0654765
0.393668 0.0813611 0.067155
0.445258 0.0856336 0.0712596
0.499336 0.090425 0.0759899
0.555291 0.0957351 0.0804303
0.613336 0.100572 0.0858473
0.673625 0.106798 0.0919356
0.737194 0.115068 0.0986648
0.797665 0.123491 0.10428
0.854917 0.13283 0.110491
0.909056 0.143084 0.117327
0.004654 0.0467536 0.0491951
0.004654 0.047364 0.0493935
0.00500496 0.0480812 0.0495155
0.00538643 0.0485847 0.0495613
0.00582895 0.0491646 0.0496071
0.00639353 0.0498665 0.0496071
0.00741588 0.05066 0.0498054
0.00914015 0.051545 0.0501717
0.0125429 0.0523995 0.05066
0.0203403 0.0534371 0.0513313
0.0305486 0.0548867 0.0519875
0.0462501 0.0565042 0.0528267
0.0659342 0.0580301 0.0539406
0.0843671 0.0594492 0.0551461
0.105303 0.0615396 0.0566567
0.129564 0.0638285 0.0585489
0.155718 0.0659953 0.0607156
0.183276 0.0679332 0.063035
0.213275 0.0699016 0.0640574
0.246326 0.0721599 0.0647898
0.282261 0.0747082 0.0654765
0.322744 0.0781262 0.065507
0.365972 0.0812848 0.066392
0.412085 0.0843977 0.0682841
0.465126 0.0890059 0.0729686
0.519753 0.0940414 0.077348
0.575845 0.0991531 0.0819867
0.634165 0.104158 0.0879225
0.696803 0.111559 0.0944228
0.759091 0.119692 0.100664
0.818921 0.128054 0.106279
0.874235 0.138064 0.112978
0.924697 0.147967 0.11986
0.00430304 0.0522011 0.0502937
0.0043946 0.0529335 0.05037
0.00471504 0.0538491 0.0502327
0.005066 0.0546426 0.0501259
0.00547799 0.0554208 0.0500649
0.00607309 0.0563516 0.0500801
0.007187 0.0573739 0.0504005
0.00914015 0.0585641 0.0510109
0.0126497 0.0597543 0.0516823
0.0213016 0.0610819 0.052018
0.031754 0.0627604 0.0529183
0.050782 0.063859 0.0537423
0.0725414 0.0646372 0.0543069
0.0935836 0.0655833 0.0552377
0.11548 0.0670481 0.0569162
0.141054 0.0692912 0.0592966
0.167803 0.0712596 0.0615702
0.196139 0.0730297 0.0634318
0.227176 0.0747539 0.064332
0.262379 0.0767224 0.0650339
0.299886 0.0789807 0.065507
0.340108 0.0816815 0.0657511
0.38436 0.0846265 0.0670634
0.432563 0.0884718 0.0698711
0.484901 0.0933089 0.0741894
0.540124 0.0982376 0.0784161
0.597101 0.103197 0.0838636
0.656275 0.108644 0.0901961
0.719738 0.11632 0.0964065
0.78056 0.124453 0.102388
0.838987 0.133288 0.108553
0.892836 0.143374 0.115312
0.940307 0.153017 0.122408
0.00386053 0.059678 0.0503548
0.00401312 0.0605783 0.05037
0.00430304 0.061387 0.05037
0.00456245 0.0625467 0.0504463
0.00489815 0.0637369 0.0505837
0.00550851 0.0650034 0.0508736
0.00677501 0.0663615 0.0513924
0.00889601 0.0678569 0.0521096
0.0132906 0.0693065 0.0526741
0.0219272 0.0706645 0.0530251
0.0338445 0.072221 0.0538338
0.0535439 0.0731365 0.054612
0.0781872 0.0728008 0.0545815
0.102892 0.0734264 0.055375
0.128374 0.0744945 0.0569162
0.154116 0.0767376 0.0592813
0.181582 0.078645 0.0610361
0.211154 0.0802777 0.0623941
0.243244 0.0816663 0.0635233
0.279393 0.0830854 0.0641489
0.318334 0.0847181 0.0646677
0.359258 0.086656 0.0654917
0.403342 0.0893111 0.0671092
0.453712 0.093492 0.0706035
0.506432 0.0979934 0.0746929
0.560311 0.10251 0.0792248
0.618738 0.107729 0.0857862
0.679393 0.113985 0.0919661
0.741985 0.12108 0.0977188
0.801831 0.129519 0.104219
0.857847 0.138827 0.110918
0.910384 0.14873 0.1178
0.956176 0.158114 0.125109
0.00311284 0.0700084 0.0506142
0.00328069 0.0712444 0.0508125
0.00349432 0.0724193 0.0509957
0.0037232 0.0734264 0.0512093
0.00393683 0.0748913 0.0514229
0.00456245 0.0766155 0.0516365
0.00598154 0.0783856 0.0519112
0.00799573 0.0801251 0.0521248
0.0127108 0.0818036 0.0522927
0.0209354 0.0836347 0.0529946
0.034165 0.0852827 0.0540017
0.0534218 0.0862135 0.0544442
0.078233 0.0863661 0.0540322
0.110536 0.0848402 0.0539712
0.140078 0.0853285 0.0549325
0.168917 0.0865187 0.0562295
0.196933 0.0881208 0.0577249
0.227878 0.0892958 0.0595254
0.261662 0.0903334 0.0609751
0.297993 0.0910658 0.0621958
0.336599 0.0915694 0.0628824
0.378637 0.093019 0.0643778
0.423926 0.0952773 0.0666667
0.474495 0.0990768 0.0704051
0.527123 0.103456 0.0749065
0.582223 0.108309 0.0802777
0.64123 0.114031 0.0867781
0.702892 0.12018 0.0927443
0.763577 0.12694 0.0990768
0.822919 0.134646 0.106355
0.876097 0.144381 0.113222
0.925948 0.154025 0.120424
0.970886 0.163378 0.127947
0.00207523 0.0834058 0.0508888
0.00218204 0.0850233 0.0510414
0.00228885 0.0867018 0.0511635
0.00239567 0.0883955 0.0512703
0.00251774 0.0901503 0.0513771
0.00311284 0.0916304 0.0511635
0.00450141 0.0935073 0.0506752
0.00640879 0.0951095 0.0500649
0.0102998 0.096849 0.0498207
0.0169375 0.0990768 0.0511635
0.0298466 0.100511 0.0520638
0.0507362 0.101228 0.051957
0.0803693 0.100847 0.0517281
0.113634 0.0997482 0.0518959
0.149599 0.0979629 0.0506142
0.182589 0.0970016 0.0510719
0.213718 0.0974594 0.0526436
0.245014 0.09897 0.0546883
0.280079 0.0998856 0.0566415
0.317037 0.100633 0.0580758
0.355032 0.101274 0.0590677
0.398627 0.102983 0.0611734
0.446143 0.105486 0.06421
0.496376 0.108354 0.0680705
0.54902 0.111696 0.0735027
0.604929 0.115862 0.0795148
0.663478 0.120577 0.0859541
0.724865 0.126192 0.0926833
0.7841 0.13283 0.100343
0.840818 0.140581 0.108095
0.893965 0.150347 0.115389
0.941329 0.15964 0.122972
0.977569 0.169039 0.131044
0.000839246 0.0988479 0.0499123
0.000793469 0.100603 0.0497597
0.000717174 0.102495 0.0495918
0.000656138 0.104433 0.0493935
0.000732433 0.10634 0.0491493
0.00120546 0.108186 0.0486763
0.00248722 0.109926 0.0477607
0.00430304 0.111803 0.046479
0.00680552 0.114076 0.0453498
0.0111696 0.11693 0.0469368
0.0228885 0.118593 0.0473945
0.0449226 0.119417 0.0467384
0.0780041 0.119219 0.0474708
0.114702 0.117662 0.0480201
0.153155 0.114672 0.0471046
0.191608 0.111894 0.0453498
0.227985 0.110613 0.0449226
0.262943 0.110414 0.0459907
0.298482 0.111559 0.0487221
0.336828 0.113451 0.0505837
0.377142 0.115373 0.0526741
0.420233 0.117098 0.0555734
0.469078 0.119036 0.0593118
0.519509 0.120958 0.06421
0.571847 0.122927 0.0701457
0.627176 0.126284 0.0768139
0.685634 0.13051 0.0838331
0.74612 0.135485 0.091371
0.803311 0.141619 0.100328
0.85771 0.148959 0.10898
0.909728 0.156985 0.117433
0.957656 0.165911 0.125643
0.985077 0.17525 0.134142
0 0.115068 0.0472267
0 0.116884 0.0469062
1.5259e-05 0.118837 0.0465553
6.10361e-05 0.120714 0.0462043
0.000137331 0.122637 0.0458076
0.000259403 0.124605 0.0451362
0.000671397 0.127001 0.0438849
0.00175479 0.130388 0.0419013
0.00378424 0.133974 0.0403906
0.00770581 0.137469 0.0402228
0.0157168 0.13959 0.0408179
0.0337682 0.141573 0.039765
0.070634 0.140993 0.0413214
0.111833 0.138277 0.0422065
0.154604 0.134997 0.041825
0.197574 0.13164 0.0391394
0.238636 0.128344 0.0370794
0.27924 0.126299 0.0365301
0.31928 0.12575 0.0373846
0.358511 0.127672 0.039765
0.400168 0.129854 0.0436255
0.444389 0.13225 0.0478828
0.492073 0.13492 0.05243
0.542962 0.136736 0.0585946
0.595148 0.13901 0.0652323
0.648859 0.141756 0.0721904
0.707835 0.144839 0.079942
0.765591 0.148302 0.0890516
0.821439 0.152667 0.0991836
0.875151 0.158892 0.108858
0.92578 0.166079 0.118395
0.970764 0.174014 0.127855
0.992966 0.18233 0.136782
0 0.132189 0.0430152
0 0.134279 0.0424659
0 0.1364 0.0419623
0 0.138674 0.0414588
0 0.141131 0.0407568
1.5259e-05 0.143282 0.0398413
0.000137331 0.145953 0.038529
0.000167849 0.149508 0.0369116
0.00105287 0.154421 0.0346838
0.00318914 0.158755 0.033753
0.00923171 0.162417 0.0334173
0.0251774 0.164981 0.0328985
0.0563516 0.164843 0.03299
0.105486 0.161364 0.0356756
0.151675 0.158068 0.0355993
0.198337 0.154238 0.0336156
0.244312 0.150546 0.028687
0.289799 0.146395 0.026566
0.334295 0.143984 0.026154
0.378012 0.143511 0.0276036
0.421988 0.145571 0.0318151
0.467277 0.149081 0.0375525
0.514702 0.152865 0.0441596
0.564691 0.155871 0.0515297
0.617197 0.158953 0.0588235
0.671687 0.161654 0.0665293
0.728664 0.163058 0.0749676
0.784176 0.165713 0.085069
0.839033 0.169162 0.0953689
0.893385 0.173297 0.105852
0.943954 0.178347 0.117525
0.979492 0.184131 0.128466
1 0.190661 0.138384
0 0.151385 0.0371862
0 0.153552 0.0366827
0 0.155901 0.0361181
0 0.158251 0.0356146
0 0.160678 0.0348211
0 0.162814 0.0336919
0 0.165484 0.0323491
0 0.168841 0.0310979
0.000106813 0.173205 0.0294194
0.00047303 0.178622 0.0276188
0.00325017 0.184344 0.0263981
0.0149233 0.188403 0.0249485
0.045243 0.189517 0.0249943
0.0915999 0.187366 0.0273289
0.143053 0.183581 0.0290074
0.194278 0.17998 0.026627
0.245212 0.175845 0.0227359
0.295781 0.171176 0.0184024
0.344259 0.167071 0.0176242
0.392996 0.164721 0.0185855
0.441184 0.164584 0.0210269
0.488121 0.167605 0.027512
0.535851 0.171847 0.0349279
0.584558 0.176684 0.0429084
0.638361 0.181094 0.0517281
0.692943 0.183719 0.0603037
0.747341 0.186175 0.0687724
0.801968 0.188586 0.0782788
0.856855 0.190616 0.089128
0.910857 0.192554 0.101015
0.962066 0.194018 0.114275
0.987427 0.197787 0.126085
1 0.202457 0.136797
0 0.17145 0.0310979
0 0.173816 0.0305028
0 0.176379 0.0298314
0 0.17879 0.0291447
0 0.181155 0.0281834
0 0.183383 0.027039
0 0.186007 0.0259403
0 0.189837 0.0247044
1.5259e-05 0.194247 0.0230716
4.57771e-05 0.199496 0.0212558
0.000183108 0.205737 0.0190127
0.00613413 0.213062 0.0165103
0.0326085 0.215732 0.016495
0.0730449 0.215167 0.0181888
0.125719 0.212451 0.0208133
0.183688 0.20795 0.020264
0.240467 0.203983 0.0169985
0.295872 0.199817 0.0129091
0.349035 0.194034 0.0107424
0.402167 0.190341 0.0111543
0.454109 0.188571 0.0134585
0.505562 0.188983 0.0177615
0.553399 0.192828 0.0253452
0.604715 0.197971 0.034287
0.659525 0.204334 0.0440833
0.712474 0.208713 0.0518654
0.765881 0.212802 0.0602884
0.819791 0.216083 0.0696269
0.875044 0.21735 0.081178
0.927794 0.217411 0.0940108
0.972274 0.216907 0.107271
0.995621 0.217136 0.12047
1 0.219013 0.132067
0 0.192935 0.0241093
0 0.195331 0.0235142
0 0.198184 0.0229801
0 0.200793 0.0224002
0 0.203464 0.0216831
0 0.206226 0.0207675
0 0.209628 0.0195926
0 0.213733 0.0181125
0 0.217929 0.0164645
1.5259e-05 0.222568 0.0146334
0.000244144 0.228534 0.0124056
0.000961318 0.23711 0.00970474
0.013962 0.243824 0.0084535
0.0509041 0.245594 0.00958267
0.101167 0.244175 0.0115511
0.165469 0.238941 0.0142214
0.228061 0.235416 0.0116884
0.288914 0.231174 0.00895705
0.34786 0.226993 0.00616464
0.405585 0.221622 0.00576791
0.46183 0.21825 0.00773632
0.516838 0.216419 0.0109255
0.570199 0.217868 0.0148928
0.625574 0.223163 0.0226139
0.679759 0.229068 0.0312047
0.732052 0.235264 0.0406806
0.785382 0.242283 0.0493935
0.838819 0.24712 0.0594492
0.892409 0.249866 0.0709392
0.945449 0.248783 0.0841535
0.980041 0.247013 0.0977493
1 0.244404 0.11165
1 0.242512 0.124788
0 0.217121 0.0181735
0 0.220066 0.0176089
0 0.22266 0.0171511
0 0.225452 0.0167391
0 0.228504 0.0160525
0 0.231525 0.015198
0 0.235142 0.0141756
0 0.238956 0.0131075
0 0.24303 0.0118257
0 0.248447 0.0099031
7.62951e-05 0.255756 0.00735485
0.00103761 0.264317 0.00477607
0.00508125 0.273442 0.00254826
0.0263981 0.279759 0.00236515
0.0756847 0.278447 0.00447089
0.136782 0.274876 0.0065919
0.207736 0.269718 0.00816358
0.275196 0.267597 0.00500496
0.341024 0.264759 0.00309758
0.40531 0.261479 0.00238041
0.466178 0.255436 0.0033875
0.524941 0.25211 0.004654
0.583871 0.250507 0.00665293
0.644388 0.253117 0.0102083
0.699474 0.258167 0.0172885
0.752941 0.264836 0.0255436
0.805386 0.273182 0.0345769
0.858366 0.279561 0.0458839
0.911147 0.283711 0.0583047
0.963714 0.28542 0.0722057
0.988739 0.283711 0.0861524
1 0.280171 0.10103
1 0.275624 0.11577
0 0.242344 0.0132601
0 0.245518 0.0128023
0 0.248295 0.0124514
0 0.251133 0.0120241
0 0.255131 0.01149
0 0.259129 0.0108492
0 0.263218 0.010193
0 0.267613 0.00950637
0 0.272267 0.00852979
0 0.278935 0.00666819
0 0.28751 0.00418097
0.000213626 0.297246 0.00192264
0.00283818 0.3066 0.000549325
0.0102235 0.313497 0.000198367
0.042771 0.316121 0.000671397
0.103456 0.313832 0.00225834
0.175051 0.310445 0.00314336
0.253529 0.3066 0.00242618
0.328466 0.306798 0.00128176
0.400366 0.305318 0.000747692
0.467781 0.302388 0.000732433
0.530449 0.295323 0.00109865
0.593545 0.291325 0.00205997
0.656199 0.289525 0.00350958
0.715892 0.292958 0.00596628
0.771618 0.298894 0.0099031
0.825818 0.305562 0.0165408
0.879271 0.313558 0.0287785
0.93167 0.319158 0.0438087
0.973495 0.323766 0.0583352
0.998184 0.325734 0.073106
1 0.322545 0.088838
1 0.318303 0.103349
0 0.27187 0.00918593
0 0.275486 0.00886549
0 0.278798 0.00857557
0 0.282643 0.00814832
0 0.286885 0.00770581
0 0.290959 0.00770581
0 0.294911 0.0077821
0 0.299016 0.00782788
0 0.303273 0.00746166
0 0.31133 0.00537118
0 0.321675 0.00213626
0 0.332326 0.000549325
0.000549325 0.341802 6.10361e-05
0.00544747 0.348806 4.57771e-05
0.0160067 0.353857 7.62951e-05
0.0637064 0.354696 0.000259403
0.13753 0.351293 0.00128176
0.222873 0.347326 0.0019379
0.309239 0.347463 0.00151064
0.388495 0.351125 0.000747692
0.46244 0.351308 0.000228885
0.531319 0.348959 0.000122072
0.597421 0.341146 0.000259403
0.662669 0.336828 0.000595102
0.726024 0.336538 0.00109865
0.785901 0.339574 0.00242618
0.844602 0.344747 0.00648508
0.901198 0.351156 0.0128939
0.953201 0.357229 0.0259098
0.983566 0.363165 0.0414282
1 0.367376 0.0576486
1 0.369909 0.0729381
1 0.366491 0.0890211
0 0.303731 0.00788891
0 0.306996 0.0081178
0 0.310719 0.00833143
0 0.314382 0.00851453
0 0.318074 0.0087129
0 0.322026 0.00891127
0 0.326131 0.00909438
0 0.330617 0.00920119
0 0.336843 0.00822461
0 0.346105 0.00531014
0 0.357916 0.00172427
0 0.37023 1.5259e-05
0 0.380316 0
0.00265507 0.387869 0
0.0166323 0.393378 1.5259e-05
0.0440833 0.397955 4.57771e-05
0.109163 0.397192 0.000106813
0.187228 0.393256 0.00157168
0.273671 0.390417 0.00265507
0.365118 0.395865 0.0015259
0.447532 0.40264 0.000747692
0.525078 0.405676 0.000106813
0.59733 0.401907 1.5259e-05
0.665034 0.395224 0
0.731594 0.390829 7.62951e-05
0.797452 0.390967 0.000244144
0.860471 0.393683 0.00148013
0.918013 0.397452 0.00573739
0.967758 0.402426 0.0126192
0.992187 0.40766 0.026154
0.999985 0.412284 0.0415351
1 0.41532 0.0587015
1 0.416205 0.0767681
0 0.337881 0.00846876
0 0.342397 0.00872816
0 0.346319 0.00898756
0 0.350439 0.00924697
0 0.354604 0.00956741
0 0.358358 0.00991836
0 0.362615 0.0102693
0 0.367712 0.0105592
0 0.374655 0.00915541
0 0.385397 0.00570687
0 0.397604 0.00242618
0 0.409461 0.000534066
0.000747692 0.421408 0
0.00520333 0.430808 0
0.0208896 0.4383 0
0.0464942 0.443488 0
0.0797284 0.447166 1.5259e-05
0.150225 0.444007 3.0518e-05
0.23563 0.439841 0.00175479
0.328466 0.439338 0.00360113
0.424659 0.450034 0.00187686
0.510903 0.459205 0.000915541
0.59234 0.464164 0.000106813
0.664775 0.459678 1.5259e-05
0.734142 0.456443 0
0.801999 0.452583 0
0.867414 0.449607 3.0518e-05
0.927443 0.450965 0.00199893
0.971603 0.452903 0.0071107
0.999115 0.455802 0.0152132
0.999725 0.458335 0.0296941
1 0.460365 0.0435187
1 0.461891 0.0573587
0 0.377737 0.00865187
0 0.382498 0.00888075
0 0.387472 0.00914015
0 0.391928 0.00944533
0 0.396658 0.00978103
0 0.401434 0.0101167
0 0.406271 0.0104677
0 0.411612 0.0106203
0 0.420996 0.00819409
0 0.430243 0.00552377
0 0.440833 0.00285344
0 0.453376 0.000961318
0.00318914 0.465751 3.0518e-05
0.0114748 0.474647 1.5259e-05
0.0310063 0.481147 3.0518e-05
0.0557412 0.485878 3.0518e-05
0.0888991 0.488991 1.5259e-05
0.12987 0.490455 0
0.206943 0.487694 0.002533
0.294789 0.487037 0.00453193
0.388693 0.490288 0.00576791
0.492042 0.505043 0.00285344
0.578836 0.517403 0.00140383
0.658351 0.526314 0.000350958
0.732189 0.525704 7.62951e-05
0.801999 0.52134 0
0.869276 0.515572 0.000106813
0.933257 0.512474 0.000366217
0.972137 0.510948 0.00386053
0.994904 0.509896 0.0101625
0.999893 0.509453 0.0195468
1 0.510002 0.0316472
1 0.51014 0.0433204
0 0.424506 0.00721752
0 0.429938 0.00697337
0 0.435843 0.00669871
0 0.441764 0.00642405
0 0.447929 0.00613413
0 0.45388 0.00587472
0 0.459998 0.00573739
0 0.466011 0.00540169
0 0.47306 0.00460822
0 0.4795 0.00399786
0 0.487312 0.00306706
0 0.499245 0.00149538
0.00503548 0.507881 0.00111391
0.0193179 0.51516 0.00123598
0.0417639 0.521599 0.0015259
0.0696117 0.52813 0.00175479
0.09897 0.53254 0.00180056
0.134829 0.534768 0.00247196
0.180331 0.535622 0.0043946
0.259846 0.534752 0.00901808
0.3523 0.53846 0.0105592
0.456596 0.546471 0.00953689
0.555001 0.565194 0.0056611
0.642893 0.580621 0.00303655
0.725216 0.592035 0.000869764
0.798581 0.591394 0.000244144
0.867979 0.588159 0
0.930053 0.582513 0.000289921
0.975601 0.575921 0.0012665
0.992767 0.571206 0.00640879
1 0.566995 0.0136263
1 0.563622 0.0233158
1 0.561364 0.0328832
0 0.477821 0.00299077
0 0.483177 0.0031281
0 0.488701 0.00321965
0 0.49398 0.00340276
0 0.49958 0.00364691
0 0.505302 0.00387579
0 0.511284 0.00408942
0 0.51696 0.00424201
0 0.522255 0.00442512
0 0.527276 0.00529488
0 0.532662 0.00610361
0.000381476 0.53959 0.00627146
0.00384527 0.547112 0.00671397
0.0220798 0.554055 0.00741588
0.0471656 0.561471 0.00827039
0.0779126 0.568902 0.00918593
0.105058 0.574517 0.00965896
0.132723 0.579171 0.0107271
0.168032 0.582147 0.0123293
0.219593 0.584161 0.0151217
0.314092 0.585641 0.0207065
0.416419 0.591882 0.0218662
0.520607 0.606058 0.0171664
0.618967 0.627375 0.010132
0.708019 0.645304 0.00512703
0.789853 0.660212 0.0011902
0.863081 0.660761 0.000396735
0.924941 0.655985 0
0.974243 0.648554 0.000701915
0.993622 0.639612 0.00410468
0.999557 0.630793 0.0110781
1 0.622995 0.019089
1 0.615137 0.026627
0 0.527504 0.00274662
0 0.532189 0.00410468
0 0.53669 0.00547799
0 0.541268 0.00686656
0 0.546197 0.00836194
0 0.551003 0.00982681
0 0.555764 0.0113222
0 0.560464 0.0128023
0 0.565286 0.0143893
0 0.570001 0.0158846
3.0518e-05 0.574945 0.0174563
0.000137331 0.580102 0.0186923
0.00395209 0.586236 0.0195315
0.0190585 0.592767 0.0196841
0.0469062 0.600198 0.0204776
0.0773785 0.607645 0.0211643
0.109148 0.615457 0.021973
0.133959 0.621607 0.0227054
