modules/detection_bypass/_luts/LOW_SAT_-_Braw_Vivid_Ludeman_LUT.cube
TITLE "Generated by Resolve"
LUT_3D_SIZE 9
0.00538643 0.0355077 0.0424048
0.00633249 0.0358892 0.0433204
0.0101167 0.0369879 0.0452735
0.0319371 0.0387579 0.0483253
0.0921492 0.0453346 0.0527047
0.189303 0.0563363 0.059617
0.332723 0.0694133 0.0630503
0.546532 0.0898451 0.0798657
0.787915 0.116213 0.101549
0.00607309 0.0390631 0.0459907
0.00714122 0.0395972 0.0471504
0.0108034 0.0406958 0.0487068
0.0482032 0.0458076 0.0517128
0.123949 0.0538643 0.056611
0.237232 0.0650645 0.0639506
0.40441 0.0792554 0.0674754
0.630167 0.0992447 0.0872816
0.87097 0.133333 0.112154
0.00430304 0.0522011 0.0502937
0.00547799 0.0554208 0.0500649
0.0126497 0.0597543 0.0516823
0.0725414 0.0646372 0.0543069
0.167803 0.0712596 0.0615702
0.299886 0.0789807 0.065507
0.484901 0.0933089 0.0741894
0.719738 0.11632 0.0964065
0.940307 0.153017 0.122408
0.000839246 0.0988479 0.0499123
0.000732433 0.10634 0.0491493
0.00680552 0.114076 0.0453498
0.0780041 0.119219 0.0474708
0.227985 0.110613 0.0449226
0.377142 0.115373 0.0526741
0.571847 0.122927 0.0701457
0.803311 0.141619 0.100328
0.985077 0.17525 0.134142
0 0.17145 0.0310979
0 0.181155 0.0281834
1.5259e-05 0.194247 0.0230716
0.0326085 0.215732 0.016495
0.240467 0.203983 0.0169985
0.454109 0.188571 0.0134585
0.659525 0.204334 0.0440833
0.875044 0.21735 0.081178
1 0.219013 0.132067
0 0.27187 0.00918593
0 0.286885 0.00770581
0 0.303273 0.00746166
0.000549325 0.341802 6.10361e-05
0.13753 0.351293 0.00128176
0.46244 0.351308 0.000228885
0.726024 0.336538 0.00109865
0.953201 0.357229 0.0259098
1 0.366491 0.0890211
0 0.424506 0.00721752
0 0.447929 0.00613413
0 0.47306 0.00460822
0.00503548 0.507881 0.00111391
0.09897 0.53254 0.00180056
0.3523 0.53846 0.0105592
0.725216 0.592035 0.000869764
0.975601 0.575921 0.0012665
1 0.561364 0.0328832
0.00157168 0.610788 0.027512
0.00534066 0.62742 0.0363622
0.0102235 0.643 0.0458076
0.0180819 0.657786 0.0539406
0.104204 0.684474 0.0548562
0.241367 0.710719 0.0574197
0.612543 0.759716 0.0563973
0.941207 0.849867 0.0108644
1 0.824613 0.0206912
0.0562753 0.779706 0.0542306
0.0555734 0.808469 0.0411688
0.0534676 0.818631 0.0368963
0.05066 0.822431 0.0360571
0.0665599 0.828794 0.0350195
0.238499 0.858152 0.0457618
0.568093 0.860319 0.0805066
0.949676 0.932586 0.0674754
1 0.954269 0.0669108
0.0053254 0.0355383 0.0439002
0.00640879 0.0359808 0.0450904
0.0103456 0.0371252 0.0473182
0.0330968 0.0390631 0.0509804
0.0966506 0.0452735 0.0549783
0.194965 0.0568246 0.0624704
0.340673 0.0693217 0.0663615
0.555398 0.0888685 0.0851606
0.797116 0.11664 0.10692
0.00602731 0.0388952 0.0482185
0.00714122 0.0393378 0.0499428
0.0110475 0.0407874 0.0517128
0.0511177 0.046067 0.0547799
0.128603 0.0548257 0.0601663
0.242863 0.0653239 0.0666056
0.412665 0.0786297 0.073106
0.638849 0.0980087 0.0940108
0.878767 0.133745 0.118196
0.00421149 0.05243 0.0531624
0.00538643 0.055787 0.0542916
0.0130922 0.0596475 0.0560464
0.0740063 0.0653544 0.0606088
0.170871 0.0735637 0.0683452
0.305791 0.0814221 0.0718853
0.49366 0.0944228 0.0821851
0.726833 0.115007 0.103288
0.947036 0.152956 0.129351
0.000595102 0.0995956 0.0569772
0.000549325 0.10695 0.0577096
0.00686656 0.114885 0.0544137
0.0776379 0.121874 0.0565805
0.22974 0.114321 0.0568856
0.382773 0.118257 0.0630808
0.579385 0.125551 0.0803235
0.809857 0.142184 0.11078
0.988312 0.17554 0.142153
0 0.174487 0.0392309
0 0.184619 0.0374762
1.5259e-05 0.19585 0.0328985
0.0290684 0.219104 0.0239109
0.243641 0.208835 0.0253605
0.459327 0.193545 0.0244755
0.662242 0.209354 0.0554818
0.881224 0.220935 0.0933394
1 0.221469 0.142199
0 0.274754 0.0147097
0 0.289021 0.0147097
0 0.303883 0.0153658
0.000167849 0.342535 0.00323491
0.137133 0.35819 0.0041352
0.467689 0.358602 0.00120546
0.731517 0.344076 0.00349432
0.958709 0.365179 0.0350652
1 0.374456 0.0976577
0 0.425666 0.0166018
0 0.447761 0.0171969
0 0.47129 0.0171359
0.0009308 0.509926 0.00608835
0.0898451 0.53843 0.00663767
0.357351 0.546105 0.0177768
0.730602 0.59884 0.00172427
0.98172 0.583947 0.0034638
1 0.568139 0.0383307
0 0.614145 0.038468
0.00399786 0.629847 0.0476997
0.0071107 0.645563 0.057084
0.0130007 0.660288 0.0654002
0.0960403 0.686687 0.0641947
0.237873 0.715618 0.0650187
0.61854 0.766827 0.0616159
0.946273 0.855512 0.0177768
1 0.835782 0.0259251
0.0470588 0.785855 0.0568704
0.0451972 0.813001 0.045243
0.0427253 0.81706 0.0447089
0.0399786 0.820966 0.0446937
0.057908 0.826658 0.0431525
0.23418 0.855955 0.0504616
0.585946 0.861769 0.0876326
0.957107 0.934173 0.0739757
1 0.953994 0.0749981
0.00534066 0.0356298 0.0467994
0.00643931 0.0360876 0.0485542
0.0105592 0.0372778 0.0514076
0.0351415 0.0395361 0.0552377
0.102663 0.0446784 0.0599222
0.201617 0.0560769 0.0676585
0.348959 0.066865 0.0738842
0.56585 0.0870985 0.0947585
0.808789 0.118807 0.115602
0.00585946 0.0387274 0.0527352
0.00686656 0.0395666 0.054612
0.0108949 0.0413825 0.0562753
0.0545663 0.0460975 0.0616922
0.134447 0.0543069 0.0673991
0.250126 0.0634012 0.0738537
0.421271 0.0755474 0.0836042
0.655009 0.0991531 0.104997
0.887587 0.135317 0.127855
0.00418097 0.0520027 0.0593271
0.00547799 0.0551156 0.0625467
0.0129854 0.058854 0.0655833
0.0737011 0.0660868 0.0751507
0.174853 0.0755932 0.0810254
0.313436 0.0814527 0.0823682
0.503807 0.0910048 0.0965744
0.740932 0.115602 0.116091
0.955444 0.153903 0.141756
0.000488289 0.0985885 0.0730602
0.000610361 0.105745 0.0763714
0.00657664 0.113619 0.0753185
0.0756695 0.122866 0.0792554
0.22826 0.118914 0.0839246
0.392126 0.121828 0.0864729
0.595697 0.12726 0.10248
0.81915 0.141711 0.128206
0.99266 0.17467 0.154467
0 0.17911 0.0589303
0 0.189624 0.0603494
0 0.199954 0.0590066
0.0191196 0.221256 0.047013
0.243687 0.215473 0.0482948
0.465324 0.199695 0.0542153
0.670481 0.215381 0.0842603
0.893523 0.222614 0.118425
1 0.221775 0.161532
0 0.280934 0.033402
0 0.293431 0.0343633
0 0.307012 0.0353246
0 0.333379 0.0263981
0.122454 0.366827 0.0175937
0.472435 0.367315 0.00970474
0.740688 0.35111 0.0213169
0.962951 0.374258 0.06009
1 0.380758 0.118578
0 0.421851 0.031281
0 0.441871 0.0336767
0 0.465339 0.0349584
0 0.510323 0.0203861
0.0712291 0.541497 0.0165713
0.357671 0.554284 0.0294804
0.736278 0.606394 0.00334173
0.982452 0.591348 0.0137789
1 0.576349 0.0507362
0.000534066 0.615824 0.0519875
0.00177005 0.631388 0.0615091
0.00205997 0.646998 0.0715038
0.0055848 0.66128 0.0806439
0.0833753 0.687785 0.0768444
0.227771 0.720043 0.076051
0.620905 0.773495 0.0704051
0.946517 0.858625 0.0318761
1 0.844602 0.0381018
0.0345312 0.790677 0.064744
0.0312963 0.810407 0.0576028
0.026566 0.814038 0.0591745
0.0208591 0.817227 0.0616922
0.0374762 0.821302 0.0600443
0.21857 0.851148 0.0613718
0.600931 0.863432 0.102327
0.959976 0.935515 0.0913558
1 0.95288 0.0945907
0.00537118 0.0360571 0.053254
0.00630198 0.0368048 0.0555276
0.00984207 0.0379797 0.0583963
0.0367742 0.0407111 0.063386
0.112337 0.0457465 0.0723125
0.214633 0.055787 0.0817121
0.367117 0.0661021 0.0918593
0.58529 0.0903792 0.111788
0.824231 0.12459 0.132815
0.00521859 0.0401617 0.0596017
0.0059205 0.0408789 0.0616312
0.010193 0.0432593 0.0651408
0.0573739 0.0475929 0.0758221
0.148562 0.0559243 0.0850385
0.26775 0.0634318 0.0932021
0.443503 0.0770123 0.105638
0.678019 0.106157 0.126833
0.901808 0.142 0.148241
0.00445563 0.0525368 0.0699016
0.00553903 0.0559854 0.0745708
0.012604 0.0612039 0.0828412
0.0753033 0.0675059 0.0960403
0.189654 0.0747539 0.102876
0.331701 0.078172 0.10808
0.529351 0.0929732 0.121508
0.763821 0.124331 0.141665
0.967025 0.160555 0.164721
0.00143435 0.0944533 0.0945907
0.00183108 0.101595 0.0996872
0.00750744 0.109224 0.105501
0.0714733 0.119783 0.118624
0.228092 0.125368 0.127352
0.40325 0.12462 0.127199
0.613123 0.12578 0.137514
0.838361 0.148608 0.15758
0.996963 0.179248 0.179095
0 0.185992 0.103929
0 0.197391 0.109285
0 0.208133 0.113161
0.0108492 0.220951 0.10779
0.227893 0.226856 0.104967
0.464164 0.21503 0.121538
0.680293 0.223606 0.139696
0.905119 0.223835 0.16672
1 0.217456 0.193622
0 0.290623 0.0775616
0 0.304845 0.0836652
0 0.31873 0.0894942
0 0.330968 0.0889906
0.0721294 0.37438 0.0676585
0.470588 0.381064 0.0588846
0.745159 0.364218 0.0797742
0.960678 0.388907 0.117998
1 0.384894 0.162997
0 0.421424 0.0652171
0 0.439017 0.0724651
0 0.461784 0.0788128
0 0.498756 0.0698863
0.016907 0.536812 0.0570382
0.338857 0.566415 0.0668193
0.736858 0.616693 0.0283818
0.98117 0.599695 0.058793
1 0.585855 0.0868849
0 0.612604 0.0758068
0 0.627054 0.0902571
0.000183108 0.640436 0.10367
0.000900282 0.652323 0.118379
0.044007 0.67924 0.118029
0.179065 0.715679 0.111528
0.614923 0.780377 0.108827
0.945388 0.862684 0.082063
1 0.853391 0.0850538
0.00653086 0.789715 0.0886244
0.00344854 0.800198 0.0927443
0.000946059 0.801678 0.101534
0 0.802884 0.114107
0.00242618 0.803952 0.123491
0.135851 0.831601 0.104982
0.598306 0.868711 0.150225
0.961822 0.93698 0.150286
1 0.95172 0.155566
0.00476081 0.0373999 0.0647746
0.00555428 0.0379492 0.0672465
0.00817884 0.0390173 0.0699931
0.0327916 0.0432441 0.0794995
0.123888 0.0488594 0.0928817
0.235279 0.0632181 0.110079
0.394888 0.0766613 0.124804
0.612222 0.100221 0.142916
0.844678 0.134691 0.163561
0.00344854 0.0409552 0.0721141
0.00450141 0.0424506 0.0761578
0.00895705 0.0462348 0.082948
0.0497597 0.0526741 0.0966964
0.162463 0.0599985 0.11194
0.29218 0.0736095 0.129885
0.47512 0.0908675 0.146136
0.702785 0.117845 0.164767
0.921447 0.153338 0.183612
0.0027924 0.0551156 0.0897841
0.00383001 0.0586404 0.0964523
0.010071 0.0648356 0.105287
0.063386 0.0728466 0.122728
0.207813 0.0794537 0.139315
0.359945 0.0904707 0.154131
0.560082 0.108934 0.170397
0.790051 0.13875 0.185946
0.980392 0.172335 0.20415
0.00378424 0.094316 0.122484
0.00392157 0.101701 0.130678
0.00816358 0.109773 0.141939
0.0561074 0.122454 0.164401
0.245228 0.128527 0.184344
0.430793 0.13135 0.188251
0.645396 0.139147 0.195254
0.864134 0.163592 0.210178
1 0.191989 0.225544
0 0.179995 0.163668
1.5259e-05 0.191119 0.175097
0.000442512 0.203464 0.186099
0.0113375 0.217227 0.200488
0.190631 0.233204 0.219547
0.459297 0.232685 0.227832
0.693874 0.229648 0.226551
0.918502 0.224857 0.234821
1 0.223285 0.245624
0 0.313222 0.180148
0 0.329778 0.191043
0 0.346975 0.203861
0 0.361074 0.209293
0.0198062 0.3785 0.200855
0.45069 0.402792 0.172808
0.731899 0.393072 0.211475
0.954879 0.405631 0.230091
1 0.382849 0.251469
0 0.44387 0.156329
0 0.463233 0.168856
0 0.484413 0.184665
0 0.50573 0.193927
1.5259e-05 0.53753 0.195758
0.249027 0.581247 0.16733
0.723125 0.628901 0.152071
0.978088 0.611719 0.175891
1 0.604898 0.192935
0 0.609522 0.171771
0 0.626749 0.191821
0 0.644633 0.213672
0 0.661494 0.233616
0.00244144 0.676677 0.242557
0.0840009 0.694636 0.237354
0.570321 0.786648 0.212696
0.939879 0.867247 0.194598
1 0.862181 0.201236
0 0.785153 0.189837
0 0.791745 0.210788
0 0.798901 0.233326
0 0.803738 0.255543
7.62951e-05 0.806882 0.270314
0.0395056 0.810712 0.257435
0.557626 0.870405 0.253208
0.959426 0.937133 0.267857
1 0.948058 0.276402
0.0027924 0.0392767 0.0813611
0.00326543 0.0410468 0.0863203
0.00645457 0.0449378 0.0949416
0.0268254 0.0502327 0.105867
0.116701 0.0572824 0.129915
0.261189 0.0764477 0.154406
0.42884 0.0957046 0.179492
0.64535 0.120409 0.199222
0.868772 0.151354 0.214298
0.00148013 0.0458381 0.095613
0.00250248 0.0486458 0.10161
0.00723278 0.0532845 0.111192
0.0398413 0.0597543 0.127932
0.159731 0.0689555 0.156924
0.321309 0.090547 0.182971
0.509544 0.114443 0.210178
0.735683 0.139651 0.225025
0.940764 0.171191 0.239002
0.000701915 0.0595102 0.116762
0.00164797 0.0628061 0.125093
0.00714122 0.0688792 0.139834
0.0464027 0.0792859 0.163317
0.201099 0.0859541 0.194766
0.387442 0.110277 0.21735
0.595224 0.137438 0.243626
0.818433 0.163256 0.254551
0.988266 0.191608 0.267887
0.000488289 0.0982071 0.162203
0.000808728 0.105547 0.173571
0.00424201 0.112718 0.189319
0.03093 0.124681 0.219806
0.217945 0.126177 0.253025
0.457908 0.147829 0.262425
0.677485 0.165972 0.27776
0.89131 0.189563 0.286885
1 0.213458 0.296803
1.5259e-05 0.177478 0.224262
0 0.188098 0.239063
0.000289921 0.200214 0.255863
0.0084535 0.213321 0.278248
0.136248 0.231235 0.324483
0.480644 0.241794 0.329778
0.726055 0.241108 0.32285
0.944762 0.238621 0.324376
1 0.243122 0.327459
0 0.304402 0.283742
0 0.320562 0.299748
0 0.338186 0.318761
3.0518e-05 0.358724 0.337423
0.0226596 0.380346 0.363287
0.379263 0.409751 0.384787
0.710842 0.414847 0.393027
0.95172 0.406851 0.389197
1 0.365103 0.374899
0 0.496574 0.328588
0 0.521752 0.351919
0 0.543206 0.370382
0 0.56672 0.390936
0 0.582483 0.401007
0.134569 0.59202 0.382223
0.679728 0.64239 0.349828
0.958907 0.637659 0.389853
1 0.637934 0.40206
0 0.642237 0.329931
0 0.66247 0.352041
0 0.686885 0.381506
0 0.708598 0.406744
0 0.71986 0.413199
0.0162203 0.735348 0.424994
0.477394 0.786923 0.383825
0.919661 0.869032 0.374502
1 0.867231 0.384176
0 0.800031 0.357275
0 0.805051 0.380468
0 0.817807 0.408591
0 0.828016 0.436423
0 0.834592 0.454139
0.00428779 0.838804 0.461997
0.470359 0.869825 0.41677
0.950439 0.932311 0.441154
0.999283 0.941711 0.452064
0.0010071 0.0523384 0.117266
0.00201419 0.0558938 0.126253
0.00497444 0.0607309 0.139147
0.0187686 0.0692149 0.158587
0.0973526 0.077348 0.189349
0.27248 0.0935836 0.224582
0.4654 0.125216 0.254566
0.683467 0.153735 0.280049
0.896223 0.180896 0.294194
0.000885023 0.0615091 0.139544
0.00202945 0.06598 0.151232
0.00537118 0.0718395 0.165255
0.0251469 0.0834821 0.192203
0.128359 0.0905776 0.228275
0.329747 0.113451 0.264195
0.547158 0.149599 0.293507
0.769528 0.177157 0.314488
0.962646 0.202991 0.325719
0.0009308 0.0754559 0.16875
0.0018616 0.0809186 0.180713
0.00495918 0.0885634 0.198993
0.0243076 0.101823 0.232395
0.152392 0.109712 0.278172
0.389105 0.139254 0.312383
0.629816 0.17557 0.33434
0.848692 0.203113 0.351476
0.997192 0.227863 0.363302
6.10361e-05 0.102983 0.21622
0.000549325 0.109728 0.232425
0.0034638 0.116182 0.249683
0.0173648 0.131365 0.288411
0.159152 0.140658 0.336858
0.443168 0.169284 0.362921
0.708186 0.20383 0.374502
0.920165 0.230838 0.3888
1 0.254002 0.399924
0 0.175494 0.303334
0 0.186603 0.323598
0 0.199069 0.346151
0.00199893 0.209796 0.373114
0.0865949 0.227375 0.427008
0.453437 0.232547 0.445747
0.76022 0.257237 0.42298
0.966644 0.272007 0.4318
1 0.283619 0.43679
0 0.302144 0.384878
0 0.318532 0.403845
0 0.335546 0.424125
0 0.353597 0.448859
0.0150454 0.370504 0.476036
0.303273 0.407111 0.550668
0.724147 0.422431 0.522515
0.965316 0.416327 0.514794
1 0.38143 0.498054
0 0.477607 0.46865
0 0.500404 0.491157
0 0.522087 0.514946
0 0.546639 0.540063
0 0.568475 0.562463
0.118883 0.605035 0.601648
0.605127 0.643275 0.621332
0.935378 0.653346 0.627024
1 0.646494 0.627619
0 0.719966 0.566873
0 0.747738 0.598688
0 0.768444 0.625223
0 0.790265 0.651209
0 0.813764 0.673899
0.00361639 0.825605 0.685618
0.356573 0.819684 0.643641
0.884062 0.870314 0.607462
0.997131 0.878141 0.627817
0 0.881392 0.608667
0 0.89865 0.652277
0 0.908949 0.687938
0 0.914641 0.719829
0 0.918822 0.741375
0 0.914626 0.750729
0.384756 0.887922 0.686961
0.927886 0.926696 0.665766
0.977081 0.936065 0.682704
0.00210575 0.0795605 0.187243
0.00288396 0.0858167 0.202335
0.00430304 0.0929122 0.21976
0.0107576 0.102373 0.2448
0.0560616 0.116365 0.281651
0.222309 0.121904 0.33518
0.460761 0.162783 0.361913
0.719997 0.196857 0.376684
0.925292 0.224628 0.396353
0.00204471 0.0961776 0.224247
0.00262455 0.10341 0.241764
0.00442512 0.111513 0.262303
0.011017 0.122255 0.292439
0.0715496 0.137911 0.33518
0.274205 0.1449 0.394568
0.534966 0.192615 0.410315
0.801083 0.221912 0.412436
0.981384 0.250065 0.428794
0.00137331 0.116533 0.269306
0.00164797 0.124834 0.289708
0.00344854 0.134051 0.314488
0.00970474 0.146242 0.348119
0.0818647 0.163653 0.397391
0.327291 0.173281 0.453239
0.61117 0.220874 0.456947
0.87657 0.249348 0.449592
1 0.276051 0.467094
0 0.140948 0.323827
6.10361e-05 0.149508 0.346456
0.00138857 0.160128 0.375723
0.00622568 0.173297 0.409537
0.0860609 0.193286 0.461799
0.377981 0.202625 0.513375
0.681163 0.249897 0.500847
0.940826 0.276951 0.490028
1 0.302159 0.517449
0 0.182116 0.400427
0 0.195666 0.429038
0 0.209659 0.462669
0.000411994 0.222614 0.495811
0.0482795 0.244343 0.547463
0.382452 0.250111 0.583719
0.728923 0.2878 0.547784
0.97731 0.309255 0.546487
1 0.33048 0.578576
0 0.311467 0.509483
0 0.329885 0.534096
0 0.349203 0.559518
0 0.367422 0.586099
0.000961318 0.383505 0.613611
0.242161 0.415412 0.695491
0.679377 0.415381 0.666026
0.964706 0.431174 0.649287
1 0.408042 0.655818
0 0.472923 0.587976
0 0.493736 0.611399
0 0.514382 0.636088
0 0.537713 0.667018
0 0.557153 0.692515
0.118791 0.586328 0.737926
0.547936 0.629877 0.815366
0.922728 0.646693 0.793881
1 0.651423 0.79823
0 0.679469 0.705364
0 0.700877 0.731502
0 0.721843 0.75729
0 0.740353 0.779995
0 0.761959 0.804898
0.0136873 0.781842 0.829816
0.367559 0.824231 0.86598
0.835996 0.865538 0.867201
0.97348 0.880812 0.873976
0 0.88542 0.810529
0 0.877867 0.828641
0 0.86862 0.845396
0 0.858717 0.859815
0 0.854994 0.875669
0 0.858976 0.886534
0.415473 0.891646 0.897047
0.906905 0.918959 0.873213
0.947723 0.919387 0.868727
0.00167849 0.126711 0.304845
0.00169375 0.135897 0.326986
0.00259403 0.145556 0.350683
0.00509651 0.155932 0.379004
0.016083 0.169299 0.41471
0.148806 0.18613 0.467689
0.41651 0.198474 0.515251
0.693812 0.245899 0.506218
0.945724 0.271778 0.493889
0.000289921 0.149722 0.358557
0.000427253 0.158877 0.383734
0.00109865 0.169314 0.412589
0.00355535 0.180652 0.443809
0.0187686 0.195331 0.480003
0.195621 0.212451 0.531197
0.495018 0.228855 0.565637
0.772702 0.272236 0.542992
0.986557 0.29633 0.550256
0 0.172641 0.41944
0 0.18291 0.448096
4.57771e-05 0.194354 0.479255
0.00148013 0.205676 0.511238
0.0224002 0.222736 0.550576
0.244709 0.239246 0.597498
0.568292 0.263416 0.609842
0.843778 0.298924 0.590311
0.998306 0.320546 0.61387
0 0.198779 0.487236
0 0.209232 0.515663
0 0.22118 0.547799
0.000167849 0.232914 0.580941
0.0251621 0.250645 0.621668
0.293095 0.265583 0.654856
0.630701 0.295247 0.651682
0.899229 0.326146 0.651118
1 0.347814 0.677501
0 0.229358 0.5579
0 0.241108 0.58854
0 0.253315 0.624338
0 0.268894 0.659617
0.0103914 0.28629 0.700633
0.30425 0.300282 0.719158
0.675166 0.321309 0.713283
0.936187 0.35729 0.716487
1 0.379782 0.748272
0 0.32604 0.659693
0 0.346502 0.685145
0 0.368444 0.713649
0 0.385977 0.744701
1.5259e-05 0.398596 0.769711
0.162936 0.432914 0.84622
0.616999 0.411612 0.824933
0.947509 0.439384 0.778653
1 0.440787 0.790219
0 0.488182 0.72462
0 0.509392 0.749859
0 0.530022 0.772808
0 0.550683 0.788937
0 0.567636 0.803998
0.0782788 0.595254 0.836545
0.511879 0.632792 0.918776
0.919036 0.63679 0.880934
1 0.658915 0.867216
0 0.667353 0.822705
0 0.689296 0.834257
0 0.711986 0.846189
0 0.733013 0.854643
0 0.753491 0.865919
0.0156252 0.775158 0.876173
0.394598 0.816159 0.899275
0.841169 0.870497 0.89839
0.967758 0.887312 0.881498
0 0.83888 0.879805
0 0.84271 0.880858
0 0.843061 0.880995
0 0.843488 0.881437
0 0.84831 0.886854
0 0.856184 0.891814
0.448997 0.892409 0.900786
0.927337 0.919188 0.872938
0.947723 0.919387 0.868727
