modules/detection_bypass/_luts/LOW_SAT_-_Braw_Vivid_Ludeman_LUT.cube
TITLE "Generated by Resolve"
LUT_3D_SIZE 5
0.00538643 0.0355077 0.0424048
0.0101167 0.0369879 0.0452735
0.0921492 0.0453346 0.0527047
0.332723 0.0694133 0.0630503
0.787915 0.116213 0.101549
0.00430304 0.0522011 0.0502937
0.0126497 0.0597543 0.0516823
0.167803 0.0712596 0.0615702
0.484901 0.0933089 0.0741894
0.940307 0.153017 0.122408
0 0.17145 0.0310979
1.5259e-05 0.194247 0.0230716
0.240467 0.203983 0.0169985
0.659525 0.204334 0.0440833
1 0.219013 0.132067
0 0.424506 0.00721752
0 0.47306 0.00460822
0.09897 0.53254 0.00180056
0.725216 0.592035 0.000869764
1 0.561364 0.0328832
0.0562753 0.779706 0.0542306
0.0534676 0.818631 0.0368963
0.0665599 0.828794 0.0350195
0.568093 0.860319 0.0805066
1 0.954269 0.0669108
0.00534066 0.0356298 0.0467994
0.0105592 0.0372778 0.0514076
0.102663 0.0446784 0.0599222
0.348959 0.066865 0.0738842
0.808789 0.118807 0.115602
0.00418097 0.0520027 0.0593271
0.0129854 0.058854 0.0655833
0.174853 0.0755932 0.0810254
0.503807 0.0910048 0.0965744
0.955444 0.153903 0.141756
0 0.17911 0.0589303
0 0.199954 0.0590066
0.243687 0.215473 0.0482948
0.670481 0.215381 0.0842603
1 0.221775 0.161532
0 0.421851 0.031281
0 0.465339 0.0349584
0.0712291 0.541497 0.0165713
0.736278 0.606394 0.00334173
1 0.576349 0.0507362
0.0345312 0.790677 0.064744
0.026566 0.814038 0.0591745
0.0374762 0.821302 0.0600443
0.600931 0.863432 0.102327
1 0.95288 0.0945907
0.00476081 0.0373999 0.0647746
0.00817884 0.0390173 0.0699931
0.123888 0.0488594 0.0928817
0.394888 0.0766613 0.124804
0.844678 0.134691 0.163561
0.0027924 0.0551156 0.0897841
0.010071 0.0648356 0.105287
0.207813 0.0794537 0.139315
0.560082 0.108934 0.170397
0.980392 0.172335 0.20415
0 0.179995 0.163668
0.000442512 0.203464 0.186099
0.190631 0.233204 0.219547
0.693874 0.229648 0.226551
1 0.223285 0.245624
0 0.44387 0.156329
0 0.484413 0.184665
1.5259e-05 0.53753 0.195758
0.723125 0.628901 0.152071
1 0.604898 0.192935
0 0.785153 0.189837
0 0.798901 0.233326
7.62951e-05 0.806882 0.270314
0.557626 0.870405 0.253208
1 0.948058 0.276402
0.0010071 0.0523384 0.117266
0.00497444 0.0607309 0.139147
0.0973526 0.077348 0.189349
0.4654 0.125216 0.254566
0.896223 0.180896 0.294194
0.0009308 0.0754559 0.16875
0.00495918 0.0885634 0.198993
0.152392 0.109712 0.278172
0.629816 0.17557 0.33434
0.997192 0.227863 0.363302
0 0.175494 0.303334
0 0.199069 0.346151
0.0865949 0.227375 0.427008
0.76022 0.257237 0.42298
1 0.283619 0.43679
0 0.477607 0.46865
0 0.522087 0.514946
0 0.568475 0.562463
0.605127 0.643275 0.621332
1 0.646494 0.627619
0 0.881392 0.608667
0 0.908949 0.687938
0 0.918822 0.741375
0.384756 0.887922 0.686961
0.977081 0.936065 0.682704
0.00167849 0.126711 0.304845
0.00259403 0.145556 0.350683
0.016083 0.169299 0.41471
0.41651 0.198474 0.515251
0.945724 0.271778 0.493889
0 0.172641 0.41944
4.57771e-05 0.194354 0.479255
0.0224002 0.222736 0.550576
0.568292 0.263416 0.609842
0.998306 0.320546 0.61387
0 0.229358 0.5579
0 0.253315 0.624338
0.0103914 0.28629 0.700633
0.675166 0.321309 0.713283
1 0.379782 0.748272
0 0.488182 0.72462
0 0.530022 0.772808
0 0.567636 0.803998
0.511879 0.632792 0.918776
1 0.658915 0.867216
0 0.83888 0.879805
0 0.843061 0.880995
0 0.84831 0.886854
0.448997 0.892409 0.900786
0.947723 0.919387 0.868727
