modules/detection_bypass/_luts/natural_look.cube
LUT_3D_SIZE 16
0.016493 0.000000 0.040426
0.016493 -0.000249 0.040425
0.152991 -0.000549 0.040432
0.285071 -0.000870 0.040430
0.393238 -0.001204 0.040424
0.485178 -0.001546 0.040423
0.567326 -0.001893 0.040420
0.644795 -0.002236 0.040412
0.716517 -0.002563 0.040405
0.779307 -0.002871 0.040398
0.831229 -0.003154 0.040390
0.873465 -0.003410 0.040384
0.907426 -0.003632 0.040374
0.933619 -0.003813 0.040362
0.950943 -0.003942 0.040358
0.957918 -0.003996 0.040356
0.016492 0.005956 0.040432
0.017200 0.005956 0.040432
0.152991 0.068454 0.040431
0.285071 0.088875 0.040429
0.393238 0.094923 0.040424
0.485178 0.095743 0.040422
0.567326 0.094799 0.040420
0.644795 0.093640 0.040411
0.716517 0.092043 0.040404
0.779307 0.089698 0.040397
0.831229 0.086541 0.040389
0.873465 0.082873 0.040383
0.907426 0.078977 0.040373
0.933619 0.074968 0.040361
0.950943 0.070821 0.040357
0.957918 0.066308 0.040356
0.016490 0.148332 0.040429
0.077952 0.148332 0.040429
0.154965 0.148331 0.040428
0.285071 0.188678 0.040424
0.393237 0.200703 0.040420
0.485178 0.202262 0.040423
0.567326 0.200415 0.040413
0.644795 0.198146 0.040409
0.716517 0.195001 0.040400
0.779307 0.190343 0.040393
0.831229 0.184015 0.040389
0.873465 0.176554 0.040379
0.907426 0.168565 0.040375
0.933619 0.160193 0.040357
0.950943 0.151394 0.040356
0.957917 0.141756 0.040353
0.016480 0.282651 0.040420
0.097147 0.282651 0.040420
0.194313 0.282651 0.040423
0.285967 0.282651 0.040421
0.393236 0.298283 0.040422
0.485178 0.300493 0.040413
0.567326 0.297987 0.040411
0.644863 0.294783 0.040403
0.716517 0.290479 0.040397
0.779307 0.284082 0.040390
0.831229 0.275347 0.040379
0.873465 0.265104 0.040375
0.907426 0.254089 0.040361
0.933619 0.242609 0.040358
0.950942 0.230545 0.040350
0.957917 0.217194 0.040348
0.016464 0.389258 0.040414
0.102676 0.389258 0.040414
0.205226 0.389258 0.040413
0.301421 0.389257 0.040414
0.393127 0.389257 0.040411
0.485177 0.392204 0.040405
0.567326 0.388985 0.040400
0.644863 0.385030 0.040395
0.716517 0.379595 0.040389
0.779307 0.371493 0.040379
0.831228 0.360523 0.040375
0.873465 0.347615 0.040361
0.907426 0.333780 0.040357
0.933619 0.319335 0.040347
0.950942 0.304147 0.040349
0.957917 0.287388 0.040348
0.016437 0.478361 0.040403
0.103257 0.478361 0.040403
0.206382 0.478361 0.040402
0.303044 0.478361 0.040399
0.395130 0.478360 0.040401
0.484101 0.478360 0.040396
0.567325 0.475646 0.040388
0.644863 0.470838 0.040384
0.716516 0.464374 0.040377
0.779306 0.454729 0.040374
0.831228 0.441520 0.040357
0.873465 0.426136 0.040351
0.907426 0.409540 0.040349
0.933619 0.392244 0.040339
0.950942 0.374126 0.040339
0.957917 0.354053 0.040340
0.016406 0.557558 0.040388
0.102288 0.557558 0.040388
0.204524 0.557558 0.040385
0.300429 0.557558 0.040388
0.391795 0.557558 0.040382
0.480005 0.557558 0.040382
0.565800 0.557558 0.040379
0.644862 0.553478 0.040373
0.716516 0.545885 0.040356
0.779306 0.534732 0.040350
0.831228 0.519500 0.040347
0.873465 0.501575 0.040340
0.907425 0.482375 0.040331
0.933618 0.462337 0.040330
0.950942 0.441375 0.040330
0.957917 0.418151 0.040332
0.016361 0.632053 0.040368
0.101190 0.632053 0.040368
0.202344 0.632053 0.040362
0.297370 0.632053 0.040360
0.387885 0.632053 0.040358
0.475280 0.632053 0.040358
0.560243 0.632053 0.040351
0.643333 0.632052 0.040348
0.716515 0.624964 0.040338
0.779305 0.612225 0.040332
0.831227 0.594988 0.040330
0.873464 0.574711 0.040319
0.907425 0.552933 0.040314
0.933618 0.530257 0.040312
0.950941 0.506466 0.040312
0.957917 0.480101 0.040314
0.016308 0.700159 0.040339
0.099603 0.700159 0.040339
0.199281 0.700159 0.040338
0.292973 0.700159 0.040340
0.382315 0.700159 0.040337
0.468506 0.700159 0.040331
0.552343 0.700159 0.040330
0.634278 0.700159 0.040324
0.714693 0.700159 0.040314
0.779304 0.687776 0.040312
0.831227 0.668479 0.040306
0.873464 0.645920 0.040303
0.907424 0.621677 0.040296
0.933617 0.596341 0.040294
0.950941 0.569864 0.040296
0.957916 0.540487 0.040306
0.016249 0.759039 0.040314
0.097244 0.759039 0.040314
0.194552 0.759039 0.040313
0.286349 0.759040 0.040310
0.373805 0.759040 0.040312
0.458240 0.759039 0.040307
0.540295 0.759039 0.040301
0.620518 0.759039 0.040294
0.699306 0.759039 0.040292
0.776661 0.759038 0.040288
0.831226 0.740403 0.040278
0.873463 0.715369 0.040272
0.907424 0.688774 0.040274
0.933617 0.660900 0.040274
0.950941 0.631721 0.040275
0.957916 0.599474 0.040284
0.016186 0.807161 0.040288
0.094056 0.807161 0.040288
0.188240 0.807161 0.040287
0.277380 0.807161 0.040285
0.362350 0.807161 0.040286
0.444283 0.807161 0.040279
0.524036 0.807161 0.040273
0.601930 0.807161 0.040270
0.678362 0.807161 0.040268
0.753538 0.807161 0.040257
0.827462 0.807161 0.040248
0.873462 0.783556 0.040249
0.907423 0.754519 0.040248
0.933616 0.724098 0.040247
0.950940 0.692299 0.040256
0.957915 0.657160 0.040267
0.016121 0.846212 0.040260
0.090418 0.846212 0.040260
0.180907 0.846212 0.040259
0.267043 0.846212 0.040257
0.349090 0.846212 0.040258
0.428269 0.846212 0.040251
0.505261 0.846212 0.040247
0.580498 0.846212 0.040244
0.654322 0.846212 0.040243
0.726991 0.846212 0.040229
0.798301 0.846211 0.040220
0.868921 0.846211 0.040212
0.907422 0.819031 0.040214
0.933615 0.786301 0.040219
0.950939 0.751886 0.040226
0.957915 0.713766 0.040244
0.016057 0.877695 0.040236
0.086632 0.877695 0.040235
0.173200 0.877695 0.040234
0.256131 0.877695 0.040229
0.335137 0.877695 0.040226
0.411318 0.877695 0.040228
0.485454 0.877695 0.040220
0.557886 0.877695 0.040217
0.628963 0.877695 0.040211
0.698756 0.877695 0.040202
0.767463 0.877695 0.040193
0.835480 0.877694 0.040187
0.902382 0.877694 0.040173
0.933615 0.847164 0.040182
0.950939 0.810271 0.040192
0.957914 0.769550 0.040215
0.015999 0.902437 0.040210
0.082742 0.902437 0.040210
0.165198 0.902437 0.040207
0.244836 0.902437 0.040205
0.320654 0.902437 0.040202
0.393803 0.902437 0.040197
0.464950 0.902437 0.040196
0.534399 0.902437 0.040189
0.602604 0.902437 0.040189
0.669644 0.902437 0.040177
0.735681 0.902437 0.040170
0.800852 0.902437 0.040164
0.865010 0.902436 0.040152
0.928470 0.902436 0.040145
0.950938 0.868107 0.040161
0.957914 0.824582 0.040181
0.015957 0.919631 0.040188
0.078750 0.919631 0.040187
0.156858 0.919631 0.040190
0.233044 0.919631 0.040188
0.305564 0.919631 0.040185
0.375548 0.919631 0.040182
0.443524 0.919631 0.040175
0.510011 0.919631 0.040173
0.575203 0.919631 0.040169
0.639324 0.919631 0.040164
0.702426 0.919631 0.040157
0.764664 0.919630 0.040152
0.826120 0.919630 0.040141
0.887014 0.919630 0.040128
0.945994 0.919630 0.040124
0.957913 0.878512 0.040149
0.015938 0.927078 0.040176
0.074448 0.927078 0.040176
0.147704 0.927078 0.040175
0.220144 0.927078 0.040181
0.289049 0.927078 0.040176
0.355509 0.927078 0.040173
0.420204 0.927078 0.040172
0.483302 0.927078 0.040171
0.545218 0.927078 0.040164
0.606126 0.927078 0.040161
0.666052 0.927078 0.040153
0.725218 0.927078 0.040147
0.783660 0.927077 0.040143
0.841470 0.927077 0.040132
0.898469 0.927077 0.040125
0.953336 0.927077 0.040108
0.016493 -0.000165 0.050148
0.018965 -0.000284 0.050148
0.152991 -0.000564 0.115431
0.285071 -0.000879 0.136792
0.393238 -0.001210 0.143131
0.485178 -0.001551 0.143957
0.567326 -0.001896 0.142982
0.644795 -0.002239 0.141765
0.716517 -0.002566 0.140099
0.779307 -0.002873 0.137670
0.831229 -0.003156 0.134361
0.873465 -0.003411 0.130524
0.907426 -0.003633 0.126454
0.933619 -0.003814 0.122252
0.950943 -0.003943 0.117918
0.957918 -0.003997 0.113184
0.016492 0.007768 0.050148
0.016493 0.006491 0.050518
0.163388 0.000509 0.060987
0.296752 0.000000 0.063471
0.401519 0.000000 0.063243
0.490865 0.000000 0.062467
0.571470 0.000000 0.061673
0.648096 0.000000 0.061082
0.719090 0.000000 0.060651
0.781313 0.000000 0.060230
0.832802 0.000000 0.059784
0.874701 0.000000 0.059337
0.908594 0.000000 0.058946
0.934585 0.000000 0.058641
0.951812 0.000000 0.058435
0.958790 0.000000 0.058348
0.016489 0.148332 0.116437
0.016493 0.151539 0.066690
0.155229 0.149212 0.040426
0.290427 0.181433 0.040426
0.398425 0.188729 0.040426
0.489421 0.188024 0.040426
0.570755 0.185096 0.040426
0.647695 0.182282 0.040426
0.718920 0.178885 0.040426
0.781233 0.174214 0.040426
0.832764 0.168058 0.040426
0.874655 0.160914 0.040426
0.908588 0.153331 0.040426
0.934613 0.145443 0.040426
0.951778 0.137329 0.040426
0.958742 0.128502 0.040426
0.016480 0.282651 0.137145
0.016493 0.284427 0.070023
0.183815 0.284028 0.040426
0.286105 0.283084 0.040426
0.395376 0.295486 0.040426
0.487548 0.295651 0.040426
0.569562 0.292006 0.040426
0.647002 0.288194 0.040426
0.718352 0.283463 0.040426
0.780877 0.276808 0.040426
0.832603 0.267986 0.040426
0.874505 0.257795 0.040426
0.908487 0.246926 0.040426
0.934515 0.235575 0.040426
0.951764 0.223751 0.040426
0.958746 0.210632 0.040426
0.016463 0.389258 0.143069
0.016493 0.390219 0.070143
0.190775 0.390112 0.040426
0.297090 0.389865 0.040426
0.393133 0.389434 0.040426
0.486174 0.390706 0.040426
0.568579 0.386480 0.040426
0.646232 0.381798 0.040426
0.717829 0.375944 0.040426
0.780566 0.367596 0.040426
0.832273 0.356435 0.040426
0.874418 0.343437 0.040426
0.908326 0.329609 0.040426
0.934370 0.315233 0.040426
0.951652 0.300177 0.040426
0.958605 0.283529 0.040426
0.016437 0.478361 0.143686
0.016493 0.478985 0.069330
0.190479 0.478985 0.040426
0.296756 0.478917 0.040426
0.392939 0.478731 0.040426
0.484198 0.478536 0.040426
0.567819 0.474817 0.040426
0.645620 0.469346 0.040426
0.717300 0.462398 0.040426
0.780255 0.452428 0.040426
0.832106 0.439048 0.040426
0.874142 0.423548 0.040426
0.908071 0.406947 0.040426
0.934348 0.389623 0.040426
0.951509 0.371486 0.040426
0.958542 0.351570 0.040426
0.016406 0.557558 0.142654
0.016493 0.557935 0.068401
0.188056 0.557977 0.040426
0.293161 0.557888 0.040426
0.388379 0.557869 0.040426
0.478675 0.557761 0.040426
0.565851 0.557685 0.040426
0.645143 0.552905 0.040426
0.716945 0.544922 0.040426
0.779934 0.533447 0.040426
0.831836 0.517963 0.040426
0.873887 0.499853 0.040426
0.907921 0.480664 0.040426
0.934157 0.460567 0.040426
0.951444 0.439591 0.040426
0.958492 0.416389 0.040426
0.016360 0.632053 0.141470
0.016493 0.632363 0.067699
0.185723 0.632399 0.040426
0.289661 0.632355 0.040426
0.383803 0.632316 0.040426
0.473139 0.632246 0.040426
0.559424 0.632249 0.040426
0.643326 0.632085 0.040426
0.716715 0.624611 0.040426
0.779709 0.611565 0.040426
0.831537 0.594075 0.040426
0.873745 0.573603 0.040426
0.907856 0.551764 0.040426
0.933988 0.529026 0.040426
0.951299 0.505218 0.040426
0.958351 0.478916 0.040426
0.016308 0.700159 0.139782
0.016493 0.700412 0.067147
0.182627 0.700438 0.040426
0.285067 0.700416 0.040426
0.377853 0.700382 0.040426
0.465898 0.700386 0.040426
0.550928 0.700371 0.040426
0.633701 0.700307 0.040426
0.714654 0.700199 0.040426
0.779608 0.687581 0.040426
0.831461 0.668053 0.040426
0.873725 0.645215 0.040426
0.907807 0.620907 0.040426
0.933876 0.595478 0.040426
0.951278 0.568947 0.040426
0.958297 0.539643 0.040426
0.016250 0.759039 0.137242
0.016493 0.759255 0.066604
0.178153 0.759171 0.040426
0.278389 0.759283 0.040426
0.369169 0.759232 0.040426
0.455380 0.759244 0.040426
0.538560 0.759162 0.040426
0.619521 0.759176 0.040426
0.698747 0.759201 0.040426
0.776625 0.759100 0.040426
0.831445 0.740151 0.040426
0.873540 0.714951 0.040426
0.907672 0.688323 0.040426
0.933731 0.660384 0.040426
0.951091 0.631127 0.040426
0.958210 0.598865 0.040426
0.016186 0.807161 0.133821
0.016493 0.807310 0.065988
0.172149 0.807338 0.040426
0.269486 0.807327 0.040426
0.357603 0.807310 0.040426
0.441283 0.807288 0.040426
0.522068 0.807260 0.040426
0.600662 0.807226 0.040426
0.677651 0.807226 0.040426
0.753060 0.807187 0.040426
0.827464 0.807176 0.040426
0.873499 0.783459 0.040426
0.907603 0.754194 0.040426
0.933728 0.723810 0.040426
0.951114 0.691889 0.040426
0.958170 0.656761 0.040426
0.016120 0.846212 0.129923
0.016493 0.846285 0.065392
0.165269 0.846265 0.040426
0.259295 0.846257 0.040426
0.344413 0.846292 0.040426
0.425192 0.846275 0.040426
0.503206 0.846253 0.040426
0.579107 0.846227 0.040426
0.653399 0.846230 0.040426
0.726320 0.846236 0.040426
0.798102 0.846235 0.040426
0.868846 0.846201 0.040426
0.907494 0.818944 0.040426
0.933631 0.785990 0.040426
0.951193 0.751606 0.040426
0.958149 0.713531 0.040426
0.016057 0.877695 0.125839
0.016493 0.877722 0.064872
0.158041 0.877752 0.040426
0.248587 0.877746 0.040426
0.330534 0.877736 0.040426
0.408298 0.877722 0.040426
0.483347 0.877704 0.040426
0.556419 0.877682 0.040426
0.627876 0.877657 0.040426
0.698090 0.877716 0.040426
0.767014 0.877688 0.040426
0.835248 0.877657 0.040426
0.902305 0.877628 0.040426
0.933641 0.847167 0.040426
0.951051 0.810220 0.040426
0.958074 0.769263 0.040426
0.015999 0.902437 0.121639
0.016493 0.902569 0.064468
0.150549 0.902549 0.040426
0.237509 0.902544 0.040426
0.316153 0.902535 0.040426
0.390776 0.902575 0.040426
0.462826 0.902560 0.040426
0.532929 0.902543 0.040426
0.601535 0.902522 0.040426
0.668818 0.902500 0.040426
0.735089 0.902475 0.040426
0.800457 0.902450 0.040426
0.864891 0.902509 0.040426
0.928570 0.902484 0.040426
0.951055 0.867998 0.040426
0.958004 0.824400 0.040426
0.015957 0.919631 0.117311
0.016493 0.919786 0.064191
0.142715 0.919819 0.040426
0.225963 0.919815 0.040426
0.301231 0.919808 0.040426
0.372603 0.919798 0.040426
0.441429 0.919786 0.040426
0.508467 0.919771 0.040426
0.574114 0.919815 0.040426
0.638492 0.919795 0.040426
0.701802 0.919774 0.040426
0.764306 0.919751 0.040426
0.825911 0.919724 0.040426
0.886971 0.919700 0.040426
0.945984 0.919677 0.040426
0.957883 0.878440 0.040426
0.015938 0.927078 0.112649
0.016493 0.927078 0.064363
0.134253 0.927078 0.049896
0.213377 0.927078 0.049895
0.284857 0.927078 0.049894
0.352665 0.927078 0.049897
0.418032 0.927078 0.049889
0.481739 0.927078 0.049887
0.544060 0.927078 0.049887
0.605231 0.927078 0.049883
0.665322 0.927078 0.049882
0.724596 0.927077 0.049871
0.783167 0.927077 0.049859
0.841202 0.927077 0.049847
0.898336 0.927077 0.049844
0.953288 0.927077 0.049836
0.016493 -0.000363 0.198185
0.078862 -0.000431 0.198185
0.156885 -0.000626 0.198184
0.285071 -0.000919 0.234721
0.393238 -0.001238 0.246300
0.485178 -0.001572 0.247820
0.567326 -0.001913 0.246044
0.644795 -0.002253 0.243847
0.716517 -0.002578 0.240800
0.779307 -0.002883 0.236354
0.831229 -0.003164 0.230267
0.873465 -0.003419 0.223101
0.907426 -0.003639 0.215453
0.933619 -0.003820 0.207535
0.950943 -0.003948 0.199202
0.957918 -0.004001 0.190006
0.016493 0.070349 0.198185
0.016493 0.017833 0.209936
0.165719 0.000000 0.208072
0.295776 0.000000 0.232249
0.401098 0.000000 0.237100
0.490620 0.000000 0.235537
0.571347 0.000000 0.232424
0.647998 0.000000 0.229565
0.719011 0.000000 0.226238
0.781308 0.000000 0.221743
0.832772 0.000000 0.215857
0.874678 0.000000 0.209067
0.908575 0.000000 0.201875
0.934567 0.000000 0.194444
0.951799 0.000000 0.186690
0.958753 0.000000 0.178156
0.016489 0.150332 0.198184
0.016493 0.152516 0.200724
0.152345 0.148491 0.198952
0.294589 0.141624 0.193271
0.407309 0.128197 0.181016
0.501622 0.106595 0.160902
0.583662 0.085239 0.140586
0.660381 0.067790 0.124404
0.730199 0.054810 0.112883
0.790674 0.045344 0.104774
0.840478 0.038514 0.099031
0.881319 0.033629 0.094937
0.914390 0.030185 0.092034
0.939688 0.027822 0.090051
0.956620 0.026388 0.088814
0.963210 0.025811 0.088332
0.016481 0.282651 0.235367
0.016493 0.284221 0.226897
0.124539 0.286473 0.176456
0.285381 0.283758 0.166826
0.401900 0.281538 0.152741
0.496632 0.273084 0.136735
0.579628 0.263932 0.121393
0.657323 0.256488 0.108224
0.728138 0.249287 0.097926
0.789433 0.241203 0.090019
0.839716 0.231787 0.084070
0.880877 0.221694 0.079649
0.914142 0.211396 0.076456
0.939576 0.200915 0.074239
0.956316 0.190115 0.072882
0.963138 0.178332 0.072429
0.016463 0.389258 0.246190
0.016493 0.390144 0.233754
0.086321 0.393298 0.144483
0.275217 0.392191 0.130444
0.393098 0.390340 0.123974
0.490556 0.384140 0.114193
0.574763 0.375330 0.104702
0.653413 0.367831 0.096271
0.725177 0.359950 0.089435
0.787233 0.350114 0.083983
0.838239 0.338070 0.079730
0.879785 0.324789 0.076496
0.913296 0.310987 0.074110
0.938935 0.296893 0.072454
0.955765 0.282258 0.071469
0.962754 0.266291 0.071244
0.016438 0.478361 0.247319
0.016493 0.478963 0.233399
0.060617 0.481546 0.124005
0.264271 0.481164 0.103741
0.382164 0.480294 0.100532
0.484169 0.479190 0.096554
0.570665 0.471224 0.090883
0.649898 0.463152 0.085746
0.722358 0.454327 0.081506
0.785147 0.442961 0.078048
0.836647 0.428584 0.075270
0.878494 0.412472 0.073134
0.912309 0.395758 0.071532
0.938187 0.378366 0.070439
0.955312 0.360512 0.069811
0.962249 0.340905 0.069810
0.016405 0.557558 0.245454
0.016493 0.557910 0.230936
0.045130 0.559985 0.112972
0.255785 0.559871 0.086558
0.372033 0.559407 0.084967
0.472549 0.558844 0.082935
0.565925 0.558169 0.080610
0.647090 0.550877 0.077521
0.719965 0.541090 0.075027
0.783206 0.528279 0.072974
0.835254 0.511793 0.071330
0.877376 0.493087 0.070021
0.911466 0.473527 0.069083
0.937403 0.453332 0.068448
0.954618 0.432377 0.068150
0.961653 0.409369 0.068343
0.016360 0.632053 0.243336
0.016493 0.632358 0.228559
0.036176 0.634071 0.107303
0.249884 0.634074 0.076049
0.364537 0.633805 0.075237
0.463541 0.633444 0.074208
0.555596 0.633025 0.072979
0.643457 0.632563 0.071643
0.718140 0.623314 0.070234
0.781802 0.609042 0.069116
0.833992 0.590539 0.068202
0.876252 0.569396 0.067518
0.910418 0.547153 0.067029
0.936652 0.524262 0.066740
0.954004 0.500402 0.066673
0.961056 0.474172 0.066965
0.016307 0.700159 0.240261
0.016493 0.700408 0.225464
0.031244 0.701694 0.104259
0.244248 0.701763 0.069966
0.356936 0.701658 0.069572
0.454134 0.701411 0.069053
0.544671 0.701239 0.068423
0.631117 0.700957 0.067735
0.714849 0.700582 0.067029
0.780499 0.686640 0.066460
0.832943 0.666141 0.066025
0.875349 0.642715 0.065732
0.909695 0.617988 0.065550
0.935911 0.592334 0.065448
0.953332 0.565711 0.065520
0.960557 0.536403 0.065810
0.016249 0.759039 0.235576
0.016493 0.759250 0.220992
0.028694 0.760226 0.102176
0.237398 0.760348 0.066618
0.347386 0.760218 0.066417
0.442439 0.760069 0.066171
0.530810 0.759866 0.065895
0.615231 0.759808 0.065576
0.696978 0.759536 0.065249
0.776683 0.759299 0.064943
0.832093 0.739478 0.064796
0.874623 0.713761 0.064696
0.908980 0.686584 0.064661
0.935361 0.658246 0.064660
0.952836 0.628895 0.064729
0.960019 0.596618 0.064973
0.016185 0.807161 0.229310
0.016493 0.807308 0.215054
0.027636 0.808158 0.100446
0.228981 0.808121 0.065001
0.335662 0.808157 0.064916
0.427778 0.808092 0.064818
0.513381 0.807954 0.064710
0.595291 0.807809 0.064604
0.674607 0.807646 0.064496
0.751879 0.807513 0.064417
0.827470 0.807313 0.064382
0.873945 0.783001 0.064395
0.908416 0.753290 0.064395
0.934838 0.722426 0.064386
0.952277 0.690475 0.064404
0.959530 0.655254 0.064489
0.016120 0.846212 0.222053
0.016493 0.846283 0.208242
0.027431 0.846977 0.098990
0.219701 0.847030 0.064418
0.322643 0.846987 0.064403
0.411408 0.846882 0.064396
0.494081 0.846870 0.064385
0.573039 0.846816 0.064403
0.649521 0.846691 0.064435
0.724079 0.846500 0.064496
0.796974 0.846485 0.064603
0.868920 0.846442 0.064771
0.907896 0.818707 0.064733
0.934400 0.785371 0.064662
0.951842 0.750685 0.064538
0.959130 0.712646 0.064407
0.016056 0.877695 0.214378
0.016493 0.877721 0.201111
0.027723 0.878311 0.097886
0.210092 0.878424 0.064499
0.309144 0.878341 0.064514
0.394548 0.878282 0.064550
0.474021 0.878293 0.064604
0.549903 0.878256 0.064678
0.623455 0.878256 0.064790
0.695204 0.878152 0.064916
0.765398 0.878133 0.065102
0.834552 0.878008 0.065336
0.902385 0.877867 0.065618
0.933953 0.847002 0.065415
0.951519 0.809671 0.065123
0.958762 0.768627 0.064728
0.016000 0.902437 0.206446
0.016493 0.902568 0.193703
0.028224 0.903069 0.097120
0.200178 0.903128 0.064883
0.295300 0.903173 0.064921
0.377246 0.903074 0.064974
0.453417 0.903051 0.065059
0.526252 0.902973 0.065155
0.596810 0.903019 0.065300
0.665601 0.902920 0.065462
0.732921 0.902810 0.065679
0.799209 0.902849 0.065920
0.864310 0.902722 0.066228
0.928522 0.902606 0.066613
0.951296 0.867868 0.066072
0.958445 0.824103 0.065426
0.015956 0.919631 0.198171
0.016493 0.919786 0.186050
0.028711 0.920316 0.096622
0.189877 0.920299 0.065304
0.280941 0.920371 0.065355
0.359301 0.920287 0.065415
0.432194 0.920250 0.065503
0.501781 0.920173 0.065615
0.569204 0.920162 0.065748
0.634919 0.920111 0.065926
0.699351 0.920058 0.066120
0.762634 0.919966 0.066391
0.824836 0.919939 0.066710
0.886428 0.919868 0.067062
0.946021 0.919828 0.067463
0.958299 0.878499 0.066472
0.015939 0.927078 0.189084
0.016493 0.927078 0.177729
0.152910 0.927078 0.194187
0.225323 0.927078 0.198113
0.292339 0.927078 0.198113
0.357773 0.927078 0.198103
0.421765 0.927078 0.198132
0.484522 0.927078 0.198130
0.546178 0.927078 0.198128
0.606809 0.927078 0.198126
0.666579 0.927078 0.198123
0.725662 0.927077 0.198120
0.783723 0.927077 0.198116
0.841504 0.927077 0.198103
0.898588 0.927077 0.198114
0.953361 0.927077 0.198100
0.016492 -0.000576 0.327052
0.097415 -0.000620 0.327052
0.194860 -0.000771 0.327052
0.286778 -0.000992 0.327052
0.393238 -0.001293 0.341716
0.485178 -0.001614 0.343871
0.567326 -0.001947 0.341430
0.644795 -0.002281 0.338268
0.716517 -0.002601 0.334030
0.779307 -0.002902 0.327695
0.831229 -0.003181 0.319080
0.873465 -0.003433 0.309027
0.907426 -0.003652 0.298235
0.933619 -0.003830 0.287000
0.950943 -0.003957 0.275229
0.957918 -0.004009 0.262280
0.016491 0.089485 0.327052
0.016493 0.020070 0.343435
0.193257 0.000000 0.341252
0.295354 0.000000 0.336143
0.400284 0.000000 0.343085
0.490263 0.000000 0.341259
0.571141 0.000000 0.336743
0.647905 0.000000 0.332597
0.719041 0.000000 0.327727
0.781258 0.000000 0.321090
0.832777 0.000000 0.312354
0.874631 0.000000 0.302291
0.908626 0.000000 0.291673
0.934613 0.000000 0.280594
0.951773 0.000000 0.269061
0.958731 0.000000 0.256437
0.016486 0.189896 0.327052
0.016493 0.184818 0.334930
0.149796 0.146404 0.338456
0.293526 0.139002 0.336209
0.406903 0.124790 0.333978
0.501061 0.103735 0.324560
0.583107 0.083290 0.313994
0.659923 0.066536 0.305476
0.729811 0.053994 0.297671
0.790485 0.044804 0.289338
0.840397 0.038151 0.280005
0.881311 0.033374 0.270136
0.914351 0.030003 0.260171
0.939727 0.027694 0.250134
0.956457 0.026288 0.239921
0.963079 0.025737 0.228934
0.016479 0.283458 0.327051
0.016493 0.284627 0.328493
0.121396 0.285494 0.330560
0.284315 0.282749 0.328004
0.401746 0.278137 0.323289
0.498273 0.270801 0.315882
0.584583 0.259280 0.304697
0.666467 0.242730 0.289092
0.739430 0.225342 0.272842
0.800863 0.209146 0.257737
0.850529 0.195012 0.244584
0.890851 0.183168 0.233602
0.923442 0.173632 0.224777
0.948067 0.166387 0.218085
0.961557 0.196507 0.244562
0.964349 0.235743 0.280394
0.016461 0.389258 0.341599
0.016493 0.390019 0.338222
0.084716 0.392856 0.321414
0.266118 0.392548 0.311176
0.392778 0.390233 0.307182
0.493518 0.381428 0.297674
0.581019 0.370141 0.285241
0.662493 0.359040 0.271430
0.735694 0.347295 0.257995
0.797872 0.334269 0.245600
0.848322 0.320397 0.234707
0.889165 0.306488 0.225509
0.922192 0.293148 0.218066
0.947109 0.280453 0.212369
0.961469 0.282955 0.237543
0.964283 0.299579 0.279393
0.016438 0.478361 0.343211
0.016493 0.478937 0.337782
0.059876 0.481324 0.311146
0.233125 0.483250 0.281300
0.372889 0.481851 0.277506
0.484274 0.479809 0.270425
0.574636 0.468562 0.260141
0.656528 0.457792 0.249431
0.730472 0.446515 0.239400
0.793824 0.433209 0.230187
0.845031 0.417610 0.222062
0.886602 0.401106 0.215082
0.920086 0.384552 0.209435
0.945489 0.368171 0.205242
0.961415 0.355868 0.217690
0.964177 0.360009 0.271827
0.016402 0.557558 0.340559
0.016493 0.557914 0.334261
0.044797 0.559848 0.302987
0.200030 0.562572 0.251643
0.351572 0.561816 0.247075
0.465042 0.560509 0.242173
0.566082 0.558948 0.236247
0.650578 0.548861 0.228357
0.725428 0.536983 0.221216
0.789606 0.522402 0.214704
0.841659 0.504772 0.208962
0.883872 0.485609 0.204081
0.917881 0.466074 0.200121
0.943737 0.446443 0.197299
0.960750 0.426439 0.195837
0.964207 0.419932 0.260574
0.016359 0.632053 0.337572
0.016493 0.632349 0.330751
0.036014 0.633984 0.297220
0.173165 0.636774 0.228184
0.334574 0.636492 0.221604
0.449475 0.635573 0.218381
