modules/detection_bypass/_luts/natural_look.cube
LUT_3D_SIZE 6
0.016493 0.000000 0.040426
0.285071 -0.000870 0.040430
0.567326 -0.001893 0.040420
0.779307 -0.002871 0.040398
0.907426 -0.003632 0.040374
0.957918 -0.003996 0.040356
0.016480 0.282651 0.040420
0.285967 0.282651 0.040421
0.567326 0.297987 0.040411
0.779307 0.284082 0.040390
0.907426 0.254089 0.040361
0.957917 0.217194 0.040348
0.016406 0.557558 0.040388
0.300429 0.557558 0.040388
0.565800 0.557558 0.040379
0.779306 0.534732 0.040350
0.907425 0.482375 0.040331
0.957917 0.418151 0.040332
0.016249 0.759039 0.040314
0.286349 0.759040 0.040310
0.540295 0.759039 0.040301
0.776661 0.759038 0.040288
0.907424 0.688774 0.040274
0.957916 0.599474 0.040284
0.016057 0.877695 0.040236
0.256131 0.877695 0.040229
0.485454 0.877695 0.040220
0.698756 0.877695 0.040202
0.902382 0.877694 0.040173
0.957914 0.769550 0.040215
0.015938 0.927078 0.040176
0.220144 0.927078 0.040181
0.420204 0.927078 0.040172
0.606126 0.927078 0.040161
0.783660 0.927077 0.040143
0.953336 0.927077 0.040108
0.016492 -0.000576 0.327052
0.286778 -0.000992 0.327052
0.567326 -0.001947 0.341430
0.779307 -0.002902 0.327695
0.907426 -0.003652 0.298235
0.957918 -0.004009 0.262280
0.016479 0.283458 0.327051
0.284315 0.282749 0.328004
0.584583 0.259280 0.304697
0.800863 0.209146 0.257737
0.923442 0.173632 0.224777
0.964349 0.235743 0.280394
0.016402 0.557558 0.340559
0.200030 0.562572 0.251643
0.566082 0.558948 0.236247
0.789606 0.522402 0.214704
0.917881 0.466074 0.200121
0.964207 0.419932 0.260574
0.016247 0.759039 0.326645
0.138455 0.762293 0.198716
0.517996 0.761634 0.184393
0.776873 0.759798 0.177195
0.911836 0.684458 0.174047
0.963824 0.595242 0.177196
0.016055 0.877695 0.296729
0.115638 0.879700 0.177875
0.458284 0.879546 0.162725
0.690532 0.879041 0.160085
0.902493 0.878240 0.156725
0.960479 0.768578 0.161392
0.015938 0.927078 0.260980
0.285088 0.927078 0.321739
0.446960 0.927078 0.327055
0.618058 0.927078 0.327040
0.788225 0.927077 0.327060
0.953522 0.927077 0.327054
0.016485 -0.001254 0.600619
0.299581 -0.001488 0.600619
0.564285 -0.002159 0.600619
0.779307 -0.003032 0.578915
0.907426 -0.003736 0.525904
0.957917 -0.004064 0.461160
0.016466 0.296331 0.600619
0.275768 0.273008 0.620244
0.580140 0.248607 0.617123
0.799212 0.202362 0.577902
0.922648 0.170172 0.516121
0.964321 0.233357 0.468940
0.016394 0.556197 0.600617
0.194180 0.559378 0.604894
0.566285 0.557649 0.601963
0.795041 0.548766 0.592485
0.927444 0.536725 0.579511
0.964119 0.549294 0.590750
0.016239 0.759040 0.577085
0.136841 0.761886 0.559062
0.527773 0.764903 0.566347
0.777917 0.760790 0.557783
0.920440 0.704284 0.550583
0.963954 0.662502 0.584249
0.016048 0.877695 0.523188
0.115126 0.879558 0.500806
0.481019 0.884276 0.521862
0.698734 0.882436 0.518157
0.903522 0.879542 0.507610
0.963246 0.791201 0.557561
0.015933 0.927078 0.458944
0.285087 0.927078 0.481097
0.567280 0.927078 0.596444
0.684006 0.927078 0.600654
0.815948 0.927077 0.600653
0.954618 0.927077 0.600652
0.016467 -0.001902 0.805226
0.285237 -0.002047 0.805226
0.538264 -0.002547 0.805226
0.773620 -0.003275 0.805225
0.907426 -0.003900 0.735955
0.957917 -0.004172 0.644726
0.016451 0.281913 0.805226
0.255305 0.252477 0.832451
0.543140 0.228646 0.829813
0.789890 0.190258 0.821816
0.921136 0.163693 0.740904
0.964253 0.228257 0.650577
0.016375 0.530954 0.805225
0.183727 0.523554 0.819772
0.562641 0.553401 0.823474
0.789633 0.545298 0.820030
0.926670 0.533424 0.764033
0.964134 0.548466 0.710417
0.016222 0.756152 0.805223
0.133829 0.758408 0.808022
0.523093 0.761465 0.810926
0.777965 0.759081 0.806836
0.917814 0.754234 0.800277
0.963624 0.755540 0.800319
0.016032 0.877695 0.732169
0.114179 0.879389 0.726279
0.478145 0.883525 0.734839
0.757740 0.881485 0.785481
0.905318 0.878881 0.784781
0.962835 0.835003 0.793912
0.015922 0.927078 0.641515
0.285086 0.927078 0.651122
0.567280 0.927078 0.709908
0.779297 0.927077 0.801118
0.863666 0.927077 0.805315
0.956311 0.927077 0.805315
0.016449 -0.002406 0.925312
0.254642 -0.002500 0.925312
0.482691 -0.002856 0.925312
0.694867 -0.003433 0.925312
0.897364 -0.004143 0.925311
0.957917 -0.004338 0.818885
0.016434 0.251020 0.925312
0.244416 0.240945 0.945498
0.485220 0.223768 0.945070
0.703127 0.183165 0.942528
0.908609 0.154836 0.936541
0.964180 0.219333 0.824718
0.016368 0.476987 0.925311
0.178275 0.468402 0.940805
0.559577 0.549183 0.943704
0.732411 0.544300 0.942913
0.915826 0.531400 0.941462
0.964071 0.547183 0.847253
0.016232 0.681314 0.925310
0.135662 0.679081 0.931748
0.527993 0.705176 0.940522
0.775689 0.755196 0.938210
0.913437 0.752112 0.936045
0.963608 0.754801 0.886044
0.016009 0.872990 0.925377
0.112818 0.874062 0.926801
0.473769 0.878057 0.930998
0.755496 0.878347 0.929384
0.906117 0.877681 0.926859
0.961495 0.876376 0.924944
0.015903 0.927078 0.814883
0.285084 0.927078 0.818338
0.567279 0.927078 0.841392
0.779297 0.927077 0.882201
0.907420 0.927077 0.924497
0.957496 0.927077 0.925374
0.016438 -0.002647 0.977044
0.220166 -0.002709 0.977044
0.420180 -0.002951 0.977044
0.606130 -0.003373 0.977043
0.783664 -0.003925 0.977043
0.953342 -0.004559 0.977043
0.016425 0.215899 0.977044
0.285088 0.279856 0.977044
0.445657 0.282640 0.977044
0.617482 0.282637 0.977043
0.788110 0.282632 0.977043
0.953576 0.282648 0.977043
0.016377 0.415842 0.977043
0.285082 0.438751 0.977043
0.567323 0.555456 0.977043
0.682619 0.557555 0.977043
0.815313 0.557553 0.977043
0.954618 0.557523 0.977042
0.016277 0.596325 0.977043
0.285081 0.606226 0.977043
0.567288 0.665770 0.977042
0.779302 0.756717 0.977042
0.862250 0.759036 0.977042
0.956166 0.759035 0.977041
0.016115 0.765535 0.977042
0.285072 0.769175 0.977042
0.567284 0.793202 0.977042
0.779300 0.834873 0.977041
0.907421 0.877198 0.977040
0.957478 0.877693 0.977040
0.015877 0.927078 0.977040
0.285081 0.927078 0.977040
0.567279 0.927077 0.977040
0.779297 0.927077 0.977040
0.907420 0.927077 0.977039
0.957911 0.927076 0.977039
